(.../romang/EAGLE/ulps/pcb-gcode.ulp)
(Copyright 2005 - 2012 by John Johnson)
(See readme.txt for licensing terms.)
(This file generated from the board:)
(.../hw/ev_simulator/ev_emulator.brd)
(Current profile is .../EAGLE/ulps/profiles/generic.pp  )
(This file generated 03.01.19 09:28)
(Settings from pcb-machine.h)
(  Tool Size)
(0.1778 )
(Z Axis Settings)
(  High     Up        Down     Drill)
(12.7000 	2.5400 	-0.1000 	-2.0000 )
(spindle on time = 3.0000)
(milling depth = -2.0000)
(text depth = -0.1270)
(tool change at 12.7000 15.2400 25.4000 )
(feed rate xy = F200.00 )
(feed rate z  = F254.00 )
(Settings from pcb-defaults.h)
(isolate min = 0.0000)
(isolate max = 0.2000)
(isolate step = 0.2000)
(Generated top outlines, top drill, bottom outlines, bottom drill, )
(Unit of measure: mm)
( Tool|       Size       |  Min Sub |  Max Sub |   Count )
( T01  0.550mm 0.0217in 0.0000in 0.0000in )
( T02  0.600mm 0.0236in 0.0000in 0.0000in )
( T03  0.800mm 0.0315in 0.0000in 0.0000in )
( T04  0.813mm 0.0320in 0.0000in 0.0000in )
( T05  0.900mm 0.0354in 0.0000in 0.0000in )
( T06  1.000mm 0.0394in 0.0000in 0.0000in )
( T07  1.016mm 0.0400in 0.0000in 0.0000in )
( T08  2.000mm 0.0787in 0.0000in 0.0000in )
(Metric Mode)
G21
(Absolute Coordinates)
G90
M03 
G04 P3.000000
G00 Z2.540000
G00 X-50.2920 Y32.0040 
G01 Z-2.0000 F254.00 
G01 Z2.540000
(R2.5400  P1.000000)
(G00 Z2.540000)
G00 X-50.2920 Y34.5440 
G01 Z-2.000000
G01 Z2.540000
(G00 Z2.540000)
G00 X-50.2920 Y37.0840 
G01 Z-2.000000
G01 Z2.540000
(G00 Z2.540000)
G00 X-50.2920 Y39.6240 
G01 Z-2.000000
G01 Z2.540000
(G00 Z2.540000)
G00 X-50.2920 Y42.1640 
G01 Z-2.000000
G01 Z2.540000
(G00 Z2.540000)
G00 X-50.2920 Y44.7040 
G01 Z-2.000000
G01 Z2.540000
(G00 Z2.540000)
G00 X-50.2920 Y47.2440 
G01 Z-2.000000
G01 Z2.540000
(G00 Z2.540000)
G00 X-50.2920 Y49.7840 
G01 Z-2.000000
G01 Z2.540000
(G00 Z2.540000)
G00 X-50.2920 Y52.3240 
G01 Z-2.000000
G01 Z2.540000
(G00 Z2.540000)
G00 X-50.2920 Y54.8640 
G01 Z-2.000000
G01 Z2.540000
(G00 Z2.540000)
G00 X-50.2920 Y57.4040 
G01 Z-2.000000
G01 Z2.540000
(G00 Z2.540000)
G00 X-50.2920 Y59.9440 
G01 Z-2.000000
G01 Z2.540000
(G00 Z2.540000)
G00 X-50.2920 Y62.4840 
G01 Z-2.000000
G01 Z2.540000
(G00 Z2.540000)
G00 X-50.2920 Y65.0240 
G01 Z-2.000000
G01 Z2.540000
(G00 Z2.540000)
G00 X-50.2920 Y67.5640 
G01 Z-2.000000
G01 Z2.540000
(G00 Z2.540000)
G00 X-50.2920 Y19.3040 
G01 Z-2.000000
G01 Z2.540000
(G00 Z2.540000)
G00 X-50.2920 Y21.8440 
G01 Z-2.000000
G01 Z2.540000
(G00 Z2.540000)
G00 X-50.2920 Y24.3840 
G01 Z-2.000000
G01 Z2.540000
(G00 Z2.540000)
G00 X-50.2920 Y26.9240 
G01 Z-2.000000
G01 Z2.540000
(G00 Z2.540000)
G00 X-50.2920 Y29.4640 
G01 Z-2.000000
G01 Z2.540000
(G00 Z2.540000)
G00 X-65.5320 Y32.0040 
G01 Z-2.000000
G01 Z2.540000
(G00 Z2.540000)
G00 X-65.5320 Y34.5440 
G01 Z-2.000000
G01 Z2.540000
(G00 Z2.540000)
G00 X-65.5320 Y37.0840 
G01 Z-2.000000
G01 Z2.540000
(G00 Z2.540000)
G00 X-65.5320 Y39.6240 
G01 Z-2.000000
G01 Z2.540000
(G00 Z2.540000)
G00 X-65.5320 Y42.1640 
G01 Z-2.000000
G01 Z2.540000
(G00 Z2.540000)
G00 X-65.5320 Y44.7040 
G01 Z-2.000000
G01 Z2.540000
(G00 Z2.540000)
G00 X-65.5320 Y47.2440 
G01 Z-2.000000
G01 Z2.540000
(G00 Z2.540000)
G00 X-65.5320 Y49.7840 
G01 Z-2.000000
G01 Z2.540000
(G00 Z2.540000)
G00 X-65.5320 Y52.3240 
G01 Z-2.000000
G01 Z2.540000
(G00 Z2.540000)
G00 X-65.5320 Y54.8640 
G01 Z-2.000000
G01 Z2.540000
(G00 Z2.540000)
G00 X-65.5320 Y57.4040 
G01 Z-2.000000
G01 Z2.540000
(G00 Z2.540000)
G00 X-65.5320 Y59.9440 
G01 Z-2.000000
G01 Z2.540000
(G00 Z2.540000)
G00 X-65.5320 Y62.4840 
G01 Z-2.000000
G01 Z2.540000
(G00 Z2.540000)
G00 X-65.5320 Y65.0240 
G01 Z-2.000000
G01 Z2.540000
(G00 Z2.540000)
G00 X-65.5320 Y67.5640 
G01 Z-2.000000
G01 Z2.540000
(G00 Z2.540000)
G00 X-65.5320 Y19.3040 
G01 Z-2.000000
G01 Z2.540000
(G00 Z2.540000)
G00 X-65.5320 Y21.8440 
G01 Z-2.000000
G01 Z2.540000
(G00 Z2.540000)
G00 X-65.5320 Y24.3840 
G01 Z-2.000000
G01 Z2.540000
(G00 Z2.540000)
G00 X-65.5320 Y26.9240 
G01 Z-2.000000
G01 Z2.540000
(G00 Z2.540000)
G00 X-65.5320 Y29.4640 
G01 Z-2.000000
G01 Z2.540000
G04 P3.000000
G00 Z2.540000
M05
M02
