(.../romang/EAGLE/ulps/pcb-gcode.ulp)
(Copyright 2005 - 2012 by John Johnson)
(See readme.txt for licensing terms.)
(This file generated from the board:)
(.../hw/ev_simulator/ev_emulator.brd)
(Current profile is .../EAGLE/ulps/profiles/generic.pp  )
(This file generated 03.01.19 09:28)
(Settings from pcb-machine.h)
(  Tool Size)
(0.1778 )
(Z Axis Settings)
(  High     Up        Down     Drill)
(12.7000 	2.5400 	-0.1000 	-2.0000 )
(spindle on time = 3.0000)
(milling depth = -2.0000)
(text depth = -0.1270)
(tool change at 12.7000 15.2400 25.4000 )
(feed rate xy = F200.00 )
(feed rate z  = F254.00 )
(Settings from pcb-defaults.h)
(isolate min = 0.0000)
(isolate max = 0.2000)
(isolate step = 0.2000)
(Generated top outlines, top drill, bottom outlines, bottom drill, )
(Unit of measure: mm)
(Metric Mode)
G21
(Absolute Coordinates)
G90
G00 X0.0000 Y0.0000 
M03
G04 P3.000000
G00 Z2.5400 
G00 X-94.5889 Y2.8749 
G01 Z-0.1000 F254.00 
G01 X-94.5889 Y3.1251 F200.00 
G01 X-94.5498 Y3.3721 
G01 X-94.4725 Y3.6099 
G01 X-94.3589 Y3.8328 
G01 X-94.2119 Y4.0351 
G01 X-94.0351 Y4.2119 
G01 X-93.8328 Y4.3589 
G01 X-93.6099 Y4.4725 
G01 X-93.3721 Y4.5498 
G01 X-93.1251 Y4.5889 
G01 X-92.8749 Y4.5889 
G01 X-92.6279 Y4.5498 
G01 X-92.3901 Y4.4725 
G01 X-92.1672 Y4.3589 
G01 X-91.9649 Y4.2119 
G01 X-91.7881 Y4.0351 
G01 X-91.6411 Y3.8328 
G01 X-91.5275 Y3.6099 
G01 X-91.4502 Y3.3721 
G01 X-91.4111 Y3.1251 
G01 X-91.4111 Y2.8749 
G01 X-91.4502 Y2.6279 
G01 X-91.5275 Y2.3901 
G01 X-91.6411 Y2.1672 
G01 X-91.7881 Y1.9649 
G01 X-91.9649 Y1.7881 
G01 X-92.1672 Y1.6411 
G01 X-92.3901 Y1.5275 
G01 X-92.6279 Y1.4502 
G01 X-92.8749 Y1.4111 
G01 X-93.1251 Y1.4111 
G01 X-93.3721 Y1.4502 
G01 X-93.6099 Y1.5275 
G01 X-93.8328 Y1.6411 
G01 X-94.0351 Y1.7881 
G01 X-94.2119 Y1.9649 
G01 X-94.3589 Y2.1672 
G01 X-94.4725 Y2.3901 
G01 X-94.5498 Y2.6279 
G01 X-94.5889 Y2.8749 
G00 Z2.5400 
G00 X-4.5889 Y2.8749 
G01 Z-0.1000 F254.00 
G01 X-4.5889 Y3.1251 F200.00 
G01 X-4.5498 Y3.3721 
G01 X-4.4725 Y3.6099 
G01 X-4.3589 Y3.8328 
G01 X-4.2119 Y4.0351 
G01 X-4.0351 Y4.2119 
G01 X-3.8328 Y4.3589 
G01 X-3.6099 Y4.4725 
G01 X-3.3721 Y4.5498 
G01 X-3.1251 Y4.5889 
G01 X-2.8749 Y4.5889 
G01 X-2.6279 Y4.5498 
G01 X-2.3901 Y4.4725 
G01 X-2.1672 Y4.3589 
G01 X-1.9649 Y4.2119 
G01 X-1.7881 Y4.0351 
G01 X-1.6411 Y3.8328 
G01 X-1.5275 Y3.6099 
G01 X-1.4502 Y3.3721 
G01 X-1.4111 Y3.1251 
G01 X-1.4111 Y2.8749 
G01 X-1.4502 Y2.6279 
G01 X-1.5275 Y2.3901 
G01 X-1.6411 Y2.1672 
G01 X-1.7881 Y1.9649 
G01 X-1.9649 Y1.7881 
G01 X-2.1672 Y1.6411 
G01 X-2.3901 Y1.5275 
G01 X-2.6279 Y1.4502 
G01 X-2.8749 Y1.4111 
G01 X-3.1251 Y1.4111 
G01 X-3.3721 Y1.4502 
G01 X-3.6099 Y1.5275 
G01 X-3.8328 Y1.6411 
G01 X-4.0351 Y1.7881 
G01 X-4.2119 Y1.9649 
G01 X-4.3589 Y2.1672 
G01 X-4.4725 Y2.3901 
G01 X-4.5498 Y2.6279 
G01 X-4.5889 Y2.8749 
G00 Z2.5400 
G00 X-4.5889 Y73.8749 
G01 Z-0.1000 F254.00 
G01 X-4.5889 Y74.1251 F200.00 
G01 X-4.5498 Y74.3721 
G01 X-4.4725 Y74.6099 
G01 X-4.3589 Y74.8328 
G01 X-4.2119 Y75.0351 
G01 X-4.0351 Y75.2119 
G01 X-3.8328 Y75.3589 
G01 X-3.6099 Y75.4725 
G01 X-3.3721 Y75.5498 
G01 X-3.1251 Y75.5889 
G01 X-2.8749 Y75.5889 
G01 X-2.6279 Y75.5498 
G01 X-2.3901 Y75.4725 
G01 X-2.1672 Y75.3589 
G01 X-1.9649 Y75.2119 
G01 X-1.7881 Y75.0351 
G01 X-1.6411 Y74.8328 
G01 X-1.5275 Y74.6099 
G01 X-1.4502 Y74.3721 
G01 X-1.4111 Y74.1251 
G01 X-1.4111 Y73.8749 
G01 X-1.4502 Y73.6279 
G01 X-1.5275 Y73.3901 
G01 X-1.6411 Y73.1672 
G01 X-1.7881 Y72.9649 
G01 X-1.9649 Y72.7881 
G01 X-2.1672 Y72.6411 
G01 X-2.3901 Y72.5275 
G01 X-2.6279 Y72.4502 
G01 X-2.8749 Y72.4111 
G01 X-3.1251 Y72.4111 
G01 X-3.3721 Y72.4502 
G01 X-3.6099 Y72.5275 
G01 X-3.8328 Y72.6411 
G01 X-4.0351 Y72.7881 
G01 X-4.2119 Y72.9649 
G01 X-4.3589 Y73.1672 
G01 X-4.4725 Y73.3901 
G01 X-4.5498 Y73.6279 
G01 X-4.5889 Y73.8749 
G00 Z2.5400 
G00 X-61.1441 Y11.2757 
G01 Z-0.1000 F254.00 
G01 X-61.1441 Y9.7323 F200.00 
G01 X-61.1576 Y9.6996 
G01 X-61.1826 Y9.6746 
G01 X-61.2153 Y9.6611 
G01 X-62.7587 Y9.6611 
G01 X-62.7914 Y9.6746 
G01 X-62.8164 Y9.6996 
G01 X-62.8299 Y9.7323 
G01 X-62.8299 Y10.8620 
G01 X-67.9140 Y15.9461 
G01 X-75.0156 Y15.9461 
G01 X-75.0754 Y15.8017 
G01 X-75.1880 Y15.6332 
G01 X-75.3312 Y15.4900 
G01 X-75.4997 Y15.3774 
G01 X-75.6869 Y15.2998 
G01 X-75.7591 Y15.2855 
G01 X-75.7591 Y5.9469 
G01 X-49.5568 Y5.9469 
G01 X-49.4821 Y5.9669 
G01 X-49.0619 Y5.9669 
G01 X-48.9872 Y5.9469 
G01 X-48.2899 Y5.9469 
G01 X-45.5549 Y8.6714 
G01 X-45.5549 Y21.5011 
G01 X-48.9759 Y21.5011 
G01 X-48.9796 Y21.4921 
G01 X-49.0610 Y21.3704 
G01 X-49.1644 Y21.2670 
G01 X-49.2861 Y21.1857 
G01 X-49.4213 Y21.1297 
G01 X-49.5648 Y21.1011 
G01 X-51.0192 Y21.1011 
G01 X-51.1627 Y21.1297 
G01 X-51.2979 Y21.1857 
G01 X-51.4196 Y21.2670 
G01 X-51.5230 Y21.3704 
G01 X-51.6043 Y21.4921 
G01 X-51.6603 Y21.6273 
G01 X-51.6889 Y21.7708 
G01 X-51.6889 Y21.9172 
G01 X-51.6603 Y22.0607 
G01 X-51.6043 Y22.1959 
G01 X-51.5230 Y22.3176 
G01 X-51.4196 Y22.4210 
G01 X-51.2979 Y22.5023 
G01 X-51.1627 Y22.5583 
G01 X-51.0192 Y22.5869 
G01 X-49.5648 Y22.5869 
G01 X-49.4213 Y22.5583 
G01 X-49.2861 Y22.5023 
G01 X-49.1644 Y22.4210 
G01 X-49.0610 Y22.3176 
G01 X-48.9796 Y22.1959 
G01 X-48.9759 Y22.1869 
G01 X-45.1669 Y22.1869 
G01 X-45.0796 Y22.1635 
G01 X-45.0015 Y22.1184 
G01 X-44.9376 Y22.0545 
G01 X-44.8925 Y21.9764 
G01 X-44.8691 Y21.8891 
G01 X-44.8691 Y8.8896 
G01 X-39.3463 Y8.8896 
G01 X-39.3463 Y9.0094 
G01 X-38.9399 Y9.4158 
G01 X-38.9399 Y11.4868 
G01 X-38.9165 Y11.5740 
G01 X-38.8714 Y11.6522 
G01 X-38.8414 Y11.6822 
G01 X-37.9349 Y12.5887 
G01 X-37.9349 Y17.0111 
G01 X-38.8356 Y17.0111 
G01 X-38.8954 Y16.8667 
G01 X-39.0080 Y16.6982 
G01 X-39.1512 Y16.5550 
G01 X-39.3197 Y16.4424 
G01 X-39.5069 Y16.3648 
G01 X-39.7057 Y16.3253 
G01 X-39.9083 Y16.3253 
G01 X-40.1071 Y16.3648 
G01 X-40.2943 Y16.4424 
G01 X-40.4628 Y16.5550 
G01 X-40.6060 Y16.6982 
G01 X-40.7186 Y16.8667 
G01 X-40.7962 Y17.0539 
G01 X-40.8357 Y17.2527 
G01 X-40.8357 Y17.4553 
G01 X-40.7962 Y17.6541 
G01 X-40.7186 Y17.8413 
G01 X-40.6060 Y18.0098 
G01 X-40.4628 Y18.1530 
G01 X-40.2943 Y18.2656 
G01 X-40.1071 Y18.3432 
G01 X-39.9083 Y18.3827 
G01 X-39.7057 Y18.3827 
G01 X-39.5069 Y18.3432 
G01 X-39.3197 Y18.2656 
G01 X-39.1512 Y18.1530 
G01 X-39.0080 Y18.0098 
G01 X-38.8954 Y17.8413 
G01 X-38.8356 Y17.6969 
G01 X-37.9349 Y17.6969 
G01 X-37.9349 Y18.8670 
G01 X-39.0725 Y20.0046 
G01 X-39.1364 Y20.0685 
G01 X-39.1815 Y20.1466 
G01 X-39.2049 Y20.2339 
G01 X-39.2049 Y28.2391 
G01 X-39.1815 Y28.3264 
G01 X-39.1364 Y28.4045 
G01 X-39.0725 Y28.4684 
G01 X-37.0713 Y30.4696 
G01 X-37.0713 Y31.0444 
G01 X-36.6649 Y31.4508 
G01 X-36.6649 Y38.6911 
G01 X-39.8106 Y38.6911 
G01 X-39.8704 Y38.5467 
G01 X-39.9830 Y38.3782 
G01 X-40.1262 Y38.2350 
G01 X-40.2947 Y38.1224 
G01 X-40.4819 Y38.0448 
G01 X-40.6807 Y38.0053 
G01 X-40.8833 Y38.0053 
G01 X-41.0821 Y38.0448 
G01 X-41.2693 Y38.1224 
G01 X-41.4378 Y38.2350 
G01 X-41.5810 Y38.3782 
G01 X-41.6936 Y38.5467 
G01 X-41.7712 Y38.7339 
G01 X-41.8107 Y38.9327 
G01 X-41.8107 Y39.1353 
G01 X-41.7712 Y39.3341 
G01 X-41.6936 Y39.5213 
G01 X-41.5810 Y39.6898 
G01 X-41.4378 Y39.8330 
G01 X-41.2693 Y39.9456 
G01 X-41.1249 Y40.0054 
G01 X-41.1249 Y42.8291 
G01 X-41.1015 Y42.9164 
G01 X-41.0564 Y42.9945 
G01 X-40.9925 Y43.0584 
G01 X-37.0713 Y46.9796 
G01 X-37.0713 Y47.5544 
G01 X-36.6649 Y47.9608 
G01 X-36.6649 Y53.2511 
G01 X-38.9071 Y53.2511 
G01 X-38.9944 Y53.2745 
G01 X-39.0725 Y53.3196 
G01 X-39.1364 Y53.3835 
G01 X-39.1815 Y53.4616 
G01 X-39.2049 Y53.5489 
G01 X-39.2049 Y53.9011 
G01 X-40.4606 Y53.9011 
G01 X-40.5204 Y53.7567 
G01 X-40.6330 Y53.5882 
G01 X-40.7762 Y53.4450 
G01 X-40.9447 Y53.3324 
G01 X-41.1319 Y53.2548 
G01 X-41.3307 Y53.2153 
G01 X-41.5333 Y53.2153 
G01 X-41.7321 Y53.2548 
G01 X-41.9193 Y53.3324 
G01 X-42.0878 Y53.4450 
G01 X-42.2310 Y53.5882 
G01 X-42.3436 Y53.7567 
G01 X-42.4212 Y53.9439 
G01 X-42.4607 Y54.1427 
G01 X-42.4607 Y54.3453 
G01 X-42.4212 Y54.5441 
G01 X-42.3436 Y54.7313 
G01 X-42.2310 Y54.8998 
G01 X-42.0878 Y55.0430 
G01 X-41.9193 Y55.1556 
G01 X-41.7321 Y55.2332 
G01 X-41.5333 Y55.2727 
G01 X-41.3307 Y55.2727 
G01 X-41.1319 Y55.2332 
G01 X-40.9447 Y55.1556 
G01 X-40.7762 Y55.0430 
G01 X-40.6330 Y54.8998 
G01 X-40.5204 Y54.7313 
G01 X-40.4606 Y54.5869 
G01 X-39.2049 Y54.5869 
G01 X-39.2049 Y61.2891 
G01 X-39.1815 Y61.3764 
G01 X-39.1364 Y61.4545 
G01 X-39.0725 Y61.5184 
G01 X-38.3713 Y62.2196 
G01 X-38.3713 Y62.7944 
G01 X-37.9324 Y63.2333 
G01 X-37.3576 Y63.2333 
G01 X-37.3149 Y63.2760 
G01 X-37.3149 Y69.7911 
G01 X-41.1106 Y69.7911 
G01 X-41.1704 Y69.6467 
G01 X-41.2830 Y69.4782 
G01 X-41.4262 Y69.3350 
G01 X-41.5947 Y69.2224 
G01 X-41.7819 Y69.1448 
G01 X-41.9807 Y69.1053 
G01 X-42.1833 Y69.1053 
G01 X-42.3821 Y69.1448 
G01 X-42.5693 Y69.2224 
G01 X-42.7378 Y69.3350 
G01 X-42.8810 Y69.4782 
G01 X-42.9936 Y69.6467 
G01 X-43.0712 Y69.8339 
G01 X-43.1107 Y70.0327 
G01 X-43.1107 Y70.2353 
G01 X-43.0712 Y70.4341 
G01 X-42.9936 Y70.6213 
G01 X-42.8810 Y70.7898 
G01 X-42.7378 Y70.9330 
G01 X-42.5693 Y71.0456 
G01 X-42.3821 Y71.1232 
G01 X-42.1833 Y71.1627 
G01 X-41.9807 Y71.1627 
G01 X-41.7819 Y71.1232 
G01 X-41.5947 Y71.0456 
G01 X-41.4262 Y70.9330 
G01 X-41.2830 Y70.7898 
G01 X-41.1704 Y70.6213 
G01 X-41.1106 Y70.4769 
G01 X-36.9269 Y70.4769 
G01 X-36.8396 Y70.4535 
G01 X-36.7615 Y70.4084 
G01 X-36.6976 Y70.3445 
G01 X-36.6525 Y70.2664 
G01 X-36.6291 Y70.1791 
G01 X-36.6291 Y63.0889 
G01 X-36.6525 Y63.0016 
G01 X-36.6976 Y62.9235 
G01 X-36.8727 Y62.7484 
G01 X-36.8727 Y62.1736 
G01 X-37.3116 Y61.7347 
G01 X-37.8864 Y61.7347 
G01 X-38.5191 Y61.1020 
G01 X-38.5191 Y53.9369 
G01 X-36.6649 Y53.9369 
G01 X-36.6649 Y56.3823 
G01 X-36.6415 Y56.4696 
G01 X-36.5964 Y56.5477 
G01 X-36.5325 Y56.6116 
G01 X-36.4544 Y56.6567 
G01 X-36.3671 Y56.6801 
G01 X-26.4417 Y56.6801 
G01 X-25.4435 Y57.6784 
G01 X-25.3653 Y57.7235 
G01 X-25.2781 Y57.7469 
G01 X-19.8714 Y57.7469 
G01 X-19.8664 Y57.7589 
G01 X-19.7844 Y57.8817 
G01 X-19.6801 Y57.9860 
G01 X-19.5573 Y58.0680 
G01 X-19.4210 Y58.1245 
G01 X-19.2762 Y58.1533 
G01 X-18.2776 Y58.1533 
G01 X-17.6199 Y58.8110 
G01 X-17.6199 Y63.6630 
G01 X-17.6744 Y63.6856 
G01 X-17.8118 Y63.7774 
G01 X-17.9286 Y63.8942 
G01 X-18.0204 Y64.0316 
G01 X-18.0837 Y64.1843 
G01 X-18.1159 Y64.3464 
G01 X-18.1159 Y64.5116 
G01 X-18.0837 Y64.6737 
G01 X-18.0204 Y64.8264 
G01 X-17.9286 Y64.9638 
G01 X-17.8118 Y65.0806 
G01 X-17.6744 Y65.1724 
G01 X-17.5217 Y65.2357 
G01 X-17.3596 Y65.2679 
G01 X-17.1944 Y65.2679 
G01 X-17.0323 Y65.2357 
G01 X-16.8796 Y65.1724 
G01 X-16.7422 Y65.0806 
G01 X-16.6254 Y64.9638 
G01 X-16.5336 Y64.8264 
G01 X-16.4703 Y64.6737 
G01 X-16.4381 Y64.5116 
G01 X-16.4381 Y64.3464 
G01 X-16.4703 Y64.1843 
G01 X-16.5336 Y64.0316 
G01 X-16.6254 Y63.8942 
G01 X-16.7422 Y63.7774 
G01 X-16.8796 Y63.6856 
G01 X-16.9341 Y63.6630 
G01 X-16.9341 Y58.6239 
G01 X-16.9575 Y58.5366 
G01 X-17.0026 Y58.4585 
G01 X-17.0665 Y58.3946 
G01 X-17.4466 Y58.0145 
G01 X-17.4039 Y57.9860 
G01 X-17.2996 Y57.8817 
G01 X-17.2176 Y57.7589 
G01 X-17.1611 Y57.6226 
G01 X-17.1323 Y57.4778 
G01 X-17.1323 Y57.3302 
G01 X-17.1611 Y57.1854 
G01 X-17.2176 Y57.0491 
G01 X-17.2996 Y56.9263 
G01 X-17.4039 Y56.8220 
G01 X-17.5267 Y56.7400 
G01 X-17.6630 Y56.6835 
G01 X-17.8078 Y56.6547 
G01 X-19.2762 Y56.6547 
G01 X-19.4210 Y56.6835 
G01 X-19.5573 Y56.7400 
G01 X-19.6801 Y56.8220 
G01 X-19.7844 Y56.9263 
G01 X-19.8664 Y57.0491 
G01 X-19.8714 Y57.0611 
G01 X-25.0909 Y57.0611 
G01 X-26.0253 Y56.1267 
G01 X-26.0892 Y56.0628 
G01 X-26.1674 Y56.0177 
G01 X-26.2546 Y55.9943 
G01 X-35.9791 Y55.9943 
G01 X-35.9791 Y47.9608 
G01 X-35.5727 Y47.5544 
G01 X-35.5727 Y46.9336 
G01 X-36.0116 Y46.4947 
G01 X-36.5864 Y46.4947 
G01 X-40.4391 Y42.6420 
G01 X-40.4391 Y40.0054 
G01 X-40.2947 Y39.9456 
G01 X-40.1262 Y39.8330 
G01 X-39.9830 Y39.6898 
G01 X-39.8704 Y39.5213 
G01 X-39.8106 Y39.3769 
G01 X-36.2769 Y39.3769 
G01 X-36.1896 Y39.3535 
G01 X-36.1115 Y39.3084 
G01 X-36.0476 Y39.2445 
G01 X-36.0025 Y39.1664 
G01 X-35.9791 Y39.0791 
G01 X-35.9791 Y31.4508 
G01 X-35.5727 Y31.0444 
G01 X-35.5727 Y30.4236 
G01 X-36.0116 Y29.9847 
G01 X-36.5864 Y29.9847 
G01 X-38.5191 Y28.0520 
G01 X-38.5191 Y20.4210 
G01 X-37.3815 Y19.2834 
G01 X-37.3176 Y19.2195 
G01 X-37.2725 Y19.1414 
G01 X-37.2491 Y19.0541 
G01 X-37.2491 Y12.4015 
G01 X-37.2725 Y12.3143 
G01 X-37.3176 Y12.2361 
G01 X-38.2241 Y11.3296 
G01 X-38.2241 Y9.3858 
G01 X-37.8477 Y9.0094 
G01 X-37.8477 Y8.3886 
G01 X-38.2866 Y7.9497 
G01 X-38.9074 Y7.9497 
G01 X-39.1614 Y8.2038 
G01 X-45.0526 Y8.2038 
G01 X-47.9064 Y5.3609 
G01 X-47.9377 Y5.3296 
G01 X-47.9775 Y5.3066 
G01 X-48.0159 Y5.2845 
G01 X-48.0601 Y5.2726 
G01 X-48.1031 Y5.2611 
G01 X-48.1489 Y5.2611 
G01 X-49.1721 Y5.2611 
G01 X-49.2468 Y5.2811 
G01 X-49.3372 Y5.2811 
G01 X-49.4119 Y5.2611 
G01 X-86.8721 Y5.2611 
G01 X-86.9594 Y5.2845 
G01 X-87.0375 Y5.3296 
G01 X-87.1014 Y5.3935 
G01 X-91.9764 Y10.2685 
G01 X-92.0215 Y10.3466 
G01 X-92.0449 Y10.4339 
G01 X-92.0449 Y69.9991 
G01 X-92.0215 Y70.0864 
G01 X-91.9764 Y70.1645 
G01 X-91.9125 Y70.2284 
G01 X-89.2964 Y72.8445 
G01 X-89.2325 Y72.9084 
G01 X-89.1544 Y72.9535 
G01 X-89.0671 Y72.9769 
G01 X-80.3619 Y72.9769 
G01 X-80.2746 Y72.9535 
G01 X-80.1965 Y72.9084 
G01 X-80.1326 Y72.8445 
G01 X-79.2276 Y71.9395 
G01 X-79.1825 Y71.8614 
G01 X-79.1591 Y71.7741 
G01 X-79.1591 Y71.4334 
G01 X-79.1471 Y71.4284 
G01 X-79.0243 Y71.3464 
G01 X-78.9200 Y71.2421 
G01 X-78.8380 Y71.1193 
G01 X-78.7815 Y70.9830 
G01 X-78.7527 Y70.8382 
G01 X-78.7527 Y69.3698 
G01 X-78.7815 Y69.2250 
G01 X-78.8380 Y69.0887 
G01 X-78.9200 Y68.9659 
G01 X-79.0243 Y68.8616 
G01 X-79.1471 Y68.7796 
G01 X-79.2834 Y68.7231 
G01 X-79.4282 Y68.6943 
G01 X-79.5758 Y68.6943 
G01 X-79.7206 Y68.7231 
G01 X-79.8569 Y68.7796 
G01 X-79.9797 Y68.8616 
G01 X-80.0840 Y68.9659 
G01 X-80.1660 Y69.0887 
G01 X-80.2225 Y69.2250 
G01 X-80.2513 Y69.3698 
G01 X-80.2513 Y70.8382 
G01 X-80.2225 Y70.9830 
G01 X-80.1660 Y71.1193 
G01 X-80.0840 Y71.2421 
G01 X-79.9797 Y71.3464 
G01 X-79.8569 Y71.4284 
G01 X-79.8449 Y71.4334 
G01 X-79.8449 Y71.5870 
G01 X-80.5490 Y72.2911 
G01 X-88.8800 Y72.2911 
G01 X-91.3591 Y69.8120 
G01 X-91.3591 Y56.4508 
G01 X-91.3544 Y56.4535 
G01 X-91.2671 Y56.4769 
G01 X-90.6334 Y56.4769 
G01 X-90.5736 Y56.6213 
G01 X-90.4610 Y56.7898 
G01 X-90.3178 Y56.9330 
G01 X-90.1493 Y57.0456 
G01 X-89.9621 Y57.1232 
G01 X-89.7633 Y57.1627 
G01 X-89.5607 Y57.1627 
G01 X-89.3619 Y57.1232 
G01 X-89.1747 Y57.0456 
G01 X-89.0062 Y56.9330 
G01 X-88.8630 Y56.7898 
G01 X-88.7504 Y56.6213 
G01 X-88.6728 Y56.4341 
G01 X-88.6333 Y56.2353 
G01 X-88.6333 Y56.0327 
G01 X-88.6728 Y55.8339 
G01 X-88.7504 Y55.6467 
G01 X-88.8630 Y55.4782 
G01 X-89.0062 Y55.3350 
G01 X-89.1747 Y55.2224 
G01 X-89.3619 Y55.1448 
G01 X-89.5607 Y55.1053 
G01 X-89.7633 Y55.1053 
G01 X-89.9621 Y55.1448 
G01 X-90.1493 Y55.2224 
G01 X-90.3178 Y55.3350 
G01 X-90.4610 Y55.4782 
G01 X-90.5736 Y55.6467 
G01 X-90.6334 Y55.7911 
G01 X-91.0800 Y55.7911 
G01 X-91.3591 Y55.5120 
G01 X-91.3591 Y51.2460 
G01 X-90.4978 Y50.3847 
G01 X-90.4610 Y50.4398 
G01 X-90.3178 Y50.5830 
G01 X-90.1493 Y50.6956 
G01 X-89.9621 Y50.7732 
G01 X-89.7633 Y50.8127 
G01 X-89.5607 Y50.8127 
G01 X-89.3619 Y50.7732 
G01 X-89.2176 Y50.7134 
G01 X-88.6664 Y51.2645 
G01 X-88.6025 Y51.3284 
G01 X-88.5244 Y51.3735 
G01 X-88.4371 Y51.3969 
G01 X-84.2834 Y51.3969 
G01 X-84.2236 Y51.5413 
G01 X-84.1110 Y51.7098 
G01 X-83.9678 Y51.8530 
G01 X-83.7993 Y51.9656 
G01 X-83.6121 Y52.0432 
G01 X-83.4133 Y52.0827 
G01 X-83.2107 Y52.0827 
G01 X-83.0119 Y52.0432 
G01 X-82.8247 Y51.9656 
G01 X-82.6562 Y51.8530 
G01 X-82.5130 Y51.7098 
G01 X-82.4004 Y51.5413 
G01 X-82.3228 Y51.3541 
G01 X-82.2833 Y51.1553 
G01 X-82.2833 Y50.9527 
G01 X-82.3228 Y50.7539 
G01 X-82.4004 Y50.5667 
G01 X-82.5130 Y50.3982 
G01 X-82.6562 Y50.2550 
G01 X-82.8247 Y50.1424 
G01 X-82.9091 Y50.1074 
G01 X-82.9091 Y48.5960 
G01 X-81.2164 Y46.9034 
G01 X-81.0721 Y46.9632 
G01 X-80.8733 Y47.0027 
G01 X-80.6707 Y47.0027 
G01 X-80.4719 Y46.9632 
G01 X-80.2847 Y46.8856 
G01 X-80.1162 Y46.7730 
G01 X-79.9730 Y46.6298 
G01 X-79.8604 Y46.4613 
G01 X-79.7828 Y46.2741 
G01 X-79.7433 Y46.0753 
G01 X-79.7433 Y45.8727 
G01 X-79.7828 Y45.6739 
G01 X-79.8426 Y45.5296 
G01 X-79.2600 Y44.9469 
G01 X-72.1240 Y44.9469 
G01 X-71.5414 Y45.5296 
G01 X-71.6012 Y45.6739 
G01 X-71.6407 Y45.8727 
G01 X-71.6407 Y46.0753 
G01 X-71.6012 Y46.2741 
G01 X-71.5236 Y46.4613 
G01 X-71.4110 Y46.6298 
G01 X-71.2678 Y46.7730 
G01 X-71.0993 Y46.8856 
G01 X-70.9549 Y46.9454 
G01 X-70.9549 Y47.4220 
G01 X-72.3440 Y48.8111 
G01 X-73.8371 Y48.8111 
G01 X-73.9244 Y48.8345 
G01 X-74.0025 Y48.8796 
G01 X-74.0664 Y48.9435 
G01 X-75.2476 Y50.1246 
G01 X-75.3919 Y50.0648 
G01 X-75.5907 Y50.0253 
G01 X-75.7933 Y50.0253 
G01 X-75.9921 Y50.0648 
G01 X-76.1793 Y50.1424 
G01 X-76.3478 Y50.2550 
G01 X-76.4910 Y50.3982 
G01 X-76.6036 Y50.5667 
G01 X-76.6812 Y50.7539 
G01 X-76.7207 Y50.9527 
G01 X-76.7207 Y51.1553 
G01 X-76.6812 Y51.3541 
G01 X-76.6036 Y51.5413 
G01 X-76.4910 Y51.7098 
G01 X-76.3478 Y51.8530 
G01 X-76.1793 Y51.9656 
G01 X-75.9921 Y52.0432 
G01 X-75.7933 Y52.0827 
G01 X-75.5907 Y52.0827 
G01 X-75.3919 Y52.0432 
G01 X-75.2047 Y51.9656 
G01 X-75.0362 Y51.8530 
G01 X-74.8930 Y51.7098 
G01 X-74.7804 Y51.5413 
G01 X-74.7028 Y51.3541 
G01 X-74.6633 Y51.1553 
G01 X-74.6633 Y50.9527 
G01 X-74.7028 Y50.7539 
G01 X-74.7626 Y50.6096 
G01 X-73.6500 Y49.4969 
G01 X-72.1569 Y49.4969 
G01 X-72.0696 Y49.4735 
G01 X-71.9915 Y49.4284 
G01 X-71.9276 Y49.3645 
G01 X-70.4015 Y47.8384 
G01 X-70.3376 Y47.7745 
G01 X-70.2925 Y47.6964 
G01 X-70.2691 Y47.6091 
G01 X-70.2691 Y46.9454 
G01 X-70.1247 Y46.8856 
G01 X-69.9562 Y46.7730 
G01 X-69.8130 Y46.6298 
G01 X-69.7004 Y46.4613 
G01 X-69.6228 Y46.2741 
G01 X-69.5833 Y46.0753 
G01 X-69.5833 Y45.8727 
G01 X-69.6228 Y45.6739 
G01 X-69.7004 Y45.4867 
G01 X-69.8130 Y45.3182 
G01 X-69.9562 Y45.1750 
G01 X-70.1247 Y45.0624 
G01 X-70.3119 Y44.9848 
G01 X-70.5107 Y44.9453 
G01 X-70.7133 Y44.9453 
G01 X-70.9121 Y44.9848 
G01 X-71.0564 Y45.0446 
G01 X-71.7076 Y44.3935 
G01 X-71.7715 Y44.3296 
G01 X-71.8496 Y44.2845 
G01 X-71.9369 Y44.2611 
G01 X-79.4471 Y44.2611 
G01 X-79.5344 Y44.2845 
G01 X-79.6125 Y44.3296 
G01 X-79.6764 Y44.3935 
G01 X-80.3276 Y45.0446 
G01 X-80.4719 Y44.9848 
G01 X-80.6707 Y44.9453 
G01 X-80.8733 Y44.9453 
G01 X-81.0721 Y44.9848 
G01 X-81.2593 Y45.0624 
G01 X-81.4278 Y45.1750 
G01 X-81.5710 Y45.3182 
G01 X-81.6836 Y45.4867 
G01 X-81.7612 Y45.6739 
G01 X-81.8007 Y45.8727 
G01 X-81.8007 Y46.0753 
G01 X-81.7612 Y46.2741 
G01 X-81.7014 Y46.4184 
G01 X-83.4625 Y48.1796 
G01 X-83.5264 Y48.2435 
G01 X-83.5715 Y48.3216 
G01 X-83.5949 Y48.4089 
G01 X-83.5949 Y50.0614 
G01 X-83.6121 Y50.0648 
G01 X-83.7993 Y50.1424 
G01 X-83.9678 Y50.2550 
G01 X-84.1110 Y50.3982 
G01 X-84.2236 Y50.5667 
G01 X-84.2834 Y50.7111 
G01 X-88.2500 Y50.7111 
G01 X-88.7326 Y50.2284 
G01 X-88.6728 Y50.0841 
G01 X-88.6333 Y49.8853 
G01 X-88.6333 Y49.6827 
G01 X-88.6728 Y49.4839 
G01 X-88.7504 Y49.2967 
G01 X-88.8630 Y49.1282 
G01 X-89.0062 Y48.9850 
G01 X-89.1747 Y48.8724 
G01 X-89.3619 Y48.7948 
G01 X-89.5607 Y48.7553 
G01 X-89.7633 Y48.7553 
G01 X-89.9621 Y48.7948 
G01 X-90.1493 Y48.8724 
G01 X-90.3178 Y48.9850 
G01 X-90.4610 Y49.1282 
G01 X-90.5736 Y49.2967 
G01 X-90.6512 Y49.4839 
G01 X-90.6721 Y49.5892 
G01 X-91.3591 Y50.2762 
G01 X-91.3591 Y20.8969 
G01 X-90.2767 Y20.8969 
G01 X-90.2498 Y20.9619 
G01 X-90.1372 Y21.1304 
G01 X-89.9940 Y21.2736 
G01 X-89.8255 Y21.3862 
G01 X-89.6383 Y21.4638 
G01 X-89.4395 Y21.5033 
G01 X-89.2369 Y21.5033 
G01 X-89.0381 Y21.4638 
G01 X-88.8509 Y21.3862 
G01 X-88.6824 Y21.2736 
G01 X-88.5392 Y21.1304 
G01 X-88.4266 Y20.9619 
G01 X-88.3997 Y20.8969 
G01 X-83.7743 Y20.8969 
G01 X-83.7474 Y20.9619 
G01 X-83.6348 Y21.1304 
G01 X-83.4916 Y21.2736 
G01 X-83.3231 Y21.3862 
G01 X-83.1787 Y21.4460 
G01 X-83.1787 Y24.1670 
G01 X-83.3231 Y24.2268 
G01 X-83.4916 Y24.3394 
G01 X-83.6348 Y24.4826 
G01 X-83.7474 Y24.6511 
G01 X-83.7930 Y24.7611 
G01 X-88.3810 Y24.7611 
G01 X-88.4266 Y24.6511 
G01 X-88.5392 Y24.4826 
G01 X-88.6824 Y24.3394 
G01 X-88.8509 Y24.2268 
G01 X-89.0381 Y24.1492 
G01 X-89.2369 Y24.1097 
G01 X-89.4395 Y24.1097 
G01 X-89.6383 Y24.1492 
G01 X-89.8255 Y24.2268 
G01 X-89.9940 Y24.3394 
G01 X-90.1372 Y24.4826 
G01 X-90.2498 Y24.6511 
G01 X-90.3274 Y24.8383 
G01 X-90.3669 Y25.0371 
G01 X-90.3669 Y25.2397 
G01 X-90.3274 Y25.4385 
G01 X-90.2498 Y25.6257 
G01 X-90.1372 Y25.7942 
G01 X-89.9940 Y25.9374 
G01 X-89.8255 Y26.0500 
G01 X-89.6383 Y26.1276 
G01 X-89.4395 Y26.1671 
G01 X-89.2369 Y26.1671 
G01 X-89.0381 Y26.1276 
G01 X-88.8509 Y26.0500 
G01 X-88.6824 Y25.9374 
G01 X-88.5392 Y25.7942 
G01 X-88.4266 Y25.6257 
G01 X-88.3525 Y25.4469 
G01 X-83.8215 Y25.4469 
G01 X-83.7474 Y25.6257 
G01 X-83.6348 Y25.7942 
G01 X-83.4916 Y25.9374 
G01 X-83.3231 Y26.0500 
G01 X-83.1359 Y26.1276 
G01 X-82.9371 Y26.1671 
G01 X-82.7345 Y26.1671 
G01 X-82.5357 Y26.1276 
G01 X-82.3485 Y26.0500 
G01 X-82.1800 Y25.9374 
G01 X-82.0368 Y25.7942 
G01 X-81.9242 Y25.6257 
G01 X-81.8466 Y25.4385 
G01 X-81.8071 Y25.2397 
G01 X-81.8071 Y25.0371 
G01 X-81.8466 Y24.8383 
G01 X-81.9242 Y24.6511 
G01 X-82.0368 Y24.4826 
G01 X-82.1800 Y24.3394 
G01 X-82.3485 Y24.2268 
G01 X-82.4929 Y24.1670 
G01 X-82.4929 Y21.4460 
G01 X-82.3485 Y21.3862 
G01 X-82.1800 Y21.2736 
G01 X-82.0368 Y21.1304 
G01 X-81.9242 Y20.9619 
G01 X-81.8466 Y20.7747 
G01 X-81.8071 Y20.5759 
G01 X-81.8071 Y20.3733 
G01 X-81.8466 Y20.1745 
G01 X-81.9242 Y19.9873 
G01 X-82.0368 Y19.8188 
G01 X-82.1800 Y19.6756 
G01 X-82.3485 Y19.5630 
G01 X-82.5357 Y19.4854 
G01 X-82.7345 Y19.4459 
G01 X-82.9371 Y19.4459 
G01 X-83.1359 Y19.4854 
G01 X-83.3231 Y19.5630 
G01 X-83.4916 Y19.6756 
G01 X-83.6348 Y19.8188 
G01 X-83.7474 Y19.9873 
G01 X-83.8250 Y20.1745 
G01 X-83.8322 Y20.2111 
G01 X-88.3418 Y20.2111 
G01 X-88.3490 Y20.1745 
G01 X-88.4266 Y19.9873 
G01 X-88.5392 Y19.8188 
G01 X-88.6824 Y19.6756 
G01 X-88.8509 Y19.5630 
G01 X-89.0381 Y19.4854 
G01 X-89.2369 Y19.4459 
G01 X-89.4395 Y19.4459 
G01 X-89.6383 Y19.4854 
G01 X-89.8255 Y19.5630 
G01 X-89.9940 Y19.6756 
G01 X-90.1372 Y19.8188 
G01 X-90.2498 Y19.9873 
G01 X-90.3274 Y20.1745 
G01 X-90.3346 Y20.2111 
G01 X-91.3591 Y20.2111 
G01 X-91.3591 Y10.6210 
G01 X-86.6850 Y5.9469 
G01 X-76.4449 Y5.9469 
G01 X-76.4449 Y15.3652 
G01 X-76.4743 Y15.3774 
G01 X-76.6428 Y15.4900 
G01 X-76.7860 Y15.6332 
G01 X-76.8986 Y15.8017 
G01 X-76.9762 Y15.9889 
G01 X-77.0157 Y16.1877 
G01 X-77.0157 Y16.3903 
G01 X-76.9762 Y16.5891 
G01 X-76.8986 Y16.7763 
G01 X-76.7860 Y16.9448 
G01 X-76.6428 Y17.0880 
G01 X-76.4743 Y17.2006 
G01 X-76.2871 Y17.2782 
G01 X-76.0883 Y17.3177 
G01 X-75.8857 Y17.3177 
G01 X-75.6869 Y17.2782 
G01 X-75.4997 Y17.2006 
G01 X-75.3312 Y17.0880 
G01 X-75.1880 Y16.9448 
G01 X-75.0754 Y16.7763 
G01 X-75.0156 Y16.6319 
G01 X-67.7269 Y16.6319 
G01 X-67.6396 Y16.6085 
G01 X-67.5615 Y16.5634 
G01 X-67.4976 Y16.4995 
G01 X-62.3450 Y11.3469 
G01 X-61.2153 Y11.3469 
G01 X-61.1826 Y11.3334 
G01 X-61.1576 Y11.3084 
G01 X-61.1441 Y11.2757 
G00 Z2.5400 
G00 X-66.2592 Y20.0469 
G01 Z-0.1000 F254.00 
G01 X-64.8048 Y20.0469 F200.00 
G01 X-64.6613 Y20.0183 
G01 X-64.5261 Y19.9623 
G01 X-64.4044 Y19.8810 
G01 X-64.3010 Y19.7776 
G01 X-64.2197 Y19.6559 
G01 X-64.1637 Y19.5207 
G01 X-64.1351 Y19.3772 
G01 X-64.1351 Y19.2308 
G01 X-64.1637 Y19.0873 
G01 X-64.2197 Y18.9521 
G01 X-64.3010 Y18.8304 
G01 X-64.4044 Y18.7270 
G01 X-64.5261 Y18.6456 
G01 X-64.6613 Y18.5897 
G01 X-64.8048 Y18.5611 
G01 X-66.2592 Y18.5611 
G01 X-66.4027 Y18.5897 
G01 X-66.5379 Y18.6456 
G01 X-66.6596 Y18.7270 
G01 X-66.7630 Y18.8304 
G01 X-66.8443 Y18.9521 
G01 X-66.9003 Y19.0873 
G01 X-66.9289 Y19.2308 
G01 X-66.9289 Y19.3772 
G01 X-66.9003 Y19.5207 
G01 X-66.8443 Y19.6559 
G01 X-66.7630 Y19.7776 
G01 X-66.6596 Y19.8810 
G01 X-66.5379 Y19.9623 
G01 X-66.4027 Y20.0183 
G01 X-66.2592 Y20.0469 
G00 Z2.5400 
G00 X-66.2592 Y25.1269 
G01 Z-0.1000 F254.00 
G01 X-64.8048 Y25.1269 F200.00 
G01 X-64.6613 Y25.0983 
G01 X-64.5261 Y25.0423 
G01 X-64.4044 Y24.9610 
G01 X-64.3010 Y24.8576 
G01 X-64.2197 Y24.7359 
G01 X-64.1637 Y24.6007 
G01 X-64.1351 Y24.4572 
G01 X-64.1351 Y24.3108 
G01 X-64.1637 Y24.1673 
G01 X-64.2197 Y24.0321 
G01 X-64.3010 Y23.9104 
G01 X-64.4044 Y23.8070 
G01 X-64.5261 Y23.7257 
G01 X-64.6613 Y23.6697 
G01 X-64.8048 Y23.6411 
G01 X-66.2592 Y23.6411 
G01 X-66.4027 Y23.6697 
G01 X-66.5379 Y23.7257 
G01 X-66.6596 Y23.8070 
G01 X-66.7630 Y23.9104 
G01 X-66.8443 Y24.0321 
G01 X-66.8481 Y24.0411 
G01 X-69.5300 Y24.0411 
G01 X-72.2526 Y21.3185 
G01 X-72.3165 Y21.2546 
G01 X-72.3946 Y21.2095 
G01 X-72.4819 Y21.1861 
G01 X-77.7721 Y21.1861 
G01 X-77.8594 Y21.2095 
G01 X-77.9375 Y21.2546 
G01 X-78.2625 Y21.5796 
G01 X-78.3264 Y21.6435 
G01 X-78.3715 Y21.7216 
G01 X-78.3949 Y21.8089 
G01 X-78.3949 Y28.6667 
G01 X-82.2309 Y28.6667 
G01 X-82.3182 Y28.6901 
G01 X-82.3892 Y28.7311 
G01 X-82.5357 Y28.6704 
G01 X-82.7345 Y28.6309 
G01 X-82.9371 Y28.6309 
G01 X-83.1359 Y28.6704 
G01 X-83.3231 Y28.7480 
G01 X-83.4916 Y28.8606 
G01 X-83.6348 Y29.0038 
G01 X-83.7474 Y29.1723 
G01 X-83.8049 Y29.3111 
G01 X-88.3691 Y29.3111 
G01 X-88.4266 Y29.1723 
G01 X-88.5392 Y29.0038 
G01 X-88.6824 Y28.8606 
G01 X-88.8509 Y28.7480 
G01 X-89.0381 Y28.6704 
G01 X-89.2369 Y28.6309 
G01 X-89.4395 Y28.6309 
G01 X-89.6383 Y28.6704 
G01 X-89.8255 Y28.7480 
G01 X-89.9940 Y28.8606 
G01 X-90.1372 Y29.0038 
G01 X-90.2498 Y29.1723 
G01 X-90.3274 Y29.3595 
G01 X-90.3669 Y29.5583 
G01 X-90.3669 Y29.7609 
G01 X-90.3274 Y29.9597 
G01 X-90.2498 Y30.1469 
G01 X-90.1372 Y30.3154 
G01 X-89.9940 Y30.4586 
G01 X-89.8255 Y30.5712 
G01 X-89.6383 Y30.6488 
G01 X-89.4395 Y30.6883 
G01 X-89.2369 Y30.6883 
G01 X-89.0381 Y30.6488 
G01 X-88.8509 Y30.5712 
G01 X-88.6824 Y30.4586 
G01 X-88.5392 Y30.3154 
G01 X-88.4266 Y30.1469 
G01 X-88.3645 Y29.9969 
G01 X-83.8095 Y29.9969 
G01 X-83.7474 Y30.1469 
G01 X-83.6348 Y30.3154 
G01 X-83.4916 Y30.4586 
G01 X-83.3231 Y30.5712 
G01 X-83.1359 Y30.6488 
G01 X-82.9371 Y30.6883 
G01 X-82.7345 Y30.6883 
G01 X-82.5357 Y30.6488 
G01 X-82.3485 Y30.5712 
G01 X-82.1800 Y30.4586 
G01 X-82.0368 Y30.3154 
G01 X-81.9242 Y30.1469 
G01 X-81.8466 Y29.9597 
G01 X-81.8071 Y29.7609 
G01 X-81.8071 Y29.5583 
G01 X-81.8466 Y29.3595 
G01 X-81.8496 Y29.3525 
G01 X-78.0125 Y29.3525 
G01 X-77.9252 Y29.3291 
G01 X-77.8471 Y29.2840 
G01 X-77.7776 Y29.2145 
G01 X-77.7325 Y29.1364 
G01 X-77.7091 Y29.0491 
G01 X-77.7091 Y21.9960 
G01 X-77.5850 Y21.8719 
G01 X-72.6690 Y21.8719 
G01 X-69.8825 Y24.6584 
G01 X-69.8044 Y24.7035 
G01 X-69.7171 Y24.7269 
G01 X-66.8481 Y24.7269 
G01 X-66.8443 Y24.7359 
G01 X-66.7630 Y24.8576 
G01 X-66.6596 Y24.9610 
G01 X-66.5379 Y25.0423 
G01 X-66.4027 Y25.0983 
G01 X-66.2592 Y25.1269 
G00 Z2.5400 
G00 X-66.2592 Y27.6669 
G01 Z-0.1000 F254.00 
G01 X-64.8048 Y27.6669 F200.00 
G01 X-64.6613 Y27.6383 
G01 X-64.5261 Y27.5823 
G01 X-64.4044 Y27.5010 
G01 X-64.3010 Y27.3976 
G01 X-64.2197 Y27.2759 
G01 X-64.1637 Y27.1407 
G01 X-64.1351 Y26.9972 
G01 X-64.1351 Y26.8508 
G01 X-64.1637 Y26.7073 
G01 X-64.2197 Y26.5721 
G01 X-64.3010 Y26.4504 
G01 X-64.4044 Y26.3469 
G01 X-64.5261 Y26.2657 
G01 X-64.6613 Y26.2096 
G01 X-64.8048 Y26.1811 
G01 X-66.2592 Y26.1811 
G01 X-66.4027 Y26.2096 
G01 X-66.5379 Y26.2657 
G01 X-66.6596 Y26.3469 
G01 X-66.7630 Y26.4504 
G01 X-66.8443 Y26.5721 
G01 X-66.9003 Y26.7073 
G01 X-66.9289 Y26.8508 
G01 X-66.9289 Y26.9972 
G01 X-66.9003 Y27.1407 
G01 X-66.8443 Y27.2759 
G01 X-66.7630 Y27.3976 
G01 X-66.6596 Y27.5010 
G01 X-66.5379 Y27.5823 
G01 X-66.4027 Y27.6383 
G01 X-66.2592 Y27.6669 
G00 Z2.5400 
G00 X-64.8048 Y32.7469 
G01 Z-0.1000 F254.00 
G01 X-64.6613 Y32.7183 F200.00 
G01 X-64.5261 Y32.6623 
G01 X-64.4044 Y32.5810 
G01 X-64.3010 Y32.4776 
G01 X-64.2197 Y32.3559 
G01 X-64.1637 Y32.2207 
G01 X-64.1351 Y32.0772 
G01 X-64.1351 Y31.9308 
G01 X-64.1637 Y31.7873 
G01 X-64.2197 Y31.6521 
G01 X-64.3010 Y31.5304 
G01 X-64.4044 Y31.4270 
G01 X-64.5261 Y31.3457 
G01 X-64.6613 Y31.2897 
G01 X-64.8048 Y31.2611 
G01 X-66.2592 Y31.2611 
G01 X-66.4027 Y31.2897 
G01 X-66.5379 Y31.3457 
G01 X-66.6596 Y31.4270 
G01 X-66.7630 Y31.5304 
G01 X-66.8443 Y31.6521 
G01 X-66.9003 Y31.7873 
G01 X-66.9289 Y31.9308 
G01 X-66.9289 Y32.0772 
G01 X-66.9003 Y32.2207 
G01 X-66.8443 Y32.3559 
G01 X-66.7630 Y32.4776 
G01 X-66.6596 Y32.5810 
G01 X-66.6202 Y32.6073 
G01 X-73.3625 Y39.3496 
G01 X-73.4264 Y39.4135 
G01 X-73.4715 Y39.4916 
G01 X-73.4949 Y39.5789 
G01 X-73.4949 Y40.7520 
G01 X-75.2140 Y42.4711 
G01 X-78.1200 Y42.4711 
G01 X-80.4291 Y40.1620 
G01 X-80.4291 Y39.3254 
G01 X-80.2847 Y39.2656 
G01 X-80.1162 Y39.1530 
G01 X-79.9730 Y39.0098 
G01 X-79.8604 Y38.8413 
G01 X-79.7828 Y38.6541 
G01 X-79.7433 Y38.4553 
G01 X-79.7433 Y38.2527 
G01 X-79.7828 Y38.0539 
G01 X-79.8435 Y37.9074 
G01 X-79.8025 Y37.8364 
G01 X-79.7791 Y37.7491 
G01 X-79.7791 Y32.9754 
G01 X-79.6347 Y32.9156 
G01 X-79.4662 Y32.8030 
G01 X-79.3230 Y32.6598 
G01 X-79.2104 Y32.4913 
G01 X-79.1328 Y32.3041 
G01 X-79.0933 Y32.1053 
G01 X-79.0933 Y31.9027 
G01 X-79.1328 Y31.7039 
G01 X-79.2104 Y31.5167 
G01 X-79.3230 Y31.3482 
G01 X-79.4662 Y31.2050 
G01 X-79.6347 Y31.0924 
G01 X-79.8219 Y31.0148 
G01 X-80.0207 Y30.9753 
G01 X-80.2233 Y30.9753 
G01 X-80.4221 Y31.0148 
G01 X-80.6093 Y31.0924 
G01 X-80.7778 Y31.2050 
G01 X-80.9210 Y31.3482 
G01 X-81.0336 Y31.5167 
G01 X-81.1112 Y31.7039 
G01 X-81.1507 Y31.9027 
G01 X-81.1507 Y32.1053 
G01 X-81.1112 Y32.3041 
G01 X-81.0336 Y32.4913 
G01 X-80.9210 Y32.6598 
G01 X-80.7778 Y32.8030 
G01 X-80.6093 Y32.9156 
G01 X-80.4649 Y32.9754 
G01 X-80.4649 Y37.3678 
G01 X-80.4719 Y37.3648 
G01 X-80.6707 Y37.3253 
G01 X-80.8733 Y37.3253 
G01 X-81.0721 Y37.3648 
G01 X-81.2593 Y37.4424 
G01 X-81.4278 Y37.5550 
G01 X-81.5710 Y37.6982 
G01 X-81.6836 Y37.8667 
G01 X-81.7612 Y38.0539 
G01 X-81.8007 Y38.2527 
G01 X-81.8007 Y38.4553 
G01 X-81.7612 Y38.6541 
G01 X-81.7014 Y38.7984 
G01 X-89.1182 Y46.2153 
G01 X-90.6195 Y46.2153 
G01 X-90.6522 Y46.2288 
G01 X-90.6772 Y46.2538 
G01 X-90.6907 Y46.2865 
G01 X-90.6907 Y48.2015 
G01 X-90.6772 Y48.2342 
G01 X-90.6522 Y48.2592 
G01 X-90.6195 Y48.2727 
G01 X-88.7045 Y48.2727 
G01 X-88.6718 Y48.2592 
G01 X-88.6468 Y48.2342 
G01 X-88.6333 Y48.2015 
G01 X-88.6333 Y46.7002 
G01 X-81.2164 Y39.2834 
G01 X-81.1149 Y39.3254 
G01 X-81.1149 Y40.3491 
G01 X-81.0915 Y40.4364 
G01 X-81.0464 Y40.5145 
G01 X-78.5364 Y43.0245 
G01 X-78.4725 Y43.0884 
G01 X-78.3944 Y43.1335 
G01 X-78.3071 Y43.1569 
G01 X-75.0269 Y43.1569 
G01 X-74.9396 Y43.1335 
G01 X-74.8615 Y43.0884 
G01 X-72.9415 Y41.1684 
G01 X-72.8776 Y41.1045 
G01 X-72.8325 Y41.0264 
G01 X-72.8091 Y40.9391 
G01 X-72.8091 Y39.7660 
G01 X-65.7900 Y32.7469 
G01 X-64.8048 Y32.7469 
G00 Z2.5400 
G00 X-66.2592 Y35.2869 
G01 Z-0.1000 F254.00 
G01 X-64.8048 Y35.2869 F200.00 
G01 X-64.6613 Y35.2583 
G01 X-64.5261 Y35.2023 
G01 X-64.4044 Y35.1210 
G01 X-64.3010 Y35.0176 
G01 X-64.2197 Y34.8959 
G01 X-64.1637 Y34.7607 
G01 X-64.1351 Y34.6172 
G01 X-64.1351 Y34.4708 
G01 X-64.1637 Y34.3273 
G01 X-64.2197 Y34.1921 
G01 X-64.3010 Y34.0704 
G01 X-64.4044 Y33.9670 
G01 X-64.5261 Y33.8856 
G01 X-64.6613 Y33.8297 
G01 X-64.8048 Y33.8011 
G01 X-66.2592 Y33.8011 
G01 X-66.4027 Y33.8297 
G01 X-66.5379 Y33.8856 
G01 X-66.6596 Y33.9670 
G01 X-66.7630 Y34.0704 
G01 X-66.8443 Y34.1921 
G01 X-66.9003 Y34.3273 
G01 X-66.9289 Y34.4708 
G01 X-66.9289 Y34.6172 
G01 X-66.9003 Y34.7607 
G01 X-66.8443 Y34.8959 
G01 X-66.7630 Y35.0176 
G01 X-66.6596 Y35.1210 
G01 X-66.5379 Y35.2023 
G01 X-66.4027 Y35.2583 
G01 X-66.2592 Y35.2869 
G00 Z2.5400 
G00 X-66.2592 Y37.8269 
G01 Z-0.1000 F254.00 
G01 X-64.8048 Y37.8269 F200.00 
G01 X-64.6613 Y37.7983 
G01 X-64.5261 Y37.7423 
G01 X-64.4044 Y37.6610 
G01 X-64.3010 Y37.5576 
G01 X-64.2197 Y37.4359 
G01 X-64.1637 Y37.3007 
G01 X-64.1351 Y37.1572 
G01 X-64.1351 Y37.0108 
G01 X-64.1637 Y36.8673 
G01 X-64.2197 Y36.7321 
G01 X-64.3010 Y36.6104 
G01 X-64.4044 Y36.5070 
G01 X-64.5261 Y36.4257 
G01 X-64.6613 Y36.3697 
G01 X-64.8048 Y36.3411 
G01 X-66.2592 Y36.3411 
G01 X-66.4027 Y36.3697 
G01 X-66.5379 Y36.4257 
G01 X-66.6596 Y36.5070 
G01 X-66.7630 Y36.6104 
G01 X-66.8443 Y36.7321 
G01 X-66.9003 Y36.8673 
G01 X-66.9289 Y37.0108 
G01 X-66.9289 Y37.1572 
G01 X-66.9003 Y37.3007 
G01 X-66.8443 Y37.4359 
G01 X-66.7630 Y37.5576 
G01 X-66.6596 Y37.6610 
G01 X-66.5379 Y37.7423 
G01 X-66.4027 Y37.7983 
G01 X-66.2592 Y37.8269 
G00 Z2.5400 
G00 X-66.2592 Y40.3669 
G01 Z-0.1000 F254.00 
G01 X-64.8048 Y40.3669 F200.00 
G01 X-64.6613 Y40.3383 
G01 X-64.5261 Y40.2823 
G01 X-64.4044 Y40.2010 
G01 X-64.3010 Y40.0976 
G01 X-64.2197 Y39.9759 
G01 X-64.1637 Y39.8407 
G01 X-64.1351 Y39.6972 
G01 X-64.1351 Y39.5508 
G01 X-64.1637 Y39.4073 
G01 X-64.2197 Y39.2721 
G01 X-64.3010 Y39.1504 
G01 X-64.4044 Y39.0470 
G01 X-64.5261 Y38.9657 
G01 X-64.6613 Y38.9096 
G01 X-64.8048 Y38.8811 
G01 X-66.2592 Y38.8811 
G01 X-66.4027 Y38.9096 
G01 X-66.5379 Y38.9657 
G01 X-66.6596 Y39.0470 
G01 X-66.7630 Y39.1504 
G01 X-66.8443 Y39.2721 
G01 X-66.9003 Y39.4073 
G01 X-66.9289 Y39.5508 
G01 X-66.9289 Y39.6972 
G01 X-66.9003 Y39.8407 
G01 X-66.8443 Y39.9759 
G01 X-66.7630 Y40.0976 
G01 X-66.6596 Y40.2010 
G01 X-66.5379 Y40.2823 
G01 X-66.4027 Y40.3383 
G01 X-66.2592 Y40.3669 
G00 Z2.5400 
G00 X-66.2592 Y42.9069 
G01 Z-0.1000 F254.00 
G01 X-64.8048 Y42.9069 F200.00 
G01 X-64.6613 Y42.8783 
G01 X-64.5261 Y42.8223 
G01 X-64.4044 Y42.7410 
G01 X-64.3010 Y42.6376 
G01 X-64.2197 Y42.5159 
G01 X-64.1637 Y42.3807 
G01 X-64.1351 Y42.2372 
G01 X-64.1351 Y42.0908 
G01 X-64.1637 Y41.9473 
G01 X-64.2197 Y41.8121 
G01 X-64.3010 Y41.6904 
G01 X-64.4044 Y41.5870 
G01 X-64.5261 Y41.5057 
G01 X-64.6613 Y41.4497 
G01 X-64.8048 Y41.4211 
G01 X-66.2592 Y41.4211 
G01 X-66.4027 Y41.4497 
G01 X-66.5379 Y41.5057 
G01 X-66.6596 Y41.5870 
G01 X-66.7630 Y41.6904 
G01 X-66.8443 Y41.8121 
G01 X-66.9003 Y41.9473 
G01 X-66.9289 Y42.0908 
G01 X-66.9289 Y42.2372 
G01 X-66.9003 Y42.3807 
G01 X-66.8443 Y42.5159 
G01 X-66.7630 Y42.6376 
G01 X-66.6596 Y42.7410 
G01 X-66.5379 Y42.8223 
G01 X-66.4027 Y42.8783 
G01 X-66.2592 Y42.9069 
G00 Z2.5400 
G00 X-64.8048 Y45.4469 
G01 Z-0.1000 F254.00 
G01 X-64.6613 Y45.4183 F200.00 
G01 X-64.5261 Y45.3623 
G01 X-64.4044 Y45.2810 
G01 X-64.3010 Y45.1776 
G01 X-64.2197 Y45.0559 
G01 X-64.1637 Y44.9207 
G01 X-64.1351 Y44.7772 
G01 X-64.1351 Y44.6308 
G01 X-64.1637 Y44.4873 
G01 X-64.2197 Y44.3521 
G01 X-64.3010 Y44.2304 
G01 X-64.4044 Y44.1270 
G01 X-64.5261 Y44.0457 
G01 X-64.6613 Y43.9897 
G01 X-64.8048 Y43.9611 
G01 X-66.2592 Y43.9611 
G01 X-66.4027 Y43.9897 
G01 X-66.5379 Y44.0457 
G01 X-66.6596 Y44.1270 
G01 X-66.7630 Y44.2304 
G01 X-66.8443 Y44.3521 
G01 X-66.9003 Y44.4873 
G01 X-66.9289 Y44.6308 
G01 X-66.9289 Y44.7772 
G01 X-66.9003 Y44.9207 
G01 X-66.8443 Y45.0559 
G01 X-66.7630 Y45.1776 
G01 X-66.6596 Y45.2810 
G01 X-66.6202 Y45.3073 
G01 X-70.8864 Y49.5735 
G01 X-70.9315 Y49.6516 
G01 X-70.9549 Y49.7389 
G01 X-70.9549 Y50.9809 
G01 X-72.1233 Y50.9809 
G01 X-72.1233 Y50.9527 
G01 X-72.1628 Y50.7539 
G01 X-72.2404 Y50.5667 
G01 X-72.3530 Y50.3982 
G01 X-72.4962 Y50.2550 
G01 X-72.6647 Y50.1424 
G01 X-72.8519 Y50.0648 
G01 X-73.0507 Y50.0253 
G01 X-73.2533 Y50.0253 
G01 X-73.4521 Y50.0648 
G01 X-73.6393 Y50.1424 
G01 X-73.8078 Y50.2550 
G01 X-73.9510 Y50.3982 
G01 X-74.0636 Y50.5667 
G01 X-74.1412 Y50.7539 
G01 X-74.1807 Y50.9527 
G01 X-74.1807 Y51.1553 
G01 X-74.1412 Y51.3541 
G01 X-74.0636 Y51.5413 
G01 X-73.9510 Y51.7098 
G01 X-73.8078 Y51.8530 
G01 X-73.6393 Y51.9656 
G01 X-73.4521 Y52.0432 
G01 X-73.2533 Y52.0827 
G01 X-73.0507 Y52.0827 
G01 X-72.8519 Y52.0432 
G01 X-72.6647 Y51.9656 
G01 X-72.4962 Y51.8530 
G01 X-72.3530 Y51.7098 
G01 X-72.3242 Y51.6667 
G01 X-70.9549 Y51.6667 
G01 X-70.9549 Y52.6226 
G01 X-71.0993 Y52.6824 
G01 X-71.2678 Y52.7950 
G01 X-71.4110 Y52.9382 
G01 X-71.5236 Y53.1067 
G01 X-71.6012 Y53.2939 
G01 X-71.6407 Y53.4927 
G01 X-71.6407 Y53.6953 
G01 X-71.6012 Y53.8941 
G01 X-71.5236 Y54.0813 
G01 X-71.4110 Y54.2498 
G01 X-71.2678 Y54.3930 
G01 X-71.0993 Y54.5056 
G01 X-70.9121 Y54.5832 
G01 X-70.7133 Y54.6227 
G01 X-70.5107 Y54.6227 
G01 X-70.3119 Y54.5832 
G01 X-70.1247 Y54.5056 
G01 X-69.9562 Y54.3930 
G01 X-69.8130 Y54.2498 
G01 X-69.7004 Y54.0813 
G01 X-69.6228 Y53.8941 
G01 X-69.5833 Y53.6953 
G01 X-69.5833 Y53.4927 
G01 X-69.6228 Y53.2939 
G01 X-69.7004 Y53.1067 
G01 X-69.8130 Y52.9382 
G01 X-69.9562 Y52.7950 
G01 X-70.1247 Y52.6824 
G01 X-70.2691 Y52.6226 
G01 X-70.2691 Y49.9260 
G01 X-65.7900 Y45.4469 
G01 X-64.8048 Y45.4469 
G00 Z2.5400 
G00 X-66.2592 Y47.9869 
G01 Z-0.1000 F254.00 
G01 X-64.8048 Y47.9869 F200.00 
G01 X-64.6613 Y47.9583 
G01 X-64.5261 Y47.9023 
G01 X-64.4044 Y47.8210 
G01 X-64.3010 Y47.7176 
G01 X-64.2197 Y47.5959 
G01 X-64.1637 Y47.4607 
G01 X-64.1351 Y47.3172 
G01 X-64.1351 Y47.1708 
G01 X-64.1637 Y47.0273 
G01 X-64.2197 Y46.8921 
G01 X-64.3010 Y46.7704 
G01 X-64.4044 Y46.6669 
G01 X-64.5261 Y46.5857 
G01 X-64.6613 Y46.5297 
G01 X-64.8048 Y46.5011 
G01 X-66.2592 Y46.5011 
G01 X-66.4027 Y46.5297 
G01 X-66.5379 Y46.5857 
G01 X-66.6596 Y46.6669 
G01 X-66.7630 Y46.7704 
G01 X-66.8443 Y46.8921 
G01 X-66.9003 Y47.0273 
G01 X-66.9289 Y47.1708 
G01 X-66.9289 Y47.3172 
G01 X-66.9003 Y47.4607 
G01 X-66.8443 Y47.5959 
G01 X-66.7630 Y47.7176 
G01 X-66.6596 Y47.8210 
G01 X-66.5379 Y47.9023 
G01 X-66.4027 Y47.9583 
G01 X-66.2592 Y47.9869 
G00 Z2.5400 
G00 X-66.2592 Y50.5269 
G01 Z-0.1000 F254.00 
G01 X-64.8048 Y50.5269 F200.00 
G01 X-64.6613 Y50.4983 
G01 X-64.5261 Y50.4423 
G01 X-64.4044 Y50.3610 
G01 X-64.3010 Y50.2576 
G01 X-64.2197 Y50.1359 
G01 X-64.1637 Y50.0007 
G01 X-64.1351 Y49.8572 
G01 X-64.1351 Y49.7108 
G01 X-64.1637 Y49.5673 
G01 X-64.2197 Y49.4321 
G01 X-64.3010 Y49.3104 
G01 X-64.4044 Y49.2069 
G01 X-64.5261 Y49.1257 
G01 X-64.6613 Y49.0697 
G01 X-64.8048 Y49.0411 
G01 X-66.2592 Y49.0411 
G01 X-66.4027 Y49.0697 
G01 X-66.5379 Y49.1257 
G01 X-66.6596 Y49.2069 
G01 X-66.7630 Y49.3104 
G01 X-66.8443 Y49.4321 
G01 X-66.9003 Y49.5673 
G01 X-66.9289 Y49.7108 
G01 X-66.9289 Y49.8572 
G01 X-66.9003 Y50.0007 
G01 X-66.8443 Y50.1359 
G01 X-66.7630 Y50.2576 
G01 X-66.6596 Y50.3610 
G01 X-66.5379 Y50.4423 
G01 X-66.4027 Y50.4983 
G01 X-66.2592 Y50.5269 
G00 Z2.5400 
G00 X-66.2592 Y53.0669 
G01 Z-0.1000 F254.00 
G01 X-64.8048 Y53.0669 F200.00 
G01 X-64.6613 Y53.0383 
G01 X-64.5261 Y52.9823 
G01 X-64.4044 Y52.9010 
G01 X-64.3010 Y52.7976 
G01 X-64.2197 Y52.6759 
G01 X-64.1637 Y52.5407 
G01 X-64.1351 Y52.3972 
G01 X-64.1351 Y52.2508 
G01 X-64.1637 Y52.1073 
G01 X-64.2197 Y51.9721 
G01 X-64.3010 Y51.8504 
G01 X-64.4044 Y51.7470 
G01 X-64.5261 Y51.6656 
G01 X-64.6613 Y51.6097 
G01 X-64.8048 Y51.5811 
G01 X-66.2592 Y51.5811 
G01 X-66.4027 Y51.6097 
G01 X-66.5379 Y51.6656 
G01 X-66.6596 Y51.7470 
G01 X-66.7630 Y51.8504 
G01 X-66.8443 Y51.9721 
G01 X-66.9003 Y52.1073 
G01 X-66.9289 Y52.2508 
G01 X-66.9289 Y52.3972 
G01 X-66.9003 Y52.5407 
G01 X-66.8443 Y52.6759 
G01 X-66.7630 Y52.7976 
G01 X-66.6596 Y52.9010 
G01 X-66.5379 Y52.9823 
G01 X-66.4027 Y53.0383 
G01 X-66.2592 Y53.0669 
G00 Z2.5400 
G00 X-66.2592 Y55.6069 
G01 Z-0.1000 F254.00 
G01 X-64.8048 Y55.6069 F200.00 
G01 X-64.6613 Y55.5783 
G01 X-64.5261 Y55.5223 
G01 X-64.4044 Y55.4410 
G01 X-64.3010 Y55.3376 
G01 X-64.2197 Y55.2159 
G01 X-64.1637 Y55.0807 
G01 X-64.1351 Y54.9372 
G01 X-64.1351 Y54.7908 
G01 X-64.1637 Y54.6473 
G01 X-64.2197 Y54.5121 
G01 X-64.3010 Y54.3904 
G01 X-64.4044 Y54.2870 
G01 X-64.5261 Y54.2057 
G01 X-64.6613 Y54.1497 
G01 X-64.8048 Y54.1211 
G01 X-66.2592 Y54.1211 
G01 X-66.4027 Y54.1497 
G01 X-66.5379 Y54.2057 
G01 X-66.6596 Y54.2870 
G01 X-66.7630 Y54.3904 
G01 X-66.8443 Y54.5121 
G01 X-66.9003 Y54.6473 
G01 X-66.9289 Y54.7908 
G01 X-66.9289 Y54.9372 
G01 X-66.9003 Y55.0807 
G01 X-66.8443 Y55.2159 
G01 X-66.7630 Y55.3376 
G01 X-66.6596 Y55.4410 
G01 X-66.5379 Y55.5223 
G01 X-66.4027 Y55.5783 
G01 X-66.2592 Y55.6069 
G00 Z2.5400 
G00 X-66.2592 Y58.1469 
G01 Z-0.1000 F254.00 
G01 X-64.8048 Y58.1469 F200.00 
G01 X-64.6613 Y58.1183 
G01 X-64.5261 Y58.0623 
G01 X-64.4044 Y57.9810 
G01 X-64.3010 Y57.8776 
G01 X-64.2197 Y57.7559 
G01 X-64.1637 Y57.6207 
G01 X-64.1351 Y57.4772 
G01 X-64.1351 Y57.3308 
G01 X-64.1637 Y57.1873 
G01 X-64.2197 Y57.0521 
G01 X-64.3010 Y56.9304 
G01 X-64.4044 Y56.8270 
G01 X-64.5261 Y56.7457 
G01 X-64.6613 Y56.6897 
G01 X-64.8048 Y56.6611 
G01 X-66.2592 Y56.6611 
G01 X-66.4027 Y56.6897 
G01 X-66.5379 Y56.7457 
G01 X-66.6596 Y56.8270 
G01 X-66.7630 Y56.9304 
G01 X-66.8443 Y57.0521 
G01 X-66.9003 Y57.1873 
G01 X-66.9289 Y57.3308 
G01 X-66.9289 Y57.4772 
G01 X-66.9003 Y57.6207 
G01 X-66.8443 Y57.7559 
G01 X-66.7630 Y57.8776 
G01 X-66.6596 Y57.9810 
G01 X-66.5379 Y58.0623 
G01 X-66.4027 Y58.1183 
G01 X-66.2592 Y58.1469 
G00 Z2.5400 
G00 X-66.2592 Y60.6869 
G01 Z-0.1000 F254.00 
G01 X-64.8048 Y60.6869 F200.00 
G01 X-64.6613 Y60.6583 
G01 X-64.5261 Y60.6023 
G01 X-64.4044 Y60.5210 
G01 X-64.3010 Y60.4176 
G01 X-64.2197 Y60.2959 
G01 X-64.1637 Y60.1607 
G01 X-64.1351 Y60.0172 
G01 X-64.1351 Y59.8708 
G01 X-64.1637 Y59.7273 
G01 X-64.2197 Y59.5921 
G01 X-64.3010 Y59.4704 
G01 X-64.4044 Y59.3670 
G01 X-64.5261 Y59.2857 
G01 X-64.6613 Y59.2296 
G01 X-64.8048 Y59.2011 
G01 X-66.2592 Y59.2011 
G01 X-66.4027 Y59.2296 
G01 X-66.5379 Y59.2857 
G01 X-66.6596 Y59.3670 
G01 X-66.7630 Y59.4704 
G01 X-66.8443 Y59.5921 
G01 X-66.9003 Y59.7273 
G01 X-66.9289 Y59.8708 
G01 X-66.9289 Y60.0172 
G01 X-66.9003 Y60.1607 
G01 X-66.8443 Y60.2959 
G01 X-66.7630 Y60.4176 
G01 X-66.6596 Y60.5210 
G01 X-66.5379 Y60.6023 
G01 X-66.4027 Y60.6583 
G01 X-66.2592 Y60.6869 
G00 Z2.5400 
G00 X-66.2592 Y63.2269 
G01 Z-0.1000 F254.00 
G01 X-64.8048 Y63.2269 F200.00 
G01 X-64.6613 Y63.1983 
G01 X-64.5261 Y63.1423 
G01 X-64.4044 Y63.0610 
G01 X-64.3010 Y62.9576 
G01 X-64.2197 Y62.8359 
G01 X-64.1637 Y62.7007 
G01 X-64.1351 Y62.5572 
G01 X-64.1351 Y62.4108 
G01 X-64.1637 Y62.2673 
G01 X-64.2197 Y62.1321 
G01 X-64.3010 Y62.0104 
G01 X-64.4044 Y61.9070 
G01 X-64.5261 Y61.8257 
G01 X-64.6613 Y61.7697 
G01 X-64.8048 Y61.7411 
G01 X-66.2592 Y61.7411 
G01 X-66.4027 Y61.7697 
G01 X-66.5379 Y61.8257 
G01 X-66.6596 Y61.9070 
G01 X-66.7630 Y62.0104 
G01 X-66.8443 Y62.1321 
G01 X-66.9003 Y62.2673 
G01 X-66.9289 Y62.4108 
G01 X-66.9289 Y62.5572 
G01 X-66.9003 Y62.7007 
G01 X-66.8443 Y62.8359 
G01 X-66.7630 Y62.9576 
G01 X-66.6596 Y63.0610 
G01 X-66.5379 Y63.1423 
G01 X-66.4027 Y63.1983 
G01 X-66.2592 Y63.2269 
G00 Z2.5400 
G00 X-66.2592 Y65.7669 
G01 Z-0.1000 F254.00 
G01 X-64.8048 Y65.7669 F200.00 
G01 X-64.6613 Y65.7383 
G01 X-64.5261 Y65.6823 
G01 X-64.4044 Y65.6010 
G01 X-64.3010 Y65.4976 
G01 X-64.2197 Y65.3759 
G01 X-64.1637 Y65.2407 
G01 X-64.1351 Y65.0972 
G01 X-64.1351 Y64.9508 
G01 X-64.1637 Y64.8073 
G01 X-64.2197 Y64.6721 
G01 X-64.3010 Y64.5504 
G01 X-64.4044 Y64.4470 
G01 X-64.5261 Y64.3657 
G01 X-64.6613 Y64.3097 
G01 X-64.8048 Y64.2811 
G01 X-66.2592 Y64.2811 
G01 X-66.4027 Y64.3097 
G01 X-66.5379 Y64.3657 
G01 X-66.6596 Y64.4470 
G01 X-66.7630 Y64.5504 
G01 X-66.8443 Y64.6721 
G01 X-66.9003 Y64.8073 
G01 X-66.9289 Y64.9508 
G01 X-66.9289 Y65.0972 
G01 X-66.9003 Y65.2407 
G01 X-66.8443 Y65.3759 
G01 X-66.7630 Y65.4976 
G01 X-66.6596 Y65.6010 
G01 X-66.5379 Y65.6823 
G01 X-66.4027 Y65.7383 
G01 X-66.2592 Y65.7669 
G00 Z2.5400 
G00 X-66.2592 Y68.3069 
G01 Z-0.1000 F254.00 
G01 X-64.8048 Y68.3069 F200.00 
G01 X-64.6613 Y68.2783 
G01 X-64.5261 Y68.2223 
G01 X-64.4044 Y68.1410 
G01 X-64.3010 Y68.0376 
G01 X-64.2197 Y67.9159 
G01 X-64.1637 Y67.7807 
G01 X-64.1351 Y67.6372 
G01 X-64.1351 Y67.4908 
G01 X-64.1637 Y67.3473 
G01 X-64.2197 Y67.2121 
G01 X-64.3010 Y67.0904 
G01 X-64.4044 Y66.9870 
G01 X-64.5261 Y66.9057 
G01 X-64.6613 Y66.8496 
G01 X-64.8048 Y66.8211 
G01 X-66.2592 Y66.8211 
G01 X-66.4027 Y66.8496 
G01 X-66.5379 Y66.9057 
G01 X-66.6596 Y66.9870 
G01 X-66.7630 Y67.0904 
G01 X-66.8443 Y67.2121 
G01 X-66.9003 Y67.3473 
G01 X-66.9289 Y67.4908 
G01 X-66.9289 Y67.6372 
G01 X-66.9003 Y67.7807 
G01 X-66.8443 Y67.9159 
G01 X-66.7630 Y68.0376 
G01 X-66.6596 Y68.1410 
G01 X-66.5379 Y68.2223 
G01 X-66.4027 Y68.2783 
G01 X-66.2592 Y68.3069 
G00 Z2.5400 
G00 X-51.0192 Y27.6669 
G01 Z-0.1000 F254.00 
G01 X-49.5648 Y27.6669 F200.00 
G01 X-49.4213 Y27.6383 
G01 X-49.2861 Y27.5823 
G01 X-49.1644 Y27.5010 
G01 X-49.0610 Y27.3976 
G01 X-48.9796 Y27.2759 
G01 X-48.9237 Y27.1407 
G01 X-48.8951 Y26.9972 
G01 X-48.8951 Y26.8508 
G01 X-48.9237 Y26.7073 
G01 X-48.9796 Y26.5721 
G01 X-49.0610 Y26.4504 
G01 X-49.1644 Y26.3469 
G01 X-49.2861 Y26.2657 
G01 X-49.4213 Y26.2096 
G01 X-49.5648 Y26.1811 
G01 X-51.0192 Y26.1811 
G01 X-51.1627 Y26.2096 
G01 X-51.2979 Y26.2657 
G01 X-51.4196 Y26.3469 
G01 X-51.5230 Y26.4504 
G01 X-51.6043 Y26.5721 
G01 X-51.6603 Y26.7073 
G01 X-51.6889 Y26.8508 
G01 X-51.6889 Y26.9972 
G01 X-51.6603 Y27.1407 
G01 X-51.6043 Y27.2759 
G01 X-51.5230 Y27.3976 
G01 X-51.4196 Y27.5010 
G01 X-51.2979 Y27.5823 
G01 X-51.1627 Y27.6383 
G01 X-51.0192 Y27.6669 
G00 Z2.5400 
G00 X-51.0192 Y30.2069 
G01 Z-0.1000 F254.00 
G01 X-49.5648 Y30.2069 F200.00 
G01 X-49.4213 Y30.1783 
G01 X-49.2861 Y30.1223 
G01 X-49.1644 Y30.0410 
G01 X-49.0610 Y29.9376 
G01 X-48.9796 Y29.8159 
G01 X-48.9237 Y29.6807 
G01 X-48.8951 Y29.5372 
G01 X-48.8951 Y29.3908 
G01 X-48.9237 Y29.2473 
G01 X-48.9796 Y29.1121 
G01 X-49.0610 Y28.9904 
G01 X-49.1644 Y28.8870 
G01 X-49.2861 Y28.8056 
G01 X-49.4213 Y28.7497 
G01 X-49.5648 Y28.7211 
G01 X-51.0192 Y28.7211 
G01 X-51.1627 Y28.7497 
G01 X-51.2979 Y28.8056 
G01 X-51.4196 Y28.8870 
G01 X-51.5230 Y28.9904 
G01 X-51.6043 Y29.1121 
G01 X-51.6603 Y29.2473 
G01 X-51.6889 Y29.3908 
G01 X-51.6889 Y29.5372 
G01 X-51.6603 Y29.6807 
G01 X-51.6043 Y29.8159 
G01 X-51.5230 Y29.9376 
G01 X-51.4196 Y30.0410 
G01 X-51.2979 Y30.1223 
G01 X-51.1627 Y30.1783 
G01 X-51.0192 Y30.2069 
G00 Z2.5400 
G00 X-51.0192 Y32.7469 
G01 Z-0.1000 F254.00 
G01 X-49.5648 Y32.7469 F200.00 
G01 X-49.4213 Y32.7183 
G01 X-49.2861 Y32.6623 
G01 X-49.1644 Y32.5810 
G01 X-49.0610 Y32.4776 
G01 X-48.9796 Y32.3559 
G01 X-48.9237 Y32.2207 
G01 X-48.8951 Y32.0772 
G01 X-48.8951 Y31.9308 
G01 X-48.9237 Y31.7873 
G01 X-48.9796 Y31.6521 
G01 X-49.0610 Y31.5304 
G01 X-49.1644 Y31.4270 
G01 X-49.2861 Y31.3457 
G01 X-49.4213 Y31.2897 
G01 X-49.5648 Y31.2611 
G01 X-51.0192 Y31.2611 
G01 X-51.1627 Y31.2897 
G01 X-51.2113 Y31.3098 
G01 X-55.6091 Y26.9120 
G01 X-55.6091 Y19.0710 
G01 X-54.0926 Y17.5545 
G01 X-54.0475 Y17.4764 
G01 X-54.0241 Y17.3891 
G01 X-54.0241 Y11.2743 
G01 X-53.9677 Y11.2510 
G01 X-53.8297 Y11.1587 
G01 X-53.7123 Y11.0413 
G01 X-53.6200 Y10.9033 
G01 X-53.5565 Y10.7499 
G01 X-53.5241 Y10.5870 
G01 X-53.5241 Y10.4210 
G01 X-53.5565 Y10.2581 
G01 X-53.6200 Y10.1047 
G01 X-53.7123 Y9.9667 
G01 X-53.8297 Y9.8493 
G01 X-53.9677 Y9.7570 
G01 X-54.1211 Y9.6935 
G01 X-54.2840 Y9.6611 
G01 X-54.4500 Y9.6611 
G01 X-54.6129 Y9.6935 
G01 X-54.7663 Y9.7570 
G01 X-54.9043 Y9.8493 
G01 X-55.0217 Y9.9667 
G01 X-55.1140 Y10.1047 
G01 X-55.1775 Y10.2581 
G01 X-55.2099 Y10.4210 
G01 X-55.2099 Y10.5870 
G01 X-55.1775 Y10.7499 
G01 X-55.1140 Y10.9033 
G01 X-55.0217 Y11.0413 
G01 X-54.9043 Y11.1587 
G01 X-54.7663 Y11.2510 
G01 X-54.7099 Y11.2743 
G01 X-54.7099 Y17.2020 
G01 X-56.1625 Y18.6546 
G01 X-56.2264 Y18.7185 
G01 X-56.2715 Y18.7966 
G01 X-56.2949 Y18.8839 
G01 X-56.2949 Y27.0991 
G01 X-56.2715 Y27.1864 
G01 X-56.2264 Y27.2645 
G01 X-51.6675 Y31.8234 
G01 X-51.6889 Y31.9308 
G01 X-51.6889 Y32.0772 
G01 X-51.6603 Y32.2207 
G01 X-51.6043 Y32.3559 
G01 X-51.5230 Y32.4776 
G01 X-51.4196 Y32.5810 
G01 X-51.2979 Y32.6623 
G01 X-51.1627 Y32.7183 
G01 X-51.0192 Y32.7469 
G00 Z2.5400 
G00 X-51.0192 Y35.2869 
G01 Z-0.1000 F254.00 
G01 X-49.5648 Y35.2869 F200.00 
G01 X-49.4213 Y35.2583 
G01 X-49.2861 Y35.2023 
G01 X-49.1644 Y35.1210 
G01 X-49.0610 Y35.0176 
G01 X-48.9796 Y34.8959 
G01 X-48.9237 Y34.7607 
G01 X-48.8951 Y34.6172 
G01 X-48.8951 Y34.4708 
G01 X-48.9237 Y34.3273 
G01 X-48.9796 Y34.1921 
G01 X-49.0610 Y34.0704 
G01 X-49.1644 Y33.9670 
G01 X-49.2861 Y33.8856 
G01 X-49.4213 Y33.8297 
G01 X-49.5648 Y33.8011 
G01 X-50.9950 Y33.8011 
G01 X-56.5641 Y28.2320 
G01 X-56.5641 Y11.2743 
G01 X-56.5077 Y11.2510 
G01 X-56.3697 Y11.1587 
G01 X-56.2523 Y11.0413 
G01 X-56.1600 Y10.9033 
G01 X-56.0965 Y10.7499 
G01 X-56.0641 Y10.5870 
G01 X-56.0641 Y10.4210 
G01 X-56.0965 Y10.2581 
G01 X-56.1600 Y10.1047 
G01 X-56.2523 Y9.9667 
G01 X-56.3697 Y9.8493 
G01 X-56.5077 Y9.7570 
G01 X-56.6611 Y9.6935 
G01 X-56.8240 Y9.6611 
G01 X-56.9900 Y9.6611 
G01 X-57.1529 Y9.6935 
G01 X-57.3063 Y9.7570 
G01 X-57.4443 Y9.8493 
G01 X-57.5617 Y9.9667 
G01 X-57.6540 Y10.1047 
G01 X-57.7175 Y10.2581 
G01 X-57.7499 Y10.4210 
G01 X-57.7499 Y10.5870 
G01 X-57.7175 Y10.7499 
G01 X-57.6540 Y10.9033 
G01 X-57.5617 Y11.0413 
G01 X-57.4443 Y11.1587 
G01 X-57.3063 Y11.2510 
G01 X-57.2499 Y11.2743 
G01 X-57.2499 Y28.4191 
G01 X-57.2265 Y28.5064 
G01 X-57.1814 Y28.5845 
G01 X-51.5921 Y34.1738 
G01 X-51.6043 Y34.1921 
G01 X-51.6603 Y34.3273 
G01 X-51.6889 Y34.4708 
G01 X-51.6889 Y34.6172 
G01 X-51.6603 Y34.7607 
G01 X-51.6043 Y34.8959 
G01 X-51.5230 Y35.0176 
G01 X-51.4196 Y35.1210 
G01 X-51.2979 Y35.2023 
G01 X-51.1627 Y35.2583 
G01 X-51.0192 Y35.2869 
G00 Z2.5400 
G00 X-51.0192 Y37.8269 
G01 Z-0.1000 F254.00 
G01 X-49.5648 Y37.8269 F200.00 
G01 X-49.4213 Y37.7983 
G01 X-49.2861 Y37.7423 
G01 X-49.1644 Y37.6610 
G01 X-49.0610 Y37.5576 
G01 X-48.9796 Y37.4359 
G01 X-48.9237 Y37.3007 
G01 X-48.8951 Y37.1572 
G01 X-48.8951 Y37.0108 
G01 X-48.9237 Y36.8673 
G01 X-48.9796 Y36.7321 
G01 X-49.0610 Y36.6104 
G01 X-49.1644 Y36.5070 
G01 X-49.2861 Y36.4257 
G01 X-49.4213 Y36.3697 
G01 X-49.5648 Y36.3411 
G01 X-51.0192 Y36.3411 
G01 X-51.1627 Y36.3697 
G01 X-51.2979 Y36.4257 
G01 X-51.4196 Y36.5070 
G01 X-51.5230 Y36.6104 
G01 X-51.6043 Y36.7321 
G01 X-51.6603 Y36.8673 
G01 X-51.6889 Y37.0108 
G01 X-51.6889 Y37.1572 
G01 X-51.6603 Y37.3007 
G01 X-51.6043 Y37.4359 
G01 X-51.5230 Y37.5576 
G01 X-51.4196 Y37.6610 
G01 X-51.2979 Y37.7423 
G01 X-51.1627 Y37.7983 
G01 X-51.0192 Y37.8269 
G00 Z2.5400 
G00 X-51.0192 Y40.3669 
G01 Z-0.1000 F254.00 
G01 X-49.5648 Y40.3669 F200.00 
G01 X-49.4213 Y40.3383 
G01 X-49.2861 Y40.2823 
G01 X-49.1644 Y40.2010 
G01 X-49.0610 Y40.0976 
G01 X-48.9796 Y39.9759 
G01 X-48.9758 Y39.9666 
G01 X-48.8896 Y39.9435 
G01 X-48.8115 Y39.8984 
G01 X-40.7915 Y31.8784 
G01 X-40.7276 Y31.8145 
G01 X-40.6825 Y31.7364 
G01 X-40.6591 Y31.6491 
G01 X-40.6591 Y21.4839 
G01 X-40.6825 Y21.3966 
G01 X-40.7276 Y21.3185 
G01 X-40.7915 Y21.2546 
G01 X-42.2841 Y19.7620 
G01 X-42.2841 Y15.1727 
G01 X-42.1833 Y15.1927 
G01 X-41.9807 Y15.1927 
G01 X-41.7819 Y15.1532 
G01 X-41.5947 Y15.0756 
G01 X-41.4262 Y14.9630 
G01 X-41.2830 Y14.8198 
G01 X-41.1704 Y14.6513 
G01 X-41.0928 Y14.4641 
G01 X-41.0533 Y14.2653 
G01 X-41.0533 Y14.0627 
G01 X-41.0928 Y13.8639 
G01 X-41.1704 Y13.6767 
G01 X-41.2830 Y13.5082 
G01 X-41.4262 Y13.3650 
G01 X-41.5947 Y13.2524 
G01 X-41.7819 Y13.1748 
G01 X-41.9807 Y13.1353 
G01 X-42.1833 Y13.1353 
G01 X-42.3821 Y13.1748 
G01 X-42.5693 Y13.2524 
G01 X-42.7378 Y13.3650 
G01 X-42.8810 Y13.5082 
G01 X-42.9936 Y13.6767 
G01 X-43.0712 Y13.8639 
G01 X-43.1107 Y14.0627 
G01 X-43.1107 Y14.2653 
G01 X-43.0712 Y14.4641 
G01 X-42.9936 Y14.6513 
G01 X-42.9699 Y14.6868 
G01 X-42.9699 Y19.9491 
G01 X-42.9465 Y20.0364 
G01 X-42.9014 Y20.1145 
G01 X-41.3449 Y21.6710 
G01 X-41.3449 Y31.4620 
G01 X-49.0499 Y39.1670 
G01 X-49.0610 Y39.1504 
G01 X-49.1644 Y39.0470 
G01 X-49.2861 Y38.9657 
G01 X-49.4213 Y38.9096 
G01 X-49.5648 Y38.8811 
G01 X-51.0192 Y38.8811 
G01 X-51.1627 Y38.9096 
G01 X-51.2979 Y38.9657 
G01 X-51.4196 Y39.0470 
G01 X-51.5230 Y39.1504 
G01 X-51.6043 Y39.2721 
G01 X-51.6603 Y39.4073 
G01 X-51.6889 Y39.5508 
G01 X-51.6889 Y39.6972 
G01 X-51.6603 Y39.8407 
G01 X-51.6043 Y39.9759 
G01 X-51.5230 Y40.0976 
G01 X-51.4196 Y40.2010 
G01 X-51.2979 Y40.2823 
G01 X-51.1627 Y40.3383 
G01 X-51.0192 Y40.3669 
G00 Z2.5400 
G00 X-51.0192 Y42.9069 
G01 Z-0.1000 F254.00 
G01 X-49.5648 Y42.9069 F200.00 
G01 X-49.4213 Y42.8783 
G01 X-49.2861 Y42.8223 
G01 X-49.1644 Y42.7410 
G01 X-49.0610 Y42.6376 
G01 X-48.9796 Y42.5159 
G01 X-48.9237 Y42.3807 
G01 X-48.8951 Y42.2372 
G01 X-48.8951 Y42.2270 
G01 X-43.8300 Y37.1619 
G01 X-41.7119 Y37.1619 
G01 X-41.6246 Y37.1385 
G01 X-41.5465 Y37.0934 
G01 X-40.9014 Y36.4484 
G01 X-40.7571 Y36.5082 
G01 X-40.5583 Y36.5477 
G01 X-40.3557 Y36.5477 
G01 X-40.1569 Y36.5082 
G01 X-39.9697 Y36.4306 
G01 X-39.8012 Y36.3180 
G01 X-39.6580 Y36.1748 
G01 X-39.5454 Y36.0063 
G01 X-39.4678 Y35.8191 
G01 X-39.4283 Y35.6203 
G01 X-39.4283 Y35.4177 
G01 X-39.4678 Y35.2189 
G01 X-39.5454 Y35.0317 
G01 X-39.6580 Y34.8632 
G01 X-39.8012 Y34.7200 
G01 X-39.9697 Y34.6074 
G01 X-40.1569 Y34.5298 
G01 X-40.3557 Y34.4903 
G01 X-40.5583 Y34.4903 
G01 X-40.7571 Y34.5298 
G01 X-40.9443 Y34.6074 
G01 X-41.1128 Y34.7200 
G01 X-41.2560 Y34.8632 
G01 X-41.3686 Y35.0317 
G01 X-41.4462 Y35.2189 
G01 X-41.4857 Y35.4177 
G01 X-41.4857 Y35.6203 
G01 X-41.4462 Y35.8191 
G01 X-41.3864 Y35.9634 
G01 X-41.8990 Y36.4761 
G01 X-44.0171 Y36.4761 
G01 X-44.1044 Y36.4995 
G01 X-44.1825 Y36.5446 
G01 X-44.2464 Y36.6085 
G01 X-49.2007 Y41.5627 
G01 X-49.2861 Y41.5057 
G01 X-49.4213 Y41.4497 
G01 X-49.5648 Y41.4211 
G01 X-51.0192 Y41.4211 
G01 X-51.1627 Y41.4497 
G01 X-51.2979 Y41.5057 
G01 X-51.4196 Y41.5870 
G01 X-51.5230 Y41.6904 
G01 X-51.6043 Y41.8121 
G01 X-51.6603 Y41.9473 
G01 X-51.6889 Y42.0908 
G01 X-51.6889 Y42.2372 
G01 X-51.6603 Y42.3807 
G01 X-51.6043 Y42.5159 
G01 X-51.5230 Y42.6376 
G01 X-51.4196 Y42.7410 
G01 X-51.2979 Y42.8223 
G01 X-51.1627 Y42.8783 
G01 X-51.0192 Y42.9069 
G00 Z2.5400 
G00 X-51.0192 Y45.4469 
G01 Z-0.1000 F254.00 
G01 X-49.5648 Y45.4469 F200.00 
G01 X-49.4213 Y45.4183 
G01 X-49.2861 Y45.3623 
G01 X-49.1644 Y45.2810 
G01 X-49.0610 Y45.1776 
G01 X-48.9796 Y45.0559 
G01 X-48.9759 Y45.0469 
G01 X-46.6240 Y45.0469 
G01 X-41.0614 Y50.6096 
G01 X-41.1212 Y50.7539 
G01 X-41.1607 Y50.9527 
G01 X-41.1607 Y51.1553 
G01 X-41.1212 Y51.3541 
G01 X-41.0436 Y51.5413 
G01 X-40.9310 Y51.7098 
G01 X-40.7878 Y51.8530 
G01 X-40.6193 Y51.9656 
G01 X-40.4321 Y52.0432 
G01 X-40.2333 Y52.0827 
G01 X-40.0307 Y52.0827 
G01 X-39.8319 Y52.0432 
G01 X-39.6447 Y51.9656 
G01 X-39.4762 Y51.8530 
G01 X-39.3330 Y51.7098 
G01 X-39.2204 Y51.5413 
G01 X-39.1428 Y51.3541 
G01 X-39.1033 Y51.1553 
G01 X-39.1033 Y50.9527 
G01 X-39.1428 Y50.7539 
G01 X-39.2204 Y50.5667 
G01 X-39.3330 Y50.3982 
G01 X-39.4762 Y50.2550 
G01 X-39.6447 Y50.1424 
G01 X-39.8319 Y50.0648 
G01 X-40.0307 Y50.0253 
G01 X-40.2333 Y50.0253 
G01 X-40.4321 Y50.0648 
G01 X-40.5764 Y50.1246 
G01 X-46.2076 Y44.4935 
G01 X-46.2715 Y44.4296 
G01 X-46.3496 Y44.3845 
G01 X-46.4369 Y44.3611 
G01 X-48.9759 Y44.3611 
G01 X-48.9796 Y44.3521 
G01 X-49.0610 Y44.2304 
G01 X-49.1644 Y44.1270 
G01 X-49.2861 Y44.0457 
G01 X-49.4213 Y43.9897 
G01 X-49.5648 Y43.9611 
G01 X-51.0192 Y43.9611 
G01 X-51.1627 Y43.9897 
G01 X-51.2979 Y44.0457 
G01 X-51.4196 Y44.1270 
G01 X-51.5230 Y44.2304 
G01 X-51.6043 Y44.3521 
G01 X-51.6603 Y44.4873 
G01 X-51.6889 Y44.6308 
G01 X-51.6889 Y44.7772 
G01 X-51.6603 Y44.9207 
G01 X-51.6043 Y45.0559 
G01 X-51.5230 Y45.1776 
G01 X-51.4196 Y45.2810 
G01 X-51.2979 Y45.3623 
G01 X-51.1627 Y45.4183 
G01 X-51.0192 Y45.4469 
G00 Z2.5400 
G00 X-51.0192 Y47.9869 
G01 Z-0.1000 F254.00 
G01 X-49.5648 Y47.9869 F200.00 
G01 X-49.4213 Y47.9583 
G01 X-49.2861 Y47.9023 
G01 X-49.1644 Y47.8210 
G01 X-49.0610 Y47.7176 
G01 X-48.9796 Y47.5959 
G01 X-48.9237 Y47.4607 
G01 X-48.8951 Y47.3172 
G01 X-48.8951 Y47.1708 
G01 X-48.9237 Y47.0273 
G01 X-48.9796 Y46.8921 
G01 X-49.0610 Y46.7704 
G01 X-49.1644 Y46.6669 
G01 X-49.2861 Y46.5857 
G01 X-49.4213 Y46.5297 
G01 X-49.5648 Y46.5011 
G01 X-51.0192 Y46.5011 
G01 X-51.1627 Y46.5297 
G01 X-51.2979 Y46.5857 
G01 X-51.4196 Y46.6669 
G01 X-51.5230 Y46.7704 
G01 X-51.6043 Y46.8921 
G01 X-51.6603 Y47.0273 
G01 X-51.6889 Y47.1708 
G01 X-51.6889 Y47.3172 
G01 X-51.6603 Y47.4607 
G01 X-51.6043 Y47.5959 
G01 X-51.5230 Y47.7176 
G01 X-51.4196 Y47.8210 
G01 X-51.2979 Y47.9023 
G01 X-51.1627 Y47.9583 
G01 X-51.0192 Y47.9869 
G00 Z2.5400 
G00 X-51.0192 Y50.5269 
G01 Z-0.1000 F254.00 
G01 X-49.5648 Y50.5269 F200.00 
G01 X-49.4213 Y50.4983 
G01 X-49.2861 Y50.4423 
G01 X-49.1644 Y50.3610 
G01 X-49.0610 Y50.2576 
G01 X-48.9796 Y50.1359 
G01 X-48.9237 Y50.0007 
G01 X-48.8951 Y49.8572 
G01 X-48.8951 Y49.7108 
G01 X-48.9237 Y49.5673 
G01 X-48.9796 Y49.4321 
G01 X-49.0610 Y49.3104 
G01 X-49.1644 Y49.2069 
G01 X-49.2861 Y49.1257 
G01 X-49.4213 Y49.0697 
G01 X-49.5648 Y49.0411 
G01 X-51.0192 Y49.0411 
G01 X-51.1627 Y49.0697 
G01 X-51.2979 Y49.1257 
G01 X-51.4196 Y49.2069 
G01 X-51.5230 Y49.3104 
G01 X-51.6043 Y49.4321 
G01 X-51.6603 Y49.5673 
G01 X-51.6889 Y49.7108 
G01 X-51.6889 Y49.8572 
G01 X-51.6603 Y50.0007 
G01 X-51.6043 Y50.1359 
G01 X-51.5230 Y50.2576 
G01 X-51.4196 Y50.3610 
G01 X-51.2979 Y50.4423 
G01 X-51.1627 Y50.4983 
G01 X-51.0192 Y50.5269 
G00 Z2.5400 
G00 X-51.0192 Y55.6069 
G01 Z-0.1000 F254.00 
G01 X-49.5648 Y55.6069 F200.00 
G01 X-49.4213 Y55.5783 
G01 X-49.2861 Y55.5223 
G01 X-49.1644 Y55.4410 
G01 X-49.0610 Y55.3376 
G01 X-48.9796 Y55.2159 
G01 X-48.9237 Y55.0807 
G01 X-48.8951 Y54.9372 
G01 X-48.8951 Y54.7908 
G01 X-48.9237 Y54.6473 
G01 X-48.9796 Y54.5121 
G01 X-49.0610 Y54.3904 
G01 X-49.1644 Y54.2870 
G01 X-49.2861 Y54.2057 
G01 X-49.4213 Y54.1497 
G01 X-49.5648 Y54.1211 
G01 X-51.0192 Y54.1211 
G01 X-51.1627 Y54.1497 
G01 X-51.2979 Y54.2057 
G01 X-51.4196 Y54.2870 
G01 X-51.5230 Y54.3904 
G01 X-51.6043 Y54.5121 
G01 X-51.6603 Y54.6473 
G01 X-51.6889 Y54.7908 
G01 X-51.6889 Y54.9372 
G01 X-51.6603 Y55.0807 
G01 X-51.6043 Y55.2159 
G01 X-51.5230 Y55.3376 
G01 X-51.4196 Y55.4410 
G01 X-51.2979 Y55.5223 
G01 X-51.1627 Y55.5783 
G01 X-51.0192 Y55.6069 
G00 Z2.5400 
G00 X-51.0192 Y58.1469 
G01 Z-0.1000 F254.00 
G01 X-49.5648 Y58.1469 F200.00 
G01 X-49.4213 Y58.1183 
G01 X-49.2861 Y58.0623 
G01 X-49.1644 Y57.9810 
G01 X-49.0610 Y57.8776 
G01 X-48.9796 Y57.7559 
G01 X-48.9237 Y57.6207 
G01 X-48.8951 Y57.4772 
G01 X-48.8951 Y57.3308 
G01 X-48.9237 Y57.1873 
G01 X-48.9796 Y57.0521 
G01 X-49.0610 Y56.9304 
G01 X-49.1644 Y56.8270 
G01 X-49.2861 Y56.7457 
G01 X-49.4213 Y56.6897 
G01 X-49.5648 Y56.6611 
G01 X-51.0192 Y56.6611 
G01 X-51.1627 Y56.6897 
G01 X-51.2979 Y56.7457 
G01 X-51.4196 Y56.8270 
G01 X-51.5230 Y56.9304 
G01 X-51.6043 Y57.0521 
G01 X-51.6603 Y57.1873 
G01 X-51.6889 Y57.3308 
G01 X-51.6889 Y57.4772 
G01 X-51.6603 Y57.6207 
G01 X-51.6043 Y57.7559 
G01 X-51.5230 Y57.8776 
G01 X-51.4196 Y57.9810 
G01 X-51.2979 Y58.0623 
G01 X-51.1627 Y58.1183 
G01 X-51.0192 Y58.1469 
G00 Z2.5400 
G00 X-51.0192 Y60.6869 
G01 Z-0.1000 F254.00 
G01 X-49.5648 Y60.6869 F200.00 
G01 X-49.4213 Y60.6583 
G01 X-49.2861 Y60.6023 
G01 X-49.1644 Y60.5210 
G01 X-49.0610 Y60.4176 
G01 X-48.9796 Y60.2959 
G01 X-48.9237 Y60.1607 
G01 X-48.8951 Y60.0172 
G01 X-48.8951 Y59.8708 
G01 X-48.9237 Y59.7273 
G01 X-48.9796 Y59.5921 
G01 X-49.0610 Y59.4704 
G01 X-49.1644 Y59.3670 
G01 X-49.2861 Y59.2857 
G01 X-49.4213 Y59.2296 
G01 X-49.5648 Y59.2011 
G01 X-51.0192 Y59.2011 
G01 X-51.1627 Y59.2296 
G01 X-51.2979 Y59.2857 
G01 X-51.4196 Y59.3670 
G01 X-51.5230 Y59.4704 
G01 X-51.6043 Y59.5921 
G01 X-51.6603 Y59.7273 
G01 X-51.6889 Y59.8708 
G01 X-51.6889 Y60.0172 
G01 X-51.6603 Y60.1607 
G01 X-51.6043 Y60.2959 
G01 X-51.5230 Y60.4176 
G01 X-51.4196 Y60.5210 
G01 X-51.2979 Y60.6023 
G01 X-51.1627 Y60.6583 
G01 X-51.0192 Y60.6869 
G00 Z2.5400 
G00 X-51.0192 Y63.2269 
G01 Z-0.1000 F254.00 
G01 X-49.5648 Y63.2269 F200.00 
G01 X-49.4213 Y63.1983 
G01 X-49.2861 Y63.1423 
G01 X-49.1644 Y63.0610 
G01 X-49.0610 Y62.9576 
G01 X-48.9796 Y62.8359 
G01 X-48.9237 Y62.7007 
G01 X-48.8951 Y62.5572 
G01 X-48.8951 Y62.4108 
G01 X-48.9237 Y62.2673 
G01 X-48.9796 Y62.1321 
G01 X-49.0610 Y62.0104 
G01 X-49.1644 Y61.9070 
G01 X-49.2861 Y61.8257 
G01 X-49.4213 Y61.7697 
G01 X-49.5648 Y61.7411 
G01 X-51.0192 Y61.7411 
G01 X-51.1627 Y61.7697 
G01 X-51.2979 Y61.8257 
G01 X-51.4196 Y61.9070 
G01 X-51.5230 Y62.0104 
G01 X-51.6043 Y62.1321 
G01 X-51.6603 Y62.2673 
G01 X-51.6889 Y62.4108 
G01 X-51.6889 Y62.5572 
G01 X-51.6603 Y62.7007 
G01 X-51.6043 Y62.8359 
G01 X-51.5230 Y62.9576 
G01 X-51.4196 Y63.0610 
G01 X-51.2979 Y63.1423 
G01 X-51.1627 Y63.1983 
G01 X-51.0192 Y63.2269 
G00 Z2.5400 
G00 X-51.0192 Y65.7669 
G01 Z-0.1000 F254.00 
G01 X-49.5648 Y65.7669 F200.00 
G01 X-49.4213 Y65.7383 
G01 X-49.2861 Y65.6823 
G01 X-49.1644 Y65.6010 
G01 X-49.0610 Y65.4976 
G01 X-48.9796 Y65.3759 
G01 X-48.9237 Y65.2407 
G01 X-48.8951 Y65.0972 
G01 X-48.8951 Y64.9508 
G01 X-48.9237 Y64.8073 
G01 X-48.9796 Y64.6721 
G01 X-49.0610 Y64.5504 
G01 X-49.1644 Y64.4470 
G01 X-49.2861 Y64.3657 
G01 X-49.4213 Y64.3097 
G01 X-49.5648 Y64.2811 
G01 X-51.0192 Y64.2811 
G01 X-51.1627 Y64.3097 
G01 X-51.2979 Y64.3657 
G01 X-51.4196 Y64.4470 
G01 X-51.5230 Y64.5504 
G01 X-51.6043 Y64.6721 
G01 X-51.6603 Y64.8073 
G01 X-51.6889 Y64.9508 
G01 X-51.6889 Y65.0972 
G01 X-51.6603 Y65.2407 
G01 X-51.6043 Y65.3759 
G01 X-51.5230 Y65.4976 
G01 X-51.4196 Y65.6010 
G01 X-51.2979 Y65.6823 
G01 X-51.1627 Y65.7383 
G01 X-51.0192 Y65.7669 
G00 Z2.5400 
G00 X-51.0192 Y68.3069 
G01 Z-0.1000 F254.00 
G01 X-49.5648 Y68.3069 F200.00 
G01 X-49.4213 Y68.2783 
G01 X-49.2861 Y68.2223 
G01 X-49.1644 Y68.1410 
G01 X-49.0610 Y68.0376 
G01 X-48.9796 Y67.9159 
G01 X-48.9237 Y67.7807 
G01 X-48.8951 Y67.6372 
G01 X-48.8951 Y67.4908 
G01 X-48.9237 Y67.3473 
G01 X-48.9796 Y67.2121 
G01 X-49.0610 Y67.0904 
G01 X-49.1644 Y66.9870 
G01 X-49.2861 Y66.9057 
G01 X-49.4213 Y66.8496 
G01 X-49.5648 Y66.8211 
G01 X-51.0192 Y66.8211 
G01 X-51.1627 Y66.8496 
G01 X-51.2979 Y66.9057 
G01 X-51.4196 Y66.9870 
G01 X-51.5230 Y67.0904 
G01 X-51.6043 Y67.2121 
G01 X-51.6603 Y67.3473 
G01 X-51.6889 Y67.4908 
G01 X-51.6889 Y67.6372 
G01 X-51.6603 Y67.7807 
G01 X-51.6043 Y67.9159 
G01 X-51.5230 Y68.0376 
G01 X-51.4196 Y68.1410 
G01 X-51.2979 Y68.2223 
G01 X-51.1627 Y68.2783 
G01 X-51.0192 Y68.3069 
G00 Z2.5400 
G00 X-31.0007 Y54.7627 
G01 Z-0.1000 F254.00 
G01 X-31.0007 Y54.9653 F200.00 
G01 X-30.9612 Y55.1641 
G01 X-30.8836 Y55.3513 
G01 X-30.7710 Y55.5198 
G01 X-30.6278 Y55.6630 
G01 X-30.4593 Y55.7756 
G01 X-30.2721 Y55.8532 
G01 X-30.0733 Y55.8927 
G01 X-29.8707 Y55.8927 
G01 X-29.6719 Y55.8532 
G01 X-29.4847 Y55.7756 
G01 X-29.3162 Y55.6630 
G01 X-29.1730 Y55.5198 
G01 X-29.0604 Y55.3513 
G01 X-29.0006 Y55.2069 
G01 X-28.6569 Y55.2069 
G01 X-28.5696 Y55.1835 
G01 X-28.4915 Y55.1384 
G01 X-28.0425 Y54.6894 
G01 X-28.0140 Y54.7321 
G01 X-27.9097 Y54.8364 
G01 X-27.7869 Y54.9184 
G01 X-27.6506 Y54.9749 
G01 X-27.5058 Y55.0037 
G01 X-27.3582 Y55.0037 
G01 X-27.2134 Y54.9749 
G01 X-27.0771 Y54.9184 
G01 X-26.9543 Y54.8364 
G01 X-26.8500 Y54.7321 
G01 X-26.7680 Y54.6093 
G01 X-26.7115 Y54.4730 
G01 X-26.6827 Y54.3282 
G01 X-26.6827 Y53.3296 
G01 X-25.9000 Y52.5469 
G01 X-19.1849 Y52.5469 
G01 X-19.1849 Y52.7757 
G01 X-19.1714 Y52.8084 
G01 X-19.1464 Y52.8334 
G01 X-19.1137 Y52.8469 
G01 X-18.8849 Y52.8469 
G01 X-18.8849 Y53.8926 
G01 X-19.0293 Y53.9524 
G01 X-19.1978 Y54.0650 
G01 X-19.3410 Y54.2082 
G01 X-19.4536 Y54.3767 
G01 X-19.5312 Y54.5639 
G01 X-19.5707 Y54.7627 
G01 X-19.5707 Y54.9653 
G01 X-19.5312 Y55.1641 
G01 X-19.4536 Y55.3513 
G01 X-19.3410 Y55.5198 
G01 X-19.1978 Y55.6630 
G01 X-19.0293 Y55.7756 
G01 X-18.8421 Y55.8532 
G01 X-18.6433 Y55.8927 
G01 X-18.4407 Y55.8927 
G01 X-18.2419 Y55.8532 
G01 X-18.0547 Y55.7756 
G01 X-17.8862 Y55.6630 
G01 X-17.7430 Y55.5198 
G01 X-17.6304 Y55.3513 
G01 X-17.5528 Y55.1641 
G01 X-17.5133 Y54.9653 
G01 X-17.5133 Y54.7627 
G01 X-17.5528 Y54.5639 
G01 X-17.6304 Y54.3767 
G01 X-17.7430 Y54.2082 
G01 X-17.8862 Y54.0650 
G01 X-18.0547 Y53.9524 
G01 X-18.1991 Y53.8926 
G01 X-18.1991 Y52.8469 
G01 X-17.9703 Y52.8469 
G01 X-17.9376 Y52.8334 
G01 X-17.9126 Y52.8084 
G01 X-17.8991 Y52.7757 
G01 X-17.8991 Y51.6323 
G01 X-17.9126 Y51.5996 
G01 X-17.9376 Y51.5746 
G01 X-17.9703 Y51.5611 
G01 X-19.1137 Y51.5611 
G01 X-19.1464 Y51.5746 
G01 X-19.1714 Y51.5996 
G01 X-19.1849 Y51.6323 
G01 X-19.1849 Y51.8611 
G01 X-21.0600 Y51.8611 
G01 X-22.7509 Y50.1701 
G01 X-22.7330 Y50.1522 
G01 X-22.7330 Y49.4158 
G01 X-23.2538 Y48.8950 
G01 X-23.9902 Y48.8950 
G01 X-24.5110 Y49.4158 
G01 X-24.5110 Y50.1522 
G01 X-23.9902 Y50.6730 
G01 X-23.2538 Y50.6730 
G01 X-23.2358 Y50.6551 
G01 X-22.0298 Y51.8611 
G01 X-26.0871 Y51.8611 
G01 X-26.1744 Y51.8845 
G01 X-26.2525 Y51.9296 
G01 X-26.3164 Y51.9935 
G01 X-26.8215 Y52.4986 
G01 X-26.8500 Y52.4559 
G01 X-26.9543 Y52.3516 
G01 X-27.0771 Y52.2696 
G01 X-27.2134 Y52.2131 
G01 X-27.3582 Y52.1843 
G01 X-27.5058 Y52.1843 
G01 X-27.6506 Y52.2131 
G01 X-27.7869 Y52.2696 
G01 X-27.9097 Y52.3516 
G01 X-28.0140 Y52.4559 
G01 X-28.0960 Y52.5787 
G01 X-28.1525 Y52.7150 
G01 X-28.1813 Y52.8598 
G01 X-28.1813 Y53.8584 
G01 X-28.8440 Y54.5211 
G01 X-29.0006 Y54.5211 
G01 X-29.0604 Y54.3767 
G01 X-29.1730 Y54.2082 
G01 X-29.3162 Y54.0650 
G01 X-29.4847 Y53.9524 
G01 X-29.6719 Y53.8748 
G01 X-29.8707 Y53.8353 
G01 X-30.0733 Y53.8353 
G01 X-30.2721 Y53.8748 
G01 X-30.4593 Y53.9524 
G01 X-30.6278 Y54.0650 
G01 X-30.7710 Y54.2082 
G01 X-30.8836 Y54.3767 
G01 X-30.9612 Y54.5639 
G01 X-31.0007 Y54.7627 
G00 Z2.5400 
G00 X-33.5407 Y50.9527 
G01 Z-0.1000 F254.00 
G01 X-33.5407 Y51.1553 F200.00 
G01 X-33.5012 Y51.3541 
G01 X-33.4414 Y51.4984 
G01 X-34.0864 Y52.1435 
G01 X-34.1315 Y52.2216 
G01 X-34.1549 Y52.3089 
G01 X-34.1549 Y53.2726 
G01 X-34.2993 Y53.3324 
G01 X-34.4678 Y53.4450 
G01 X-34.6110 Y53.5882 
G01 X-34.7236 Y53.7567 
G01 X-34.8012 Y53.9439 
G01 X-34.8407 Y54.1427 
G01 X-34.8407 Y54.3453 
G01 X-34.8012 Y54.5441 
G01 X-34.7236 Y54.7313 
G01 X-34.6110 Y54.8998 
G01 X-34.4678 Y55.0430 
G01 X-34.2993 Y55.1556 
G01 X-34.1121 Y55.2332 
G01 X-33.9133 Y55.2727 
G01 X-33.7107 Y55.2727 
G01 X-33.5119 Y55.2332 
G01 X-33.3247 Y55.1556 
G01 X-33.1562 Y55.0430 
G01 X-33.0130 Y54.8998 
G01 X-32.9004 Y54.7313 
G01 X-32.8228 Y54.5441 
G01 X-32.7833 Y54.3453 
G01 X-32.7833 Y54.1427 
G01 X-32.8228 Y53.9439 
G01 X-32.9004 Y53.7567 
G01 X-33.0130 Y53.5882 
G01 X-33.1562 Y53.4450 
G01 X-33.3247 Y53.3324 
G01 X-33.4691 Y53.2726 
G01 X-33.4691 Y52.4960 
G01 X-32.9564 Y51.9834 
G01 X-32.8121 Y52.0432 
G01 X-32.6133 Y52.0827 
G01 X-32.4107 Y52.0827 
G01 X-32.2119 Y52.0432 
G01 X-32.0247 Y51.9656 
G01 X-31.8562 Y51.8530 
G01 X-31.7130 Y51.7098 
G01 X-31.6004 Y51.5413 
G01 X-31.5228 Y51.3541 
G01 X-31.4833 Y51.1553 
G01 X-31.4833 Y50.9527 
G01 X-31.5228 Y50.7539 
G01 X-31.6004 Y50.5667 
G01 X-31.7130 Y50.3982 
G01 X-31.8562 Y50.2550 
G01 X-32.0247 Y50.1424 
G01 X-32.1691 Y50.0826 
G01 X-32.1691 Y47.8339 
G01 X-32.1925 Y47.7466 
G01 X-32.2376 Y47.6685 
G01 X-32.3015 Y47.6046 
G01 X-33.6677 Y46.2384 
G01 X-33.6677 Y45.6636 
G01 X-34.1066 Y45.2247 
G01 X-34.7274 Y45.2247 
G01 X-35.1663 Y45.6636 
G01 X-35.1663 Y46.2844 
G01 X-34.7274 Y46.7233 
G01 X-34.1526 Y46.7233 
G01 X-32.8549 Y48.0210 
G01 X-32.8549 Y50.0826 
G01 X-32.9993 Y50.1424 
G01 X-33.1678 Y50.2550 
G01 X-33.3110 Y50.3982 
G01 X-33.4236 Y50.5667 
G01 X-33.5012 Y50.7539 
G01 X-33.5407 Y50.9527 
G00 Z2.5400 
G00 X-31.0007 Y38.2527 
G01 Z-0.1000 F254.00 
G01 X-31.0007 Y38.4553 F200.00 
G01 X-30.9612 Y38.6541 
G01 X-30.8836 Y38.8413 
G01 X-30.7710 Y39.0098 
G01 X-30.6278 Y39.1530 
G01 X-30.4593 Y39.2656 
G01 X-30.2721 Y39.3432 
G01 X-30.0733 Y39.3827 
G01 X-29.8707 Y39.3827 
G01 X-29.6719 Y39.3432 
G01 X-29.4847 Y39.2656 
G01 X-29.3162 Y39.1530 
G01 X-29.1730 Y39.0098 
G01 X-29.0604 Y38.8413 
G01 X-29.0006 Y38.6969 
G01 X-28.6569 Y38.6969 
G01 X-28.5696 Y38.6735 
G01 X-28.4915 Y38.6284 
G01 X-28.0425 Y38.1794 
G01 X-28.0140 Y38.2221 
G01 X-27.9097 Y38.3264 
G01 X-27.7869 Y38.4084 
G01 X-27.6506 Y38.4649 
G01 X-27.5058 Y38.4937 
G01 X-27.3582 Y38.4937 
G01 X-27.2134 Y38.4649 
G01 X-27.0771 Y38.4084 
G01 X-26.9543 Y38.3264 
G01 X-26.8500 Y38.2221 
G01 X-26.7680 Y38.0993 
G01 X-26.7115 Y37.9630 
G01 X-26.6827 Y37.8182 
G01 X-26.6827 Y36.8196 
G01 X-25.9000 Y36.0369 
G01 X-19.1849 Y36.0369 
G01 X-19.1849 Y36.2657 
G01 X-19.1714 Y36.2984 
G01 X-19.1464 Y36.3234 
G01 X-19.1137 Y36.3369 
G01 X-18.8849 Y36.3369 
G01 X-18.8849 Y37.3826 
G01 X-19.0293 Y37.4424 
G01 X-19.1978 Y37.5550 
G01 X-19.3410 Y37.6982 
G01 X-19.4536 Y37.8667 
G01 X-19.5312 Y38.0539 
G01 X-19.5707 Y38.2527 
G01 X-19.5707 Y38.4553 
G01 X-19.5312 Y38.6541 
G01 X-19.4536 Y38.8413 
G01 X-19.3410 Y39.0098 
G01 X-19.1978 Y39.1530 
G01 X-19.0293 Y39.2656 
G01 X-18.8421 Y39.3432 
G01 X-18.6433 Y39.3827 
G01 X-18.4407 Y39.3827 
G01 X-18.2419 Y39.3432 
G01 X-18.0547 Y39.2656 
G01 X-17.8862 Y39.1530 
G01 X-17.7430 Y39.0098 
G01 X-17.6304 Y38.8413 
G01 X-17.5528 Y38.6541 
G01 X-17.5133 Y38.4553 
G01 X-17.5133 Y38.2527 
G01 X-17.5528 Y38.0539 
G01 X-17.6304 Y37.8667 
G01 X-17.7430 Y37.6982 
G01 X-17.8862 Y37.5550 
G01 X-18.0547 Y37.4424 
G01 X-18.1991 Y37.3826 
G01 X-18.1991 Y36.3369 
G01 X-17.9703 Y36.3369 
G01 X-17.9376 Y36.3234 
G01 X-17.9126 Y36.2984 
G01 X-17.8991 Y36.2657 
G01 X-17.8991 Y35.1223 
G01 X-17.9126 Y35.0896 
G01 X-17.9376 Y35.0646 
G01 X-17.9703 Y35.0511 
G01 X-19.1137 Y35.0511 
G01 X-19.1464 Y35.0646 
G01 X-19.1714 Y35.0896 
G01 X-19.1849 Y35.1223 
G01 X-19.1849 Y35.3511 
G01 X-21.0600 Y35.3511 
G01 X-22.7509 Y33.6602 
G01 X-22.7330 Y33.6422 
G01 X-22.7330 Y32.9058 
G01 X-23.2538 Y32.3850 
G01 X-23.9902 Y32.3850 
G01 X-24.5110 Y32.9058 
G01 X-24.5110 Y33.6422 
G01 X-23.9902 Y34.1630 
G01 X-23.2538 Y34.1630 
G01 X-23.2358 Y34.1451 
G01 X-22.0298 Y35.3511 
G01 X-26.0871 Y35.3511 
G01 X-26.1744 Y35.3745 
G01 X-26.2525 Y35.4196 
G01 X-26.3164 Y35.4835 
G01 X-26.8215 Y35.9886 
G01 X-26.8500 Y35.9459 
G01 X-26.9543 Y35.8416 
G01 X-27.0771 Y35.7596 
G01 X-27.2134 Y35.7031 
G01 X-27.3582 Y35.6743 
G01 X-27.5058 Y35.6743 
G01 X-27.6506 Y35.7031 
G01 X-27.7869 Y35.7596 
G01 X-27.9097 Y35.8416 
G01 X-28.0140 Y35.9459 
G01 X-28.0960 Y36.0687 
G01 X-28.1525 Y36.2050 
G01 X-28.1813 Y36.3498 
G01 X-28.1813 Y37.3484 
G01 X-28.8440 Y38.0111 
G01 X-29.0006 Y38.0111 
G01 X-29.0604 Y37.8667 
G01 X-29.1730 Y37.6982 
G01 X-29.3162 Y37.5550 
G01 X-29.4847 Y37.4424 
G01 X-29.6719 Y37.3648 
G01 X-29.8707 Y37.3253 
G01 X-30.0733 Y37.3253 
G01 X-30.2721 Y37.3648 
G01 X-30.4593 Y37.4424 
G01 X-30.6278 Y37.5550 
G01 X-30.7710 Y37.6982 
G01 X-30.8836 Y37.8667 
G01 X-30.9612 Y38.0539 
G01 X-31.0007 Y38.2527 
G00 Z2.5400 
G00 X-31.0007 Y30.6327 
G01 Z-0.1000 F254.00 
G01 X-31.0007 Y30.8353 F200.00 
G01 X-30.9612 Y31.0341 
G01 X-30.8836 Y31.2213 
G01 X-30.7710 Y31.3898 
G01 X-30.6278 Y31.5330 
G01 X-30.4593 Y31.6456 
G01 X-30.2721 Y31.7232 
G01 X-30.0733 Y31.7627 
G01 X-29.8707 Y31.7627 
G01 X-29.6719 Y31.7232 
G01 X-29.4847 Y31.6456 
G01 X-29.3162 Y31.5330 
G01 X-29.1730 Y31.3898 
G01 X-29.0604 Y31.2213 
G01 X-28.9828 Y31.0341 
G01 X-28.9433 Y30.8353 
G01 X-28.9433 Y30.6327 
G01 X-28.9828 Y30.4339 
G01 X-29.0604 Y30.2467 
G01 X-29.1730 Y30.0782 
G01 X-29.3162 Y29.9350 
G01 X-29.4847 Y29.8224 
G01 X-29.6719 Y29.7448 
G01 X-29.8707 Y29.7053 
G01 X-30.0733 Y29.7053 
G01 X-30.2721 Y29.7448 
G01 X-30.4164 Y29.8046 
G01 X-30.8991 Y29.3220 
G01 X-30.8991 Y28.8630 
G01 X-30.8871 Y28.8580 
G01 X-30.7643 Y28.7760 
G01 X-30.6600 Y28.6716 
G01 X-30.5780 Y28.5489 
G01 X-30.5215 Y28.4126 
G01 X-30.4927 Y28.2678 
G01 X-30.4927 Y28.1202 
G01 X-30.5215 Y27.9754 
G01 X-30.5780 Y27.8391 
G01 X-30.6600 Y27.7163 
G01 X-30.7643 Y27.6120 
G01 X-30.8871 Y27.5300 
G01 X-31.0234 Y27.4735 
G01 X-31.1682 Y27.4447 
G01 X-31.3158 Y27.4447 
G01 X-31.4606 Y27.4735 
G01 X-31.5969 Y27.5300 
G01 X-31.7197 Y27.6120 
G01 X-31.8240 Y27.7163 
G01 X-31.9060 Y27.8391 
G01 X-31.9625 Y27.9754 
G01 X-31.9913 Y28.1202 
G01 X-31.9913 Y28.2678 
G01 X-31.9625 Y28.4126 
G01 X-31.9060 Y28.5489 
G01 X-31.8240 Y28.6716 
G01 X-31.7197 Y28.7760 
G01 X-31.5969 Y28.8580 
G01 X-31.5849 Y28.8630 
G01 X-31.5849 Y29.5091 
G01 X-31.5615 Y29.5964 
G01 X-31.5164 Y29.6745 
G01 X-31.4525 Y29.7384 
G01 X-30.9014 Y30.2896 
G01 X-30.9612 Y30.4339 
G01 X-31.0007 Y30.6327 
G00 Z2.5400 
G00 X-13.2207 Y70.9777 
G01 Z-0.1000 F254.00 
G01 X-13.2207 Y71.1803 F200.00 
G01 X-13.1812 Y71.3791 
G01 X-13.1036 Y71.5663 
G01 X-12.9910 Y71.7348 
G01 X-12.8478 Y71.8780 
G01 X-12.6793 Y71.9906 
G01 X-12.4921 Y72.0682 
G01 X-12.2933 Y72.1077 
G01 X-12.0907 Y72.1077 
G01 X-11.8919 Y72.0682 
G01 X-11.7047 Y71.9906 
G01 X-11.5362 Y71.8780 
G01 X-11.3930 Y71.7348 
G01 X-11.2804 Y71.5663 
G01 X-11.2028 Y71.3791 
G01 X-11.1633 Y71.1803 
G01 X-11.1633 Y70.9777 
G01 X-11.2028 Y70.7789 
G01 X-11.2804 Y70.5917 
G01 X-11.3930 Y70.4232 
G01 X-11.5362 Y70.2800 
G01 X-11.7047 Y70.1674 
G01 X-11.8491 Y70.1076 
G01 X-11.8491 Y64.9789 
G01 X-11.8725 Y64.8916 
G01 X-11.9176 Y64.8135 
G01 X-14.3891 Y62.3420 
G01 X-14.3891 Y58.8061 
G01 X-14.3575 Y58.7514 
G01 X-14.3341 Y58.6641 
G01 X-14.3341 Y55.2069 
G01 X-11.8934 Y55.2069 
G01 X-11.8336 Y55.3513 
G01 X-11.7210 Y55.5198 
G01 X-11.5778 Y55.6630 
G01 X-11.4093 Y55.7756 
G01 X-11.2221 Y55.8532 
G01 X-11.0233 Y55.8927 
G01 X-10.8207 Y55.8927 
G01 X-10.6219 Y55.8532 
G01 X-10.4347 Y55.7756 
G01 X-10.2662 Y55.6630 
G01 X-10.1230 Y55.5198 
G01 X-10.0104 Y55.3513 
G01 X-9.9328 Y55.1641 
G01 X-9.8933 Y54.9653 
G01 X-9.8933 Y54.7627 
G01 X-9.9328 Y54.5639 
G01 X-10.0104 Y54.3767 
G01 X-10.1230 Y54.2082 
G01 X-10.2662 Y54.0650 
G01 X-10.4347 Y53.9524 
G01 X-10.6219 Y53.8748 
G01 X-10.8207 Y53.8353 
G01 X-11.0233 Y53.8353 
G01 X-11.2221 Y53.8748 
G01 X-11.4093 Y53.9524 
G01 X-11.5778 Y54.0650 
G01 X-11.7210 Y54.2082 
G01 X-11.8336 Y54.3767 
G01 X-11.8738 Y54.4738 
G01 X-14.3891 Y54.3499 
G01 X-14.3891 Y51.0089 
G01 X-14.4125 Y50.9216 
G01 X-14.4576 Y50.8435 
G01 X-14.5215 Y50.7796 
G01 X-16.9291 Y48.3720 
G01 X-16.9291 Y41.0360 
G01 X-14.5900 Y38.6969 
G01 X-11.8934 Y38.6969 
G01 X-11.8336 Y38.8413 
G01 X-11.7210 Y39.0098 
G01 X-11.5778 Y39.1530 
G01 X-11.4093 Y39.2656 
G01 X-11.2221 Y39.3432 
G01 X-11.0233 Y39.3827 
G01 X-10.8207 Y39.3827 
G01 X-10.6219 Y39.3432 
G01 X-10.4347 Y39.2656 
G01 X-10.2662 Y39.1530 
G01 X-10.1230 Y39.0098 
G01 X-10.0104 Y38.8413 
G01 X-9.9328 Y38.6541 
G01 X-9.8933 Y38.4553 
G01 X-9.8933 Y38.2527 
G01 X-9.9328 Y38.0539 
G01 X-10.0104 Y37.8667 
G01 X-10.1230 Y37.6982 
G01 X-10.2662 Y37.5550 
G01 X-10.4347 Y37.4424 
G01 X-10.6219 Y37.3648 
G01 X-10.8207 Y37.3253 
G01 X-11.0233 Y37.3253 
G01 X-11.2221 Y37.3648 
G01 X-11.4093 Y37.4424 
G01 X-11.5778 Y37.5550 
G01 X-11.7210 Y37.6982 
G01 X-11.8336 Y37.8667 
G01 X-11.8491 Y37.9041 
G01 X-11.8491 Y34.4989 
G01 X-11.8725 Y34.4116 
G01 X-11.9176 Y34.3335 
G01 X-11.9815 Y34.2696 
G01 X-16.9291 Y29.3220 
G01 X-16.9291 Y23.2560 
G01 X-15.8600 Y22.1869 
G01 X-12.1469 Y22.1869 
G01 X-12.0596 Y22.1635 
G01 X-11.9815 Y22.1184 
G01 X-11.9176 Y22.0545 
G01 X-11.3664 Y21.5034 
G01 X-11.2221 Y21.5632 
G01 X-11.0233 Y21.6027 
G01 X-10.8207 Y21.6027 
G01 X-10.6219 Y21.5632 
G01 X-10.4347 Y21.4856 
G01 X-10.2662 Y21.3730 
G01 X-10.1230 Y21.2298 
G01 X-10.0104 Y21.0613 
G01 X-9.9328 Y20.8741 
G01 X-9.8933 Y20.6753 
G01 X-9.8933 Y20.4727 
G01 X-9.9328 Y20.2739 
G01 X-10.0104 Y20.0867 
G01 X-10.1230 Y19.9182 
G01 X-10.2662 Y19.7750 
G01 X-10.4347 Y19.6624 
G01 X-10.6219 Y19.5848 
G01 X-10.8207 Y19.5453 
G01 X-11.0233 Y19.5453 
G01 X-11.2221 Y19.5848 
G01 X-11.4093 Y19.6624 
G01 X-11.5778 Y19.7750 
G01 X-11.7210 Y19.9182 
G01 X-11.8336 Y20.0867 
G01 X-11.9112 Y20.2739 
G01 X-11.9507 Y20.4727 
G01 X-11.9507 Y20.6753 
G01 X-11.9112 Y20.8741 
G01 X-11.8514 Y21.0184 
G01 X-12.3340 Y21.5011 
G01 X-16.0471 Y21.5011 
G01 X-16.1344 Y21.5245 
G01 X-16.2125 Y21.5696 
G01 X-17.4825 Y22.8396 
G01 X-17.5464 Y22.9035 
G01 X-17.5915 Y22.9816 
G01 X-17.6149 Y23.0689 
G01 X-17.6149 Y24.1111 
G01 X-21.3600 Y24.1111 
G01 X-22.5276 Y22.9435 
G01 X-22.5915 Y22.8796 
G01 X-22.6696 Y22.8345 
G01 X-22.7569 Y22.8111 
G01 X-35.2718 Y22.8111 
G01 X-35.3006 Y22.7945 
G01 X-35.3879 Y22.7711 
G01 X-35.6830 Y22.7711 
G01 X-35.7056 Y22.7166 
G01 X-35.7974 Y22.5792 
G01 X-35.9142 Y22.4624 
G01 X-36.0516 Y22.3706 
G01 X-36.2043 Y22.3073 
G01 X-36.3664 Y22.2751 
G01 X-36.5316 Y22.2751 
G01 X-36.6937 Y22.3073 
G01 X-36.8464 Y22.3706 
G01 X-36.9838 Y22.4624 
G01 X-37.1006 Y22.5792 
G01 X-37.1924 Y22.7166 
G01 X-37.2557 Y22.8693 
G01 X-37.2879 Y23.0314 
G01 X-37.2879 Y23.1966 
G01 X-37.2557 Y23.3587 
G01 X-37.1924 Y23.5114 
G01 X-37.1006 Y23.6488 
G01 X-36.9838 Y23.7656 
G01 X-36.8464 Y23.8574 
G01 X-36.6937 Y23.9207 
G01 X-36.5316 Y23.9529 
G01 X-36.3664 Y23.9529 
G01 X-36.2043 Y23.9207 
G01 X-36.0516 Y23.8574 
G01 X-35.9142 Y23.7656 
G01 X-35.7974 Y23.6488 
G01 X-35.7056 Y23.5114 
G01 X-35.6830 Y23.4569 
G01 X-35.5542 Y23.4569 
G01 X-35.5254 Y23.4735 
G01 X-35.4381 Y23.4969 
G01 X-22.9440 Y23.4969 
G01 X-21.7125 Y24.7284 
G01 X-21.6344 Y24.7735 
G01 X-21.5471 Y24.7969 
G01 X-17.6149 Y24.7969 
G01 X-17.6149 Y29.5091 
G01 X-17.5915 Y29.5964 
G01 X-17.5464 Y29.6745 
G01 X-12.5349 Y34.6860 
G01 X-12.5349 Y38.0111 
G01 X-14.7771 Y38.0111 
G01 X-14.8644 Y38.0345 
G01 X-14.9425 Y38.0796 
G01 X-17.4825 Y40.6196 
G01 X-17.5464 Y40.6835 
G01 X-17.5915 Y40.7616 
G01 X-17.6149 Y40.8489 
G01 X-17.6149 Y48.5591 
G01 X-17.5915 Y48.6464 
G01 X-17.5464 Y48.7245 
G01 X-15.0749 Y51.1960 
G01 X-15.0749 Y54.9091 
G01 X-15.0515 Y54.9964 
G01 X-15.0199 Y55.0511 
G01 X-15.0199 Y58.4869 
G01 X-15.0515 Y58.5416 
G01 X-15.0749 Y58.6289 
G01 X-15.0749 Y62.5291 
G01 X-15.0515 Y62.6164 
G01 X-15.0064 Y62.6945 
G01 X-12.5349 Y65.1660 
G01 X-12.5349 Y70.1076 
G01 X-12.6793 Y70.1674 
G01 X-12.8478 Y70.2800 
G01 X-12.9910 Y70.4232 
G01 X-13.1036 Y70.5917 
G01 X-13.1812 Y70.7789 
G01 X-13.2207 Y70.9777 
G00 Z2.5400 
G00 X-32.3007 Y63.6827 
G01 Z-0.1000 F254.00 
G01 X-32.3007 Y63.8853 F200.00 
G01 X-32.2612 Y64.0841 
G01 X-32.1836 Y64.2713 
G01 X-32.0710 Y64.4398 
G01 X-31.9278 Y64.5830 
G01 X-31.7593 Y64.6956 
G01 X-31.5721 Y64.7732 
G01 X-31.3733 Y64.8127 
G01 X-31.1707 Y64.8127 
G01 X-30.9719 Y64.7732 
G01 X-30.7847 Y64.6956 
G01 X-30.6162 Y64.5830 
G01 X-30.4730 Y64.4398 
G01 X-30.3604 Y64.2713 
G01 X-30.2828 Y64.0841 
G01 X-30.2433 Y63.8853 
G01 X-30.2433 Y63.6827 
G01 X-30.2828 Y63.4839 
G01 X-30.3604 Y63.2967 
G01 X-30.4730 Y63.1282 
G01 X-30.6162 Y62.9850 
G01 X-30.7847 Y62.8724 
G01 X-30.9291 Y62.8126 
G01 X-30.9291 Y61.2754 
G01 X-30.8871 Y61.2580 
G01 X-30.7643 Y61.1760 
G01 X-30.6600 Y61.0717 
G01 X-30.5780 Y60.9489 
G01 X-30.5215 Y60.8126 
G01 X-30.4927 Y60.6678 
G01 X-30.4927 Y60.5202 
G01 X-30.5215 Y60.3754 
G01 X-30.5780 Y60.2391 
G01 X-30.6600 Y60.1163 
G01 X-30.7643 Y60.0120 
G01 X-30.8871 Y59.9300 
G01 X-31.0234 Y59.8735 
G01 X-31.1682 Y59.8447 
G01 X-31.3158 Y59.8447 
G01 X-31.4606 Y59.8735 
G01 X-31.5969 Y59.9300 
G01 X-31.7197 Y60.0120 
G01 X-31.8240 Y60.1163 
G01 X-31.9060 Y60.2391 
G01 X-31.9625 Y60.3754 
G01 X-31.9913 Y60.5202 
G01 X-31.9913 Y60.6678 
G01 X-31.9625 Y60.8126 
G01 X-31.9060 Y60.9489 
G01 X-31.8240 Y61.0717 
G01 X-31.7197 Y61.1760 
G01 X-31.6149 Y61.2460 
G01 X-31.6149 Y62.8126 
G01 X-31.7593 Y62.8724 
G01 X-31.9278 Y62.9850 
G01 X-32.0710 Y63.1282 
G01 X-32.1836 Y63.2967 
G01 X-32.2612 Y63.4839 
G01 X-32.3007 Y63.6827 
G00 Z2.5400 
G00 X-43.1107 Y66.1927 
G01 Z-0.1000 F254.00 
G01 X-43.1107 Y66.3953 F200.00 
G01 X-43.0712 Y66.5941 
G01 X-42.9936 Y66.7813 
G01 X-42.8810 Y66.9498 
G01 X-42.7378 Y67.0930 
G01 X-42.5693 Y67.2056 
G01 X-42.3821 Y67.2832 
G01 X-42.1833 Y67.3227 
G01 X-41.9807 Y67.3227 
G01 X-41.7819 Y67.2832 
G01 X-41.5947 Y67.2056 
G01 X-41.4262 Y67.0930 
G01 X-41.2830 Y66.9498 
G01 X-41.1704 Y66.7813 
G01 X-41.0928 Y66.5941 
G01 X-41.0533 Y66.3953 
G01 X-41.0533 Y66.1927 
G01 X-41.0928 Y65.9939 
G01 X-41.1704 Y65.8067 
G01 X-41.2830 Y65.6382 
G01 X-41.4262 Y65.4950 
G01 X-41.5947 Y65.3824 
G01 X-41.7819 Y65.3048 
G01 X-41.9807 Y65.2653 
G01 X-42.1833 Y65.2653 
G01 X-42.3821 Y65.3048 
G01 X-42.5264 Y65.3646 
G01 X-43.0391 Y64.8520 
G01 X-43.0391 Y57.6839 
G01 X-43.0625 Y57.5966 
G01 X-43.1076 Y57.5185 
G01 X-48.5126 Y52.1135 
G01 X-48.5765 Y52.0496 
G01 X-48.6546 Y52.0045 
G01 X-48.7419 Y51.9811 
G01 X-48.9759 Y51.9811 
G01 X-48.9796 Y51.9721 
G01 X-49.0610 Y51.8504 
G01 X-49.1644 Y51.7470 
G01 X-49.2861 Y51.6656 
G01 X-49.4213 Y51.6097 
G01 X-49.5648 Y51.5811 
G01 X-51.0192 Y51.5811 
G01 X-51.1627 Y51.6097 
G01 X-51.2979 Y51.6656 
G01 X-51.4196 Y51.7470 
G01 X-51.5230 Y51.8504 
G01 X-51.6043 Y51.9721 
G01 X-51.6603 Y52.1073 
G01 X-51.6889 Y52.2508 
G01 X-51.6889 Y52.3972 
G01 X-51.6603 Y52.5407 
G01 X-51.6043 Y52.6759 
G01 X-51.5230 Y52.7976 
G01 X-51.4196 Y52.9010 
G01 X-51.2979 Y52.9823 
G01 X-51.1627 Y53.0383 
G01 X-51.0192 Y53.0669 
G01 X-49.5648 Y53.0669 
G01 X-49.4213 Y53.0383 
G01 X-49.2861 Y52.9823 
G01 X-49.1644 Y52.9010 
G01 X-49.0610 Y52.7976 
G01 X-48.9796 Y52.6759 
G01 X-48.9759 Y52.6669 
G01 X-48.9290 Y52.6669 
G01 X-43.7249 Y57.8710 
G01 X-43.7249 Y65.0391 
G01 X-43.7015 Y65.1264 
G01 X-43.6564 Y65.2045 
G01 X-43.5925 Y65.2684 
G01 X-43.0114 Y65.8496 
G01 X-43.0712 Y65.9939 
G01 X-43.1107 Y66.1927 
G00 Z2.5400 
G00 X-74.1807 Y58.5727 
G01 Z-0.1000 F254.00 
G01 X-74.1807 Y58.7753 F200.00 
G01 X-74.1412 Y58.9741 
G01 X-74.0636 Y59.1613 
G01 X-73.9510 Y59.3298 
G01 X-73.8078 Y59.4730 
G01 X-73.6393 Y59.5856 
G01 X-73.4521 Y59.6632 
G01 X-73.2533 Y59.7027 
G01 X-73.0507 Y59.7027 
G01 X-72.8519 Y59.6632 
G01 X-72.7076 Y59.6034 
G01 X-72.2249 Y60.0860 
G01 X-72.2249 Y61.1546 
G01 X-72.2369 Y61.1596 
G01 X-72.3597 Y61.2416 
G01 X-72.4640 Y61.3459 
G01 X-72.5460 Y61.4687 
G01 X-72.6025 Y61.6050 
G01 X-72.6313 Y61.7498 
G01 X-72.6313 Y63.2182 
G01 X-72.6025 Y63.3630 
G01 X-72.5460 Y63.4993 
G01 X-72.4640 Y63.6221 
G01 X-72.3597 Y63.7264 
G01 X-72.2369 Y63.8084 
G01 X-72.1006 Y63.8649 
G01 X-71.9558 Y63.8937 
G01 X-71.8082 Y63.8937 
G01 X-71.6634 Y63.8649 
G01 X-71.5271 Y63.8084 
G01 X-71.4043 Y63.7264 
G01 X-71.3000 Y63.6221 
G01 X-71.2180 Y63.4993 
G01 X-71.1615 Y63.3630 
G01 X-71.1327 Y63.2182 
G01 X-71.1327 Y61.7498 
G01 X-71.1615 Y61.6050 
G01 X-71.2180 Y61.4687 
G01 X-71.3000 Y61.3459 
G01 X-71.4043 Y61.2416 
G01 X-71.5271 Y61.1596 
G01 X-71.5391 Y61.1546 
G01 X-71.5391 Y59.8989 
G01 X-71.5625 Y59.8116 
G01 X-71.6076 Y59.7335 
G01 X-71.6715 Y59.6696 
G01 X-72.2226 Y59.1184 
G01 X-72.1628 Y58.9741 
G01 X-72.1233 Y58.7753 
G01 X-72.1233 Y58.5727 
G01 X-72.1628 Y58.3739 
G01 X-72.2404 Y58.1867 
G01 X-72.3530 Y58.0182 
G01 X-72.4962 Y57.8750 
G01 X-72.6647 Y57.7624 
G01 X-72.8519 Y57.6848 
G01 X-73.0507 Y57.6453 
G01 X-73.2533 Y57.6453 
G01 X-73.4521 Y57.6848 
G01 X-73.6393 Y57.7624 
G01 X-73.8078 Y57.8750 
G01 X-73.9510 Y58.0182 
G01 X-74.0636 Y58.1867 
G01 X-74.1412 Y58.3739 
G01 X-74.1807 Y58.5727 
G00 Z2.5400 
G00 X-84.3407 Y58.5727 
G01 Z-0.1000 F254.00 
G01 X-84.3407 Y58.7753 F200.00 
G01 X-84.3012 Y58.9741 
G01 X-84.2236 Y59.1613 
G01 X-84.1110 Y59.3298 
G01 X-83.9678 Y59.4730 
G01 X-83.7993 Y59.5856 
G01 X-83.6121 Y59.6632 
G01 X-83.4133 Y59.7027 
G01 X-83.2107 Y59.7027 
G01 X-83.0119 Y59.6632 
G01 X-82.8247 Y59.5856 
G01 X-82.6562 Y59.4730 
G01 X-82.5130 Y59.3298 
G01 X-82.4004 Y59.1613 
G01 X-82.3406 Y59.0169 
G01 X-81.7434 Y59.0169 
G01 X-81.6836 Y59.1613 
G01 X-81.5710 Y59.3298 
G01 X-81.4278 Y59.4730 
G01 X-81.2593 Y59.5856 
G01 X-81.0721 Y59.6632 
G01 X-80.8733 Y59.7027 
G01 X-80.6707 Y59.7027 
G01 X-80.4719 Y59.6632 
G01 X-80.3276 Y59.6034 
G01 X-77.7113 Y62.2196 
G01 X-77.7113 Y63.2182 
G01 X-77.6825 Y63.3630 
G01 X-77.6260 Y63.4993 
G01 X-77.5440 Y63.6221 
G01 X-77.4397 Y63.7264 
G01 X-77.3169 Y63.8084 
G01 X-77.1806 Y63.8649 
G01 X-77.0358 Y63.8937 
G01 X-76.8882 Y63.8937 
G01 X-76.7434 Y63.8649 
G01 X-76.6071 Y63.8084 
G01 X-76.4843 Y63.7264 
G01 X-76.3800 Y63.6221 
G01 X-76.2980 Y63.4993 
G01 X-76.2415 Y63.3630 
G01 X-76.2127 Y63.2182 
G01 X-76.2127 Y61.7498 
G01 X-76.2415 Y61.6050 
G01 X-76.2980 Y61.4687 
G01 X-76.3800 Y61.3459 
G01 X-76.4843 Y61.2416 
G01 X-76.6071 Y61.1596 
G01 X-76.7434 Y61.1031 
G01 X-76.8882 Y61.0743 
G01 X-77.0358 Y61.0743 
G01 X-77.1806 Y61.1031 
G01 X-77.3169 Y61.1596 
G01 X-77.4397 Y61.2416 
G01 X-77.5440 Y61.3459 
G01 X-77.5725 Y61.3886 
G01 X-79.8426 Y59.1184 
G01 X-79.7828 Y58.9741 
G01 X-79.7433 Y58.7753 
G01 X-79.7433 Y58.5727 
G01 X-79.7828 Y58.3739 
G01 X-79.8604 Y58.1867 
G01 X-79.9730 Y58.0182 
G01 X-80.1162 Y57.8750 
G01 X-80.2847 Y57.7624 
G01 X-80.4719 Y57.6848 
G01 X-80.6707 Y57.6453 
G01 X-80.8733 Y57.6453 
G01 X-81.0721 Y57.6848 
G01 X-81.2593 Y57.7624 
G01 X-81.4278 Y57.8750 
G01 X-81.5710 Y58.0182 
G01 X-81.6836 Y58.1867 
G01 X-81.7434 Y58.3311 
G01 X-82.3406 Y58.3311 
G01 X-82.4004 Y58.1867 
G01 X-82.5130 Y58.0182 
G01 X-82.6562 Y57.8750 
G01 X-82.8247 Y57.7624 
G01 X-83.0119 Y57.6848 
G01 X-83.2107 Y57.6453 
G01 X-83.4133 Y57.6453 
G01 X-83.6121 Y57.6848 
G01 X-83.7993 Y57.7624 
G01 X-83.9678 Y57.8750 
G01 X-84.1110 Y58.0182 
G01 X-84.2236 Y58.1867 
G01 X-84.3012 Y58.3739 
G01 X-84.3407 Y58.5727 
G00 Z2.5400 
G00 X-76.6036 Y59.1613 
G01 Z-0.1000 F254.00 
G01 X-76.4910 Y59.3298 F200.00 
G01 X-76.3478 Y59.4730 
G01 X-76.1793 Y59.5856 
G01 X-75.9921 Y59.6632 
G01 X-75.7933 Y59.7027 
G01 X-75.5907 Y59.7027 
G01 X-75.3919 Y59.6632 
G01 X-75.2047 Y59.5856 
G01 X-75.0362 Y59.4730 
G01 X-74.8930 Y59.3298 
G01 X-74.7804 Y59.1613 
G01 X-74.7028 Y58.9741 
G01 X-74.6633 Y58.7753 
G01 X-74.6633 Y58.5727 
G01 X-74.7028 Y58.3739 
G01 X-74.7804 Y58.1867 
G01 X-74.8930 Y58.0182 
G01 X-75.0362 Y57.8750 
G01 X-75.2047 Y57.7624 
G01 X-75.3919 Y57.6848 
G01 X-75.5907 Y57.6453 
G01 X-75.7933 Y57.6453 
G01 X-75.9921 Y57.6848 
G01 X-76.1793 Y57.7624 
G01 X-76.3478 Y57.8750 
G01 X-76.4910 Y58.0182 
G01 X-76.6036 Y58.1867 
G01 X-76.6634 Y58.3311 
G01 X-77.2606 Y58.3311 
G01 X-77.3204 Y58.1867 
G01 X-77.4330 Y58.0182 
G01 X-77.5762 Y57.8750 
G01 X-77.7447 Y57.7624 
G01 X-77.9319 Y57.6848 
G01 X-78.1307 Y57.6453 
G01 X-78.3333 Y57.6453 
G01 X-78.5321 Y57.6848 
G01 X-78.7193 Y57.7624 
G01 X-78.8878 Y57.8750 
G01 X-79.0310 Y58.0182 
G01 X-79.1436 Y58.1867 
G01 X-79.2212 Y58.3739 
G01 X-79.2607 Y58.5727 
G01 X-79.2607 Y58.7753 
G01 X-79.2212 Y58.9741 
G01 X-79.1436 Y59.1613 
G01 X-79.0310 Y59.3298 
G01 X-78.8878 Y59.4730 
G01 X-78.7193 Y59.5856 
G01 X-78.5321 Y59.6632 
G01 X-78.3333 Y59.7027 
G01 X-78.1307 Y59.7027 
G01 X-77.9319 Y59.6632 
G01 X-77.7876 Y59.6034 
G01 X-75.1713 Y62.2196 
G01 X-75.1713 Y63.2182 
G01 X-75.1425 Y63.3630 
G01 X-75.0860 Y63.4993 
G01 X-75.0040 Y63.6221 
G01 X-74.8997 Y63.7264 
G01 X-74.7769 Y63.8084 
G01 X-74.6406 Y63.8649 
G01 X-74.4958 Y63.8937 
G01 X-74.3482 Y63.8937 
G01 X-74.2034 Y63.8649 
G01 X-74.0671 Y63.8084 
G01 X-73.9443 Y63.7264 
G01 X-73.8400 Y63.6221 
G01 X-73.7580 Y63.4993 
G01 X-73.7015 Y63.3630 
G01 X-73.6727 Y63.2182 
G01 X-73.6727 Y61.7498 
G01 X-73.7015 Y61.6050 
G01 X-73.7580 Y61.4687 
G01 X-73.8400 Y61.3459 
G01 X-73.9443 Y61.2416 
G01 X-74.0671 Y61.1596 
G01 X-74.2034 Y61.1031 
G01 X-74.3482 Y61.0743 
G01 X-74.4958 Y61.0743 
G01 X-74.6406 Y61.1031 
G01 X-74.7769 Y61.1596 
G01 X-74.8997 Y61.2416 
G01 X-75.0040 Y61.3459 
G01 X-75.0325 Y61.3886 
G01 X-77.3026 Y59.1184 
G01 X-77.2606 Y59.0169 
G01 X-76.6634 Y59.0169 
G01 X-76.6036 Y59.1613 
G00 Z2.5400 
G00 X-77.0157 Y23.8077 
G01 Z-0.1000 F254.00 
G01 X-77.0157 Y24.0103 F200.00 
G01 X-76.9762 Y24.2091 
G01 X-76.8986 Y24.3963 
G01 X-76.7860 Y24.5648 
G01 X-76.6428 Y24.7080 
G01 X-76.4743 Y24.8206 
G01 X-76.3299 Y24.8804 
G01 X-76.3299 Y38.4770 
G01 X-76.5476 Y38.6946 
G01 X-76.6919 Y38.6348 
G01 X-76.8907 Y38.5953 
G01 X-77.0933 Y38.5953 
G01 X-77.2921 Y38.6348 
G01 X-77.4793 Y38.7124 
G01 X-77.6478 Y38.8250 
G01 X-77.7910 Y38.9682 
G01 X-77.9036 Y39.1367 
G01 X-77.9812 Y39.3239 
G01 X-78.0207 Y39.5227 
G01 X-78.0207 Y39.7253 
G01 X-77.9812 Y39.9241 
G01 X-77.9036 Y40.1113 
G01 X-77.7910 Y40.2798 
G01 X-77.6478 Y40.4230 
G01 X-77.4793 Y40.5356 
G01 X-77.2921 Y40.6132 
G01 X-77.0933 Y40.6527 
G01 X-76.8907 Y40.6527 
G01 X-76.6919 Y40.6132 
G01 X-76.5047 Y40.5356 
G01 X-76.3362 Y40.4230 
G01 X-76.1930 Y40.2798 
G01 X-76.0804 Y40.1113 
G01 X-76.0028 Y39.9241 
G01 X-75.9633 Y39.7253 
G01 X-75.9633 Y39.5227 
G01 X-76.0028 Y39.3239 
G01 X-76.0626 Y39.1796 
G01 X-75.7765 Y38.8934 
G01 X-75.7126 Y38.8295 
G01 X-75.6675 Y38.7514 
G01 X-75.6441 Y38.6641 
G01 X-75.6441 Y29.8069 
G01 X-66.8481 Y29.8069 
G01 X-66.8443 Y29.8159 
G01 X-66.7630 Y29.9376 
G01 X-66.6596 Y30.0410 
G01 X-66.5379 Y30.1223 
G01 X-66.4027 Y30.1783 
G01 X-66.2592 Y30.2069 
G01 X-64.8048 Y30.2069 
G01 X-64.6613 Y30.1783 
G01 X-64.5261 Y30.1223 
G01 X-64.4044 Y30.0410 
G01 X-64.3010 Y29.9376 
G01 X-64.2197 Y29.8159 
G01 X-64.1637 Y29.6807 
G01 X-64.1351 Y29.5372 
G01 X-64.1351 Y29.3908 
G01 X-64.1637 Y29.2473 
G01 X-64.2197 Y29.1121 
G01 X-64.3010 Y28.9904 
G01 X-64.4044 Y28.8870 
G01 X-64.5261 Y28.8056 
G01 X-64.6613 Y28.7497 
G01 X-64.8048 Y28.7211 
G01 X-66.2592 Y28.7211 
G01 X-66.4027 Y28.7497 
G01 X-66.5379 Y28.8056 
G01 X-66.6596 Y28.8870 
G01 X-66.7630 Y28.9904 
G01 X-66.8443 Y29.1121 
G01 X-66.8481 Y29.1211 
G01 X-75.6441 Y29.1211 
G01 X-75.6441 Y24.8804 
G01 X-75.4997 Y24.8206 
G01 X-75.3312 Y24.7080 
G01 X-75.1880 Y24.5648 
G01 X-75.0754 Y24.3963 
G01 X-74.9978 Y24.2091 
G01 X-74.9583 Y24.0103 
G01 X-74.9583 Y23.8077 
G01 X-74.9978 Y23.6089 
G01 X-75.0754 Y23.4217 
G01 X-75.1880 Y23.2532 
G01 X-75.3312 Y23.1100 
G01 X-75.4997 Y22.9974 
G01 X-75.6869 Y22.9198 
G01 X-75.8857 Y22.8803 
G01 X-76.0883 Y22.8803 
G01 X-76.2871 Y22.9198 
G01 X-76.4743 Y22.9974 
G01 X-76.6428 Y23.1100 
G01 X-76.7860 Y23.2532 
G01 X-76.8986 Y23.4217 
G01 X-76.9762 Y23.6089 
G01 X-77.0157 Y23.8077 
G00 Z2.5400 
G00 X-14.4907 Y42.0627 
G01 Z-0.1000 F254.00 
G01 X-14.4907 Y42.2653 F200.00 
G01 X-14.4512 Y42.4641 
G01 X-14.3736 Y42.6513 
G01 X-14.2610 Y42.8198 
G01 X-14.1178 Y42.9630 
G01 X-13.9493 Y43.0756 
G01 X-13.7621 Y43.1532 
G01 X-13.5633 Y43.1927 
G01 X-13.3607 Y43.1927 
G01 X-13.1619 Y43.1532 
G01 X-12.9747 Y43.0756 
G01 X-12.8062 Y42.9630 
G01 X-12.6630 Y42.8198 
G01 X-12.5504 Y42.6513 
G01 X-12.4906 Y42.5069 
G01 X-11.2649 Y42.5069 
G01 X-11.2649 Y43.9411 
G01 X-11.4937 Y43.9411 
G01 X-11.5264 Y43.9546 
G01 X-11.5514 Y43.9796 
G01 X-11.5649 Y44.0123 
G01 X-11.5649 Y45.1557 
G01 X-11.5514 Y45.1884 
G01 X-11.5264 Y45.2134 
G01 X-11.4937 Y45.2269 
G01 X-10.3503 Y45.2269 
G01 X-10.3176 Y45.2134 
G01 X-10.2926 Y45.1884 
G01 X-10.2791 Y45.1557 
G01 X-10.2791 Y44.0123 
G01 X-10.2926 Y43.9796 
G01 X-10.3176 Y43.9546 
G01 X-10.3503 Y43.9411 
G01 X-10.5791 Y43.9411 
G01 X-10.5791 Y42.1189 
G01 X-10.6025 Y42.0316 
G01 X-10.6476 Y41.9535 
G01 X-10.7115 Y41.8896 
G01 X-10.7896 Y41.8445 
G01 X-10.8769 Y41.8211 
G01 X-12.4906 Y41.8211 
G01 X-12.5504 Y41.6767 
G01 X-12.6630 Y41.5082 
G01 X-12.8062 Y41.3650 
G01 X-12.9747 Y41.2524 
G01 X-13.1619 Y41.1748 
G01 X-13.3607 Y41.1353 
G01 X-13.5633 Y41.1353 
G01 X-13.7621 Y41.1748 
G01 X-13.9493 Y41.2524 
G01 X-14.1178 Y41.3650 
G01 X-14.2610 Y41.5082 
G01 X-14.3736 Y41.6767 
G01 X-14.4512 Y41.8639 
G01 X-14.4907 Y42.0627 
G00 Z2.5400 
G00 X-14.4907 Y25.5527 
G01 Z-0.1000 F254.00 
G01 X-14.4907 Y25.7553 F200.00 
G01 X-14.4512 Y25.9541 
G01 X-14.3736 Y26.1413 
G01 X-14.2610 Y26.3098 
G01 X-14.1178 Y26.4530 
G01 X-13.9493 Y26.5656 
G01 X-13.7621 Y26.6432 
G01 X-13.5633 Y26.6827 
G01 X-13.3607 Y26.6827 
G01 X-13.1619 Y26.6432 
G01 X-12.9747 Y26.5656 
G01 X-12.8062 Y26.4530 
G01 X-12.6630 Y26.3098 
G01 X-12.5504 Y26.1413 
G01 X-12.4906 Y25.9969 
G01 X-12.3340 Y25.9969 
G01 X-11.2649 Y27.0660 
G01 X-11.2649 Y27.4311 
G01 X-11.4937 Y27.4311 
G01 X-11.5264 Y27.4446 
G01 X-11.5514 Y27.4696 
G01 X-11.5649 Y27.5023 
G01 X-11.5649 Y28.6457 
G01 X-11.5514 Y28.6784 
G01 X-11.5264 Y28.7034 
G01 X-11.4937 Y28.7169 
G01 X-10.3503 Y28.7169 
G01 X-10.3176 Y28.7034 
G01 X-10.2926 Y28.6784 
G01 X-10.2791 Y28.6457 
G01 X-10.2791 Y27.5023 
G01 X-10.2926 Y27.4696 
G01 X-10.3176 Y27.4446 
G01 X-10.3503 Y27.4311 
G01 X-10.5791 Y27.4311 
G01 X-10.5791 Y26.8789 
G01 X-10.6025 Y26.7916 
G01 X-10.6476 Y26.7135 
G01 X-10.7115 Y26.6496 
G01 X-11.9815 Y25.3796 
G01 X-12.0596 Y25.3345 
G01 X-12.1469 Y25.3111 
G01 X-12.4906 Y25.3111 
G01 X-12.5504 Y25.1667 
G01 X-12.6630 Y24.9982 
G01 X-12.8062 Y24.8550 
G01 X-12.9747 Y24.7424 
G01 X-13.1619 Y24.6648 
G01 X-13.3607 Y24.6253 
G01 X-13.5633 Y24.6253 
G01 X-13.7621 Y24.6648 
G01 X-13.9493 Y24.7424 
G01 X-14.1178 Y24.8550 
G01 X-14.2610 Y24.9982 
G01 X-14.3736 Y25.1667 
G01 X-14.4512 Y25.3539 
G01 X-14.4907 Y25.5527 
G00 Z2.5400 
G00 X-31.0007 Y20.4727 
G01 Z-0.1000 F254.00 
G01 X-31.0007 Y20.6753 F200.00 
G01 X-30.9612 Y20.8741 
G01 X-30.8836 Y21.0613 
G01 X-30.7710 Y21.2298 
G01 X-30.6278 Y21.3730 
G01 X-30.4593 Y21.4856 
G01 X-30.2721 Y21.5632 
G01 X-30.0733 Y21.6027 
G01 X-29.8707 Y21.6027 
G01 X-29.6719 Y21.5632 
G01 X-29.4847 Y21.4856 
G01 X-29.3162 Y21.3730 
G01 X-29.1730 Y21.2298 
G01 X-29.0604 Y21.0613 
G01 X-29.0006 Y20.9169 
G01 X-28.6569 Y20.9169 
G01 X-28.5696 Y20.8935 
G01 X-28.4915 Y20.8484 
G01 X-28.0425 Y20.3994 
G01 X-28.0140 Y20.4421 
G01 X-27.9097 Y20.5464 
G01 X-27.7869 Y20.6284 
G01 X-27.6506 Y20.6849 
G01 X-27.5058 Y20.7137 
G01 X-27.3582 Y20.7137 
G01 X-27.2134 Y20.6849 
G01 X-27.0771 Y20.6284 
G01 X-26.9543 Y20.5464 
G01 X-26.8500 Y20.4421 
G01 X-26.7680 Y20.3193 
G01 X-26.7115 Y20.1830 
G01 X-26.6827 Y20.0382 
G01 X-26.6827 Y19.0396 
G01 X-25.9000 Y18.2569 
G01 X-19.1849 Y18.2569 
G01 X-19.1849 Y18.4857 
G01 X-19.1714 Y18.5184 
G01 X-19.1464 Y18.5434 
G01 X-19.1137 Y18.5569 
G01 X-18.8849 Y18.5569 
G01 X-18.8849 Y19.6026 
G01 X-19.0293 Y19.6624 
G01 X-19.1978 Y19.7750 
G01 X-19.3410 Y19.9182 
G01 X-19.4536 Y20.0867 
G01 X-19.5312 Y20.2739 
G01 X-19.5707 Y20.4727 
G01 X-19.5707 Y20.6753 
G01 X-19.5312 Y20.8741 
G01 X-19.4536 Y21.0613 
G01 X-19.3410 Y21.2298 
G01 X-19.1978 Y21.3730 
G01 X-19.0293 Y21.4856 
G01 X-18.8421 Y21.5632 
G01 X-18.6433 Y21.6027 
G01 X-18.4407 Y21.6027 
G01 X-18.2419 Y21.5632 
G01 X-18.0547 Y21.4856 
G01 X-17.8862 Y21.3730 
G01 X-17.7430 Y21.2298 
G01 X-17.6304 Y21.0613 
G01 X-17.5528 Y20.8741 
G01 X-17.5133 Y20.6753 
G01 X-17.5133 Y20.4727 
G01 X-17.5528 Y20.2739 
G01 X-17.6304 Y20.0867 
G01 X-17.7430 Y19.9182 
G01 X-17.8862 Y19.7750 
G01 X-18.0547 Y19.6624 
G01 X-18.1991 Y19.6026 
G01 X-18.1991 Y18.5569 
G01 X-17.9703 Y18.5569 
G01 X-17.9376 Y18.5434 
G01 X-17.9126 Y18.5184 
G01 X-17.8991 Y18.4857 
G01 X-17.8991 Y17.3423 
G01 X-17.9126 Y17.3096 
G01 X-17.9376 Y17.2846 
G01 X-17.9703 Y17.2711 
G01 X-19.1137 Y17.2711 
G01 X-19.1464 Y17.2846 
G01 X-19.1714 Y17.3096 
G01 X-19.1849 Y17.3423 
G01 X-19.1849 Y17.5711 
G01 X-21.0600 Y17.5711 
G01 X-22.7509 Y15.8802 
G01 X-22.7330 Y15.8622 
G01 X-22.7330 Y15.1258 
G01 X-23.2538 Y14.6050 
G01 X-23.9902 Y14.6050 
G01 X-24.5110 Y15.1258 
G01 X-24.5110 Y15.8622 
G01 X-23.9902 Y16.3830 
G01 X-23.2538 Y16.3830 
G01 X-23.2358 Y16.3651 
G01 X-22.0298 Y17.5711 
G01 X-26.0871 Y17.5711 
G01 X-26.1744 Y17.5945 
G01 X-26.2525 Y17.6396 
G01 X-26.3164 Y17.7035 
G01 X-26.8215 Y18.2086 
G01 X-26.8500 Y18.1659 
G01 X-26.9543 Y18.0616 
G01 X-27.0771 Y17.9796 
G01 X-27.2134 Y17.9231 
G01 X-27.3582 Y17.8943 
G01 X-27.5058 Y17.8943 
G01 X-27.6506 Y17.9231 
G01 X-27.7869 Y17.9796 
G01 X-27.9097 Y18.0616 
G01 X-28.0140 Y18.1659 
G01 X-28.0960 Y18.2887 
G01 X-28.1525 Y18.4250 
G01 X-28.1813 Y18.5698 
G01 X-28.1813 Y19.5684 
G01 X-28.8440 Y20.2311 
G01 X-29.0006 Y20.2311 
G01 X-29.0604 Y20.0867 
G01 X-29.1730 Y19.9182 
G01 X-29.3162 Y19.7750 
G01 X-29.4847 Y19.6624 
G01 X-29.6719 Y19.5848 
G01 X-29.8707 Y19.5453 
G01 X-30.0733 Y19.5453 
G01 X-30.2721 Y19.5848 
G01 X-30.4593 Y19.6624 
G01 X-30.6278 Y19.7750 
G01 X-30.7710 Y19.9182 
G01 X-30.8836 Y20.0867 
G01 X-30.9612 Y20.2739 
G01 X-31.0007 Y20.4727 
G00 Z2.5400 
G00 X-35.4907 Y14.0627 
G01 Z-0.1000 F254.00 
G01 X-35.4907 Y14.2653 F200.00 
G01 X-35.4512 Y14.4641 
G01 X-35.3736 Y14.6513 
G01 X-35.2610 Y14.8198 
G01 X-35.1178 Y14.9630 
G01 X-34.9493 Y15.0756 
G01 X-34.7621 Y15.1532 
G01 X-34.5633 Y15.1927 
G01 X-34.3607 Y15.1927 
G01 X-34.1619 Y15.1532 
G01 X-33.9747 Y15.0756 
G01 X-33.9161 Y15.0365 
G01 X-32.6363 Y16.3163 
G01 X-32.6256 Y16.4222 
G01 X-32.6743 Y16.4424 
G01 X-32.8428 Y16.5550 
G01 X-32.9860 Y16.6982 
G01 X-33.0986 Y16.8667 
G01 X-33.1762 Y17.0539 
G01 X-33.2157 Y17.2527 
G01 X-33.2157 Y17.4553 
G01 X-33.1762 Y17.6541 
G01 X-33.0986 Y17.8413 
G01 X-32.9860 Y18.0098 
G01 X-32.8428 Y18.1530 
G01 X-32.6743 Y18.2656 
G01 X-32.4871 Y18.3432 
G01 X-32.2883 Y18.3827 
G01 X-32.0857 Y18.3827 
G01 X-31.8869 Y18.3432 
G01 X-31.6997 Y18.2656 
G01 X-31.5312 Y18.1530 
G01 X-31.3880 Y18.0098 
G01 X-31.2754 Y17.8413 
G01 X-31.1978 Y17.6541 
G01 X-31.1583 Y17.4553 
G01 X-31.1583 Y17.2527 
G01 X-31.1978 Y17.0539 
G01 X-31.2754 Y16.8667 
G01 X-31.3880 Y16.6982 
G01 X-31.5312 Y16.5550 
G01 X-31.6997 Y16.4424 
G01 X-31.8869 Y16.3648 
G01 X-31.9433 Y16.3536 
G01 X-31.9645 Y16.1430 
G01 X-31.9645 Y16.1151 
G01 X-31.9690 Y16.0983 
G01 X-31.9708 Y16.0809 
G01 X-31.9807 Y16.0549 
G01 X-31.9879 Y16.0279 
G01 X-31.9966 Y16.0128 
G01 X-32.0028 Y15.9965 
G01 X-32.0191 Y15.9739 
G01 X-32.0330 Y15.9497 
G01 X-32.0453 Y15.9374 
G01 X-32.0555 Y15.9233 
G01 X-32.0771 Y15.9056 
G01 X-33.4863 Y14.4965 
G01 X-33.4728 Y14.4641 
G01 X-33.4333 Y14.2653 
G01 X-33.4333 Y14.0627 
G01 X-33.4728 Y13.8639 
G01 X-33.5504 Y13.6767 
G01 X-33.6630 Y13.5082 
G01 X-33.8062 Y13.3650 
G01 X-33.9747 Y13.2524 
G01 X-34.1282 Y13.1888 
G01 X-34.1618 Y9.6148 
G01 X-34.1618 Y9.5711 
G01 X-34.1623 Y9.5679 
G01 X-34.1739 Y9.5260 
G01 X-34.1852 Y9.4839 
G01 X-34.1865 Y9.4809 
G01 X-34.2087 Y9.4433 
G01 X-34.2303 Y9.4057 
G01 X-34.2323 Y9.4032 
G01 X-34.2635 Y9.3725 
G01 X-35.9427 Y7.6934 
G01 X-35.9427 Y7.1186 
G01 X-36.3816 Y6.6797 
G01 X-37.0024 Y6.6797 
G01 X-37.4413 Y7.1186 
G01 X-37.4413 Y7.7394 
G01 X-37.0024 Y8.1783 
G01 X-36.4276 Y8.1783 
G01 X-34.8463 Y9.7596 
G01 X-34.8140 Y13.1963 
G01 X-34.9493 Y13.2524 
G01 X-35.1178 Y13.3650 
G01 X-35.2610 Y13.5082 
G01 X-35.3736 Y13.6767 
G01 X-35.4512 Y13.8639 
G01 X-35.4907 Y14.0627 
G00 Z2.5400 
G00 X-38.3713 Y59.6336 
G01 Z-0.1000 F254.00 
G01 X-38.3713 Y60.2544 F200.00 
G01 X-37.9324 Y60.6933 
G01 X-37.3116 Y60.6933 
G01 X-36.8727 Y60.2544 
G01 X-36.8727 Y59.6796 
G01 X-35.5900 Y58.3969 
G01 X-31.9110 Y58.3969 
G01 X-31.9060 Y58.4089 
G01 X-31.8240 Y58.5317 
G01 X-31.7197 Y58.6360 
G01 X-31.5969 Y58.7180 
G01 X-31.4606 Y58.7745 
G01 X-31.3158 Y58.8033 
G01 X-31.1682 Y58.8033 
G01 X-31.0234 Y58.7745 
G01 X-30.8871 Y58.7180 
G01 X-30.7643 Y58.6360 
G01 X-30.6600 Y58.5317 
G01 X-30.5780 Y58.4089 
G01 X-30.5730 Y58.3969 
G01 X-28.1940 Y58.3969 
G01 X-28.1813 Y58.4096 
G01 X-28.1813 Y59.4082 
G01 X-28.1525 Y59.5530 
G01 X-28.0960 Y59.6893 
G01 X-28.0140 Y59.8121 
G01 X-27.9097 Y59.9164 
G01 X-27.7869 Y59.9984 
G01 X-27.6506 Y60.0549 
G01 X-27.5058 Y60.0837 
G01 X-27.3582 Y60.0837 
G01 X-27.2134 Y60.0549 
G01 X-27.0771 Y59.9984 
G01 X-26.9543 Y59.9164 
G01 X-26.8500 Y59.8121 
G01 X-26.8215 Y59.7694 
G01 X-26.4364 Y60.1545 
G01 X-26.3725 Y60.2184 
G01 X-26.2944 Y60.2635 
G01 X-26.2071 Y60.2869 
G01 X-21.9098 Y60.2869 
G01 X-23.2358 Y61.6129 
G01 X-23.2538 Y61.5950 
G01 X-23.9902 Y61.5950 
G01 X-24.5110 Y62.1158 
G01 X-24.5110 Y62.8522 
G01 X-23.9902 Y63.3730 
G01 X-23.2538 Y63.3730 
G01 X-22.7330 Y62.8522 
G01 X-22.7330 Y62.1158 
G01 X-22.7509 Y62.0978 
G01 X-20.8715 Y60.2184 
G01 X-20.8200 Y60.1669 
G01 X-19.1849 Y60.1669 
G01 X-19.1849 Y60.3957 
G01 X-19.1714 Y60.4284 
G01 X-19.1464 Y60.4534 
G01 X-19.1137 Y60.4669 
G01 X-17.9703 Y60.4669 
G01 X-17.9376 Y60.4534 
G01 X-17.9126 Y60.4284 
G01 X-17.8991 Y60.3957 
G01 X-17.8991 Y59.2523 
G01 X-17.9126 Y59.2196 
G01 X-17.9376 Y59.1946 
G01 X-17.9703 Y59.1811 
G01 X-19.1137 Y59.1811 
G01 X-19.1464 Y59.1946 
G01 X-19.1714 Y59.2196 
G01 X-19.1849 Y59.2523 
G01 X-19.1849 Y59.4811 
G01 X-21.0071 Y59.4811 
G01 X-21.0944 Y59.5045 
G01 X-21.1725 Y59.5496 
G01 X-21.2240 Y59.6011 
G01 X-26.0200 Y59.6011 
G01 X-26.6827 Y58.9384 
G01 X-26.6827 Y57.9398 
G01 X-26.7115 Y57.7950 
G01 X-26.7680 Y57.6587 
G01 X-26.8500 Y57.5359 
G01 X-26.9543 Y57.4316 
G01 X-27.0771 Y57.3496 
G01 X-27.2134 Y57.2931 
G01 X-27.3582 Y57.2643 
G01 X-27.5058 Y57.2643 
G01 X-27.6506 Y57.2931 
G01 X-27.7869 Y57.3496 
G01 X-27.9097 Y57.4316 
G01 X-28.0140 Y57.5359 
G01 X-28.0960 Y57.6587 
G01 X-28.1177 Y57.7111 
G01 X-30.5730 Y57.7111 
G01 X-30.5780 Y57.6991 
G01 X-30.6600 Y57.5763 
G01 X-30.7643 Y57.4720 
G01 X-30.8871 Y57.3900 
G01 X-31.0234 Y57.3335 
G01 X-31.1682 Y57.3047 
G01 X-31.3158 Y57.3047 
G01 X-31.4606 Y57.3335 
G01 X-31.5969 Y57.3900 
G01 X-31.7197 Y57.4720 
G01 X-31.8240 Y57.5763 
G01 X-31.9060 Y57.6991 
G01 X-31.9110 Y57.7111 
G01 X-35.7771 Y57.7111 
G01 X-35.8644 Y57.7345 
G01 X-35.9425 Y57.7796 
G01 X-37.3576 Y59.1947 
G01 X-37.9324 Y59.1947 
G01 X-38.3713 Y59.6336 
G00 Z2.5400 
G00 X-36.4663 Y60.9036 
G01 Z-0.1000 F254.00 
G01 X-36.4663 Y61.5244 F200.00 
G01 X-36.0599 Y61.9308 
G01 X-36.0599 Y65.0841 
G01 X-36.0365 Y65.1714 
G01 X-35.9914 Y65.2495 
G01 X-35.9275 Y65.3134 
G01 X-35.3914 Y65.8496 
G01 X-35.4512 Y65.9939 
