(.../romang/EAGLE/ulps/pcb-gcode.ulp)
(Copyright 2005 - 2012 by John Johnson)
(See readme.txt for licensing terms.)
(This file generated from the board:)
(.../hw/ev_simulator/ev_emulator.brd)
(Current profile is .../EAGLE/ulps/profiles/generic.pp  )
(This file generated 03.01.19 09:27)
(Settings from pcb-machine.h)
(  Tool Size)
(0.1778 )
(Z Axis Settings)
(  High     Up        Down     Drill)
(12.7000 	2.5400 	-0.1000 	-2.0000 )
(spindle on time = 3.0000)
(milling depth = -2.0000)
(text depth = -0.1270)
(tool change at 12.7000 15.2400 25.4000 )
(feed rate xy = F200.00 )
(feed rate z  = F254.00 )
(Settings from pcb-defaults.h)
(isolate min = 0.0000)
(isolate max = 0.2000)
(isolate step = 0.2000)
(Generated top outlines, top drill, bottom outlines, bottom drill, )
(Unit of measure: mm)
(Metric Mode)
G21
(Absolute Coordinates)
G90
G00 X0.0000 Y0.0000 
M03
G04 P3.000000
G00 Z2.5400 
G00 X10.5454 Y64.8264 
G01 Z-0.1000 F254.00 
G01 X10.4536 Y64.9638 F200.00 
G01 X10.3368 Y65.0806 
G01 X10.1994 Y65.1724 
G01 X10.0467 Y65.2357 
G01 X9.8846 Y65.2679 
G01 X9.7194 Y65.2679 
G01 X9.5573 Y65.2357 
G01 X9.4046 Y65.1724 
G01 X9.2672 Y65.0806 
G01 X9.1504 Y64.9638 
G01 X9.0586 Y64.8264 
G01 X8.9953 Y64.6737 
G01 X8.9631 Y64.5116 
G01 X8.9631 Y64.3464 
G01 X8.9953 Y64.1843 
G01 X9.0586 Y64.0316 
G01 X9.1504 Y63.8942 
G01 X9.2672 Y63.7774 
G01 X9.4046 Y63.6856 
G01 X9.5573 Y63.6223 
G01 X9.7194 Y63.5901 
G01 X9.8846 Y63.5901 
G01 X10.0467 Y63.6223 
G01 X10.1994 Y63.6856 
G01 X10.3368 Y63.7774 
G01 X10.4536 Y63.8942 
G01 X10.5454 Y64.0316 
G01 X10.5680 Y64.0861 
G01 X16.5110 Y64.0861 
G01 X16.5336 Y64.0316 
G01 X16.6254 Y63.8942 
G01 X16.7422 Y63.7774 
G01 X16.8796 Y63.6856 
G01 X17.0323 Y63.6223 
G01 X17.1944 Y63.5901 
G01 X17.3596 Y63.5901 
G01 X17.5217 Y63.6223 
G01 X17.6744 Y63.6856 
G01 X17.8118 Y63.7774 
G01 X17.9286 Y63.8942 
G01 X18.0204 Y64.0316 
G01 X18.0837 Y64.1843 
G01 X18.1159 Y64.3464 
G01 X18.1159 Y64.5116 
G01 X18.0837 Y64.6737 
G01 X18.0204 Y64.8264 
G01 X17.9286 Y64.9638 
G01 X17.8118 Y65.0806 
G01 X17.6744 Y65.1724 
G01 X17.5217 Y65.2357 
G01 X17.3596 Y65.2679 
G01 X17.1944 Y65.2679 
G01 X17.0323 Y65.2357 
G01 X16.8796 Y65.1724 
G01 X16.7422 Y65.0806 
G01 X16.6254 Y64.9638 
G01 X16.5336 Y64.8264 
G01 X16.5110 Y64.7719 
G01 X10.5680 Y64.7719 
G01 X10.5454 Y64.8264 
G00 Z2.5400 
G00 X90.3669 Y25.0371 
G01 Z-0.1000 F254.00 
G01 X90.3669 Y25.2397 F200.00 
G01 X90.3274 Y25.4385 
G01 X90.2498 Y25.6257 
G01 X90.1372 Y25.7942 
G01 X89.9940 Y25.9374 
G01 X89.8255 Y26.0500 
G01 X89.6383 Y26.1276 
G01 X89.4395 Y26.1671 
G01 X89.2369 Y26.1671 
G01 X89.0381 Y26.1276 
G01 X88.8509 Y26.0500 
G01 X88.6824 Y25.9374 
G01 X88.5392 Y25.7942 
G01 X88.4266 Y25.6257 
G01 X88.3490 Y25.4385 
G01 X88.3095 Y25.2397 
G01 X88.3095 Y25.0371 
G01 X88.3490 Y24.8383 
G01 X88.4266 Y24.6511 
G01 X88.5392 Y24.4826 
G01 X88.6824 Y24.3394 
G01 X88.8509 Y24.2268 
G01 X89.0381 Y24.1492 
G01 X89.2369 Y24.1097 
G01 X89.4395 Y24.1097 
G01 X89.6383 Y24.1492 
G01 X89.8255 Y24.2268 
G01 X89.9940 Y24.3394 
G01 X90.1372 Y24.4826 
G01 X90.2498 Y24.6511 
G01 X90.3274 Y24.8383 
G01 X90.3669 Y25.0371 
G00 Z2.5400 
G00 X83.8645 Y25.0371 
G01 Z-0.1000 F254.00 
G01 X83.8645 Y25.2397 F200.00 
G01 X83.8250 Y25.4385 
G01 X83.7474 Y25.6257 
G01 X83.6348 Y25.7942 
G01 X83.4916 Y25.9374 
G01 X83.3231 Y26.0500 
G01 X83.1359 Y26.1276 
G01 X82.9371 Y26.1671 
G01 X82.7345 Y26.1671 
G01 X82.5357 Y26.1276 
G01 X82.3485 Y26.0500 
G01 X82.1800 Y25.9374 
G01 X82.0368 Y25.7942 
G01 X81.9242 Y25.6257 
G01 X81.8466 Y25.4385 
G01 X81.8071 Y25.2397 
G01 X81.8071 Y25.0371 
G01 X81.8466 Y24.8383 
G01 X81.9242 Y24.6511 
G01 X82.0368 Y24.4826 
G01 X82.1800 Y24.3394 
G01 X82.3485 Y24.2268 
G01 X82.5357 Y24.1492 
G01 X82.7345 Y24.1097 
G01 X82.9371 Y24.1097 
G01 X83.1359 Y24.1492 
G01 X83.3231 Y24.2268 
G01 X83.4916 Y24.3394 
G01 X83.6348 Y24.4826 
G01 X83.7474 Y24.6511 
G01 X83.8250 Y24.8383 
G01 X83.8645 Y25.0371 
G00 Z2.5400 
G00 X90.3669 Y29.5583 
G01 Z-0.1000 F254.00 
G01 X90.3669 Y29.7609 F200.00 
G01 X90.3274 Y29.9597 
G01 X90.2498 Y30.1469 
G01 X90.1372 Y30.3154 
G01 X89.9940 Y30.4586 
G01 X89.8255 Y30.5712 
G01 X89.6383 Y30.6488 
G01 X89.4395 Y30.6883 
G01 X89.2369 Y30.6883 
G01 X89.0381 Y30.6488 
G01 X88.8509 Y30.5712 
G01 X88.6824 Y30.4586 
G01 X88.5392 Y30.3154 
G01 X88.4266 Y30.1469 
G01 X88.3490 Y29.9597 
G01 X88.3095 Y29.7609 
G01 X88.3095 Y29.5583 
G01 X88.3490 Y29.3595 
G01 X88.4266 Y29.1723 
G01 X88.5392 Y29.0038 
G01 X88.6824 Y28.8606 
G01 X88.8509 Y28.7480 
G01 X89.0381 Y28.6704 
G01 X89.2369 Y28.6309 
G01 X89.4395 Y28.6309 
G01 X89.6383 Y28.6704 
G01 X89.8255 Y28.7480 
G01 X89.9940 Y28.8606 
G01 X90.1372 Y29.0038 
G01 X90.2498 Y29.1723 
G01 X90.3274 Y29.3595 
G01 X90.3669 Y29.5583 
G00 Z2.5400 
G00 X83.8645 Y29.5583 
G01 Z-0.1000 F254.00 
G01 X83.8645 Y29.7609 F200.00 
G01 X83.8250 Y29.9597 
G01 X83.7474 Y30.1469 
G01 X83.6348 Y30.3154 
G01 X83.4916 Y30.4586 
G01 X83.3231 Y30.5712 
G01 X83.1359 Y30.6488 
G01 X82.9371 Y30.6883 
G01 X82.7345 Y30.6883 
G01 X82.5357 Y30.6488 
G01 X82.3485 Y30.5712 
G01 X82.1800 Y30.4586 
G01 X82.0368 Y30.3154 
G01 X81.9242 Y30.1469 
G01 X81.8466 Y29.9597 
G01 X81.8071 Y29.7609 
G01 X81.8071 Y29.5583 
G01 X81.8466 Y29.3595 
G01 X81.9242 Y29.1723 
G01 X82.0368 Y29.0038 
G01 X82.1800 Y28.8606 
G01 X82.3485 Y28.7480 
G01 X82.5357 Y28.6704 
G01 X82.7345 Y28.6309 
G01 X82.9371 Y28.6309 
G01 X83.1359 Y28.6704 
G01 X83.3231 Y28.7480 
G01 X83.4916 Y28.8606 
G01 X83.6348 Y29.0038 
G01 X83.7474 Y29.1723 
G01 X83.8250 Y29.3595 
G01 X83.8645 Y29.5583 
G00 Z2.5400 
G00 X55.2099 Y10.4210 
G01 Z-0.1000 F254.00 
G01 X55.2099 Y10.5870 F200.00 
G01 X55.1775 Y10.7499 
G01 X55.1140 Y10.9033 
G01 X55.0217 Y11.0413 
G01 X54.9043 Y11.1587 
G01 X54.7663 Y11.2510 
G01 X54.6129 Y11.3145 
G01 X54.4500 Y11.3469 
G01 X54.2840 Y11.3469 
G01 X54.1211 Y11.3145 
G01 X53.9677 Y11.2510 
G01 X53.8297 Y11.1587 
G01 X53.7123 Y11.0413 
G01 X53.6200 Y10.9033 
G01 X53.5565 Y10.7499 
G01 X53.5241 Y10.5870 
G01 X53.5241 Y10.4210 
G01 X53.5565 Y10.2581 
G01 X53.6200 Y10.1047 
G01 X53.7123 Y9.9667 
G01 X53.8297 Y9.8493 
G01 X53.9677 Y9.7570 
G01 X54.1211 Y9.6935 
G01 X54.2840 Y9.6611 
G01 X54.4500 Y9.6611 
G01 X54.6129 Y9.6935 
G01 X54.7663 Y9.7570 
G01 X54.9043 Y9.8493 
G01 X55.0217 Y9.9667 
G01 X55.1140 Y10.1047 
G01 X55.1775 Y10.2581 
G01 X55.2099 Y10.4210 
G00 Z2.5400 
G00 X57.7499 Y10.4210 
G01 Z-0.1000 F254.00 
G01 X57.7499 Y10.5870 F200.00 
G01 X57.7175 Y10.7499 
G01 X57.6540 Y10.9033 
G01 X57.5617 Y11.0413 
G01 X57.4443 Y11.1587 
G01 X57.3063 Y11.2510 
G01 X57.1529 Y11.3145 
G01 X56.9900 Y11.3469 
G01 X56.8240 Y11.3469 
G01 X56.6611 Y11.3145 
G01 X56.5077 Y11.2510 
G01 X56.3697 Y11.1587 
G01 X56.2523 Y11.0413 
G01 X56.1600 Y10.9033 
G01 X56.0965 Y10.7499 
G01 X56.0641 Y10.5870 
G01 X56.0641 Y10.4210 
G01 X56.0965 Y10.2581 
G01 X56.1600 Y10.1047 
G01 X56.2523 Y9.9667 
G01 X56.3697 Y9.8493 
G01 X56.5077 Y9.7570 
G01 X56.6611 Y9.6935 
G01 X56.8240 Y9.6611 
G01 X56.9900 Y9.6611 
G01 X57.1529 Y9.6935 
G01 X57.3063 Y9.7570 
G01 X57.4443 Y9.8493 
G01 X57.5617 Y9.9667 
G01 X57.6540 Y10.1047 
G01 X57.7175 Y10.2581 
G01 X57.7499 Y10.4210 
G00 Z2.5400 
G00 X60.2899 Y10.4210 
G01 Z-0.1000 F254.00 
G01 X60.2899 Y10.5870 F200.00 
G01 X60.2575 Y10.7499 
G01 X60.1940 Y10.9033 
G01 X60.1017 Y11.0413 
G01 X59.9843 Y11.1587 
G01 X59.8463 Y11.2510 
G01 X59.6929 Y11.3145 
G01 X59.5300 Y11.3469 
G01 X59.3640 Y11.3469 
G01 X59.2011 Y11.3145 
G01 X59.0477 Y11.2510 
G01 X58.9097 Y11.1587 
G01 X58.7923 Y11.0413 
G01 X58.7000 Y10.9033 
G01 X58.6365 Y10.7499 
G01 X58.6041 Y10.5870 
G01 X58.6041 Y10.4210 
G01 X58.6365 Y10.2581 
G01 X58.7000 Y10.1047 
G01 X58.7923 Y9.9667 
G01 X58.9097 Y9.8493 
G01 X59.0477 Y9.7570 
G01 X59.2011 Y9.6935 
G01 X59.3640 Y9.6611 
G01 X59.5300 Y9.6611 
G01 X59.6929 Y9.6935 
G01 X59.8463 Y9.7570 
G01 X59.9843 Y9.8493 
G01 X60.1017 Y9.9667 
G01 X60.1940 Y10.1047 
G01 X60.2575 Y10.2581 
G01 X60.2899 Y10.4210 
G00 Z2.5400 
G00 X61.1441 Y11.2757 
G01 Z-0.1000 F254.00 
G01 X61.1441 Y9.7323 F200.00 
G01 X61.1576 Y9.6996 
G01 X61.1826 Y9.6746 
G01 X61.2153 Y9.6611 
G01 X62.7587 Y9.6611 
G01 X62.7914 Y9.6746 
G01 X62.8164 Y9.6996 
G01 X62.8299 Y9.7323 
G01 X62.8299 Y11.2757 
G01 X62.8164 Y11.3084 
G01 X62.7914 Y11.3334 
G01 X62.7587 Y11.3469 
G01 X61.2153 Y11.3469 
G01 X61.1826 Y11.3334 
G01 X61.1576 Y11.3084 
G01 X61.1441 Y11.2757 
G00 Z2.5400 
G00 X66.2592 Y20.0469 
G01 Z-0.1000 F254.00 
G01 X64.8048 Y20.0469 F200.00 
G01 X64.6613 Y20.0183 
G01 X64.5261 Y19.9623 
G01 X64.4044 Y19.8810 
G01 X64.3010 Y19.7776 
G01 X64.2197 Y19.6559 
G01 X64.1637 Y19.5207 
G01 X64.1351 Y19.3772 
G01 X64.1351 Y19.2308 
G01 X64.1637 Y19.0873 
G01 X64.2197 Y18.9521 
G01 X64.3010 Y18.8304 
G01 X64.4044 Y18.7270 
G01 X64.5261 Y18.6456 
G01 X64.6613 Y18.5897 
G01 X64.8048 Y18.5611 
G01 X66.2592 Y18.5611 
G01 X66.4027 Y18.5897 
G01 X66.5379 Y18.6456 
G01 X66.6596 Y18.7270 
G01 X66.7630 Y18.8304 
G01 X66.8443 Y18.9521 
G01 X66.9003 Y19.0873 
G01 X66.9289 Y19.2308 
G01 X66.9289 Y19.3772 
G01 X66.9003 Y19.5207 
G01 X66.8443 Y19.6559 
G01 X66.7630 Y19.7776 
G01 X66.6596 Y19.8810 
G01 X66.5379 Y19.9623 
G01 X66.4027 Y20.0183 
G01 X66.2592 Y20.0469 
G00 Z2.5400 
G00 X66.2592 Y22.5869 
G01 Z-0.1000 F254.00 
G01 X64.8048 Y22.5869 F200.00 
G01 X64.6613 Y22.5583 
G01 X64.5261 Y22.5023 
G01 X64.4044 Y22.4210 
G01 X64.3010 Y22.3176 
G01 X64.2197 Y22.1959 
G01 X64.1637 Y22.0607 
G01 X64.1351 Y21.9172 
G01 X64.1351 Y21.7708 
G01 X64.1637 Y21.6273 
G01 X64.2197 Y21.4921 
G01 X64.3010 Y21.3704 
G01 X64.4044 Y21.2670 
G01 X64.5261 Y21.1857 
G01 X64.6613 Y21.1297 
G01 X64.8048 Y21.1011 
G01 X66.2592 Y21.1011 
G01 X66.4027 Y21.1297 
G01 X66.5379 Y21.1857 
G01 X66.6596 Y21.2670 
G01 X66.7630 Y21.3704 
G01 X66.8443 Y21.4921 
G01 X66.9003 Y21.6273 
G01 X66.9289 Y21.7708 
G01 X66.9289 Y21.9172 
G01 X66.9003 Y22.0607 
G01 X66.8443 Y22.1959 
G01 X66.7630 Y22.3176 
G01 X66.6596 Y22.4210 
G01 X66.5379 Y22.5023 
G01 X66.4027 Y22.5583 
G01 X66.2592 Y22.5869 
G00 Z2.5400 
G00 X66.2592 Y25.1269 
G01 Z-0.1000 F254.00 
G01 X64.8048 Y25.1269 F200.00 
G01 X64.6613 Y25.0983 
G01 X64.5261 Y25.0423 
G01 X64.4044 Y24.9610 
G01 X64.3010 Y24.8576 
G01 X64.2197 Y24.7359 
G01 X64.1637 Y24.6007 
G01 X64.1351 Y24.4572 
G01 X64.1351 Y24.3108 
G01 X64.1637 Y24.1673 
G01 X64.2197 Y24.0321 
G01 X64.3010 Y23.9104 
G01 X64.4044 Y23.8070 
G01 X64.5261 Y23.7257 
G01 X64.6613 Y23.6697 
G01 X64.8048 Y23.6411 
G01 X66.2592 Y23.6411 
G01 X66.4027 Y23.6697 
G01 X66.5379 Y23.7257 
G01 X66.6596 Y23.8070 
G01 X66.7630 Y23.9104 
G01 X66.8443 Y24.0321 
G01 X66.9003 Y24.1673 
G01 X66.9289 Y24.3108 
G01 X66.9289 Y24.4572 
G01 X66.9003 Y24.6007 
G01 X66.8443 Y24.7359 
G01 X66.7630 Y24.8576 
G01 X66.6596 Y24.9610 
G01 X66.5379 Y25.0423 
G01 X66.4027 Y25.0983 
G01 X66.2592 Y25.1269 
G00 Z2.5400 
G00 X66.2592 Y27.6669 
G01 Z-0.1000 F254.00 
G01 X64.8048 Y27.6669 F200.00 
G01 X64.6613 Y27.6383 
G01 X64.5261 Y27.5823 
G01 X64.4044 Y27.5010 
G01 X64.3010 Y27.3976 
G01 X64.2197 Y27.2759 
G01 X64.1637 Y27.1407 
G01 X64.1351 Y26.9972 
G01 X64.1351 Y26.8508 
G01 X64.1637 Y26.7073 
G01 X64.2197 Y26.5721 
G01 X64.3010 Y26.4504 
G01 X64.4044 Y26.3469 
G01 X64.5261 Y26.2657 
G01 X64.6613 Y26.2096 
G01 X64.8048 Y26.1811 
G01 X66.2592 Y26.1811 
G01 X66.4027 Y26.2096 
G01 X66.5379 Y26.2657 
G01 X66.6596 Y26.3469 
G01 X66.7630 Y26.4504 
G01 X66.8443 Y26.5721 
G01 X66.9003 Y26.7073 
G01 X66.9289 Y26.8508 
G01 X66.9289 Y26.9972 
G01 X66.9003 Y27.1407 
G01 X66.8443 Y27.2759 
G01 X66.7630 Y27.3976 
G01 X66.6596 Y27.5010 
G01 X66.5379 Y27.5823 
G01 X66.4027 Y27.6383 
G01 X66.2592 Y27.6669 
G00 Z2.5400 
G00 X66.2592 Y30.2069 
G01 Z-0.1000 F254.00 
G01 X64.8048 Y30.2069 F200.00 
G01 X64.6613 Y30.1783 
G01 X64.5261 Y30.1223 
G01 X64.4044 Y30.0410 
G01 X64.3010 Y29.9376 
G01 X64.2197 Y29.8159 
G01 X64.1637 Y29.6807 
G01 X64.1351 Y29.5372 
G01 X64.1351 Y29.3908 
G01 X64.1637 Y29.2473 
G01 X64.2197 Y29.1121 
G01 X64.3010 Y28.9904 
G01 X64.4044 Y28.8870 
G01 X64.5261 Y28.8056 
G01 X64.6613 Y28.7497 
G01 X64.8048 Y28.7211 
G01 X66.2592 Y28.7211 
G01 X66.4027 Y28.7497 
G01 X66.5379 Y28.8056 
G01 X66.6596 Y28.8870 
G01 X66.7630 Y28.9904 
G01 X66.8443 Y29.1121 
G01 X66.9003 Y29.2473 
G01 X66.9289 Y29.3908 
G01 X66.9289 Y29.5372 
G01 X66.9003 Y29.6807 
G01 X66.8443 Y29.8159 
G01 X66.7630 Y29.9376 
G01 X66.6596 Y30.0410 
G01 X66.5379 Y30.1223 
G01 X66.4027 Y30.1783 
G01 X66.2592 Y30.2069 
G00 Z2.5400 
G00 X66.2592 Y32.7469 
G01 Z-0.1000 F254.00 
G01 X64.8048 Y32.7469 F200.00 
G01 X64.6613 Y32.7183 
G01 X64.5261 Y32.6623 
G01 X64.4044 Y32.5810 
G01 X64.3010 Y32.4776 
G01 X64.2197 Y32.3559 
G01 X64.1637 Y32.2207 
G01 X64.1351 Y32.0772 
G01 X64.1351 Y31.9308 
G01 X64.1637 Y31.7873 
G01 X64.2197 Y31.6521 
G01 X64.3010 Y31.5304 
G01 X64.4044 Y31.4270 
G01 X64.5261 Y31.3457 
G01 X64.6613 Y31.2897 
G01 X64.8048 Y31.2611 
G01 X66.2592 Y31.2611 
G01 X66.4027 Y31.2897 
G01 X66.5379 Y31.3457 
G01 X66.6596 Y31.4270 
G01 X66.7630 Y31.5304 
G01 X66.8443 Y31.6521 
G01 X66.9003 Y31.7873 
G01 X66.9289 Y31.9308 
G01 X66.9289 Y32.0772 
G01 X66.9003 Y32.2207 
G01 X66.8443 Y32.3559 
G01 X66.7630 Y32.4776 
G01 X66.6596 Y32.5810 
G01 X66.5379 Y32.6623 
G01 X66.4027 Y32.7183 
G01 X66.2592 Y32.7469 
G00 Z2.5400 
G00 X66.2592 Y35.2869 
G01 Z-0.1000 F254.00 
G01 X64.8048 Y35.2869 F200.00 
G01 X64.6613 Y35.2583 
G01 X64.5261 Y35.2023 
G01 X64.4044 Y35.1210 
G01 X64.3010 Y35.0176 
G01 X64.2197 Y34.8959 
G01 X64.1637 Y34.7607 
G01 X64.1351 Y34.6172 
G01 X64.1351 Y34.4708 
G01 X64.1637 Y34.3273 
G01 X64.2197 Y34.1921 
G01 X64.3010 Y34.0704 
G01 X64.4044 Y33.9670 
G01 X64.5261 Y33.8856 
G01 X64.6613 Y33.8297 
G01 X64.8048 Y33.8011 
G01 X66.2592 Y33.8011 
G01 X66.4027 Y33.8297 
G01 X66.5379 Y33.8856 
G01 X66.6596 Y33.9670 
G01 X66.7630 Y34.0704 
G01 X66.8443 Y34.1921 
G01 X66.9003 Y34.3273 
G01 X66.9289 Y34.4708 
G01 X66.9289 Y34.6172 
G01 X66.9003 Y34.7607 
G01 X66.8443 Y34.8959 
G01 X66.7630 Y35.0176 
G01 X66.6596 Y35.1210 
G01 X66.5379 Y35.2023 
G01 X66.4027 Y35.2583 
G01 X66.2592 Y35.2869 
G00 Z2.5400 
G00 X66.2592 Y37.8269 
G01 Z-0.1000 F254.00 
G01 X64.8048 Y37.8269 F200.00 
G01 X64.6613 Y37.7983 
G01 X64.5261 Y37.7423 
G01 X64.4044 Y37.6610 
G01 X64.3010 Y37.5576 
G01 X64.2197 Y37.4359 
G01 X64.1637 Y37.3007 
G01 X64.1351 Y37.1572 
G01 X64.1351 Y37.0108 
G01 X64.1637 Y36.8673 
G01 X64.2197 Y36.7321 
G01 X64.3010 Y36.6104 
G01 X64.4044 Y36.5070 
G01 X64.5261 Y36.4257 
G01 X64.6613 Y36.3697 
G01 X64.8048 Y36.3411 
G01 X66.2592 Y36.3411 
G01 X66.4027 Y36.3697 
G01 X66.5379 Y36.4257 
G01 X66.6596 Y36.5070 
G01 X66.7630 Y36.6104 
G01 X66.8443 Y36.7321 
G01 X66.9003 Y36.8673 
G01 X66.9289 Y37.0108 
G01 X66.9289 Y37.1572 
G01 X66.9003 Y37.3007 
G01 X66.8443 Y37.4359 
G01 X66.7630 Y37.5576 
G01 X66.6596 Y37.6610 
G01 X66.5379 Y37.7423 
G01 X66.4027 Y37.7983 
G01 X66.2592 Y37.8269 
G00 Z2.5400 
G00 X66.2592 Y40.3669 
G01 Z-0.1000 F254.00 
G01 X64.8048 Y40.3669 F200.00 
G01 X64.6613 Y40.3383 
G01 X64.5261 Y40.2823 
G01 X64.4044 Y40.2010 
G01 X64.3010 Y40.0976 
G01 X64.2197 Y39.9759 
G01 X64.1637 Y39.8407 
G01 X64.1351 Y39.6972 
G01 X64.1351 Y39.5508 
G01 X64.1637 Y39.4073 
G01 X64.2197 Y39.2721 
G01 X64.3010 Y39.1504 
G01 X64.4044 Y39.0470 
G01 X64.5261 Y38.9657 
G01 X64.6613 Y38.9096 
G01 X64.8048 Y38.8811 
G01 X66.2592 Y38.8811 
G01 X66.4027 Y38.9096 
G01 X66.5379 Y38.9657 
G01 X66.6596 Y39.0470 
G01 X66.7630 Y39.1504 
G01 X66.8443 Y39.2721 
G01 X66.9003 Y39.4073 
G01 X66.9289 Y39.5508 
G01 X66.9289 Y39.6972 
G01 X66.9003 Y39.8407 
G01 X66.8443 Y39.9759 
G01 X66.7630 Y40.0976 
G01 X66.6596 Y40.2010 
G01 X66.5379 Y40.2823 
G01 X66.4027 Y40.3383 
G01 X66.2592 Y40.3669 
G00 Z2.5400 
G00 X66.2592 Y42.9069 
G01 Z-0.1000 F254.00 
G01 X64.8048 Y42.9069 F200.00 
G01 X64.6613 Y42.8783 
G01 X64.5261 Y42.8223 
G01 X64.4044 Y42.7410 
G01 X64.3010 Y42.6376 
G01 X64.2197 Y42.5159 
G01 X64.1637 Y42.3807 
G01 X64.1351 Y42.2372 
G01 X64.1351 Y42.0908 
G01 X64.1637 Y41.9473 
G01 X64.2197 Y41.8121 
G01 X64.3010 Y41.6904 
G01 X64.4044 Y41.5870 
G01 X64.5261 Y41.5057 
G01 X64.6613 Y41.4497 
G01 X64.8048 Y41.4211 
G01 X66.2592 Y41.4211 
G01 X66.4027 Y41.4497 
G01 X66.5379 Y41.5057 
G01 X66.6596 Y41.5870 
G01 X66.7630 Y41.6904 
G01 X66.8443 Y41.8121 
G01 X66.9003 Y41.9473 
G01 X66.9289 Y42.0908 
G01 X66.9289 Y42.2372 
G01 X66.9003 Y42.3807 
G01 X66.8443 Y42.5159 
G01 X66.7630 Y42.6376 
G01 X66.6596 Y42.7410 
G01 X66.5379 Y42.8223 
G01 X66.4027 Y42.8783 
G01 X66.2592 Y42.9069 
G00 Z2.5400 
G00 X66.2592 Y45.4469 
G01 Z-0.1000 F254.00 
G01 X64.8048 Y45.4469 F200.00 
G01 X64.6613 Y45.4183 
G01 X64.5261 Y45.3623 
G01 X64.4044 Y45.2810 
G01 X64.3010 Y45.1776 
G01 X64.2197 Y45.0559 
G01 X64.1637 Y44.9207 
G01 X64.1351 Y44.7772 
G01 X64.1351 Y44.6308 
G01 X64.1637 Y44.4873 
G01 X64.2197 Y44.3521 
G01 X64.3010 Y44.2304 
G01 X64.4044 Y44.1270 
G01 X64.5261 Y44.0457 
G01 X64.6613 Y43.9897 
G01 X64.8048 Y43.9611 
G01 X66.2592 Y43.9611 
G01 X66.4027 Y43.9897 
G01 X66.5379 Y44.0457 
G01 X66.6596 Y44.1270 
G01 X66.7630 Y44.2304 
G01 X66.8443 Y44.3521 
G01 X66.9003 Y44.4873 
G01 X66.9289 Y44.6308 
G01 X66.9289 Y44.7772 
G01 X66.9003 Y44.9207 
G01 X66.8443 Y45.0559 
G01 X66.7630 Y45.1776 
G01 X66.6596 Y45.2810 
G01 X66.5379 Y45.3623 
G01 X66.4027 Y45.4183 
G01 X66.2592 Y45.4469 
G00 Z2.5400 
G00 X66.2592 Y47.9869 
G01 Z-0.1000 F254.00 
G01 X64.8048 Y47.9869 F200.00 
G01 X64.6613 Y47.9583 
G01 X64.5261 Y47.9023 
G01 X64.4044 Y47.8210 
G01 X64.3010 Y47.7176 
G01 X64.2197 Y47.5959 
G01 X64.1637 Y47.4607 
G01 X64.1351 Y47.3172 
G01 X64.1351 Y47.1708 
G01 X64.1637 Y47.0273 
G01 X64.2197 Y46.8921 
G01 X64.3010 Y46.7704 
G01 X64.4044 Y46.6669 
G01 X64.5261 Y46.5857 
G01 X64.6613 Y46.5297 
G01 X64.8048 Y46.5011 
G01 X66.2592 Y46.5011 
G01 X66.4027 Y46.5297 
G01 X66.5379 Y46.5857 
G01 X66.6596 Y46.6669 
G01 X66.7630 Y46.7704 
G01 X66.8443 Y46.8921 
G01 X66.9003 Y47.0273 
G01 X66.9289 Y47.1708 
G01 X66.9289 Y47.3172 
G01 X66.9003 Y47.4607 
G01 X66.8443 Y47.5959 
G01 X66.7630 Y47.7176 
G01 X66.6596 Y47.8210 
G01 X66.5379 Y47.9023 
G01 X66.4027 Y47.9583 
G01 X66.2592 Y47.9869 
G00 Z2.5400 
G00 X66.2592 Y50.5269 
G01 Z-0.1000 F254.00 
G01 X64.8048 Y50.5269 F200.00 
G01 X64.6613 Y50.4983 
G01 X64.5261 Y50.4423 
G01 X64.4044 Y50.3610 
G01 X64.3010 Y50.2576 
G01 X64.2197 Y50.1359 
G01 X64.1637 Y50.0007 
G01 X64.1351 Y49.8572 
G01 X64.1351 Y49.7108 
G01 X64.1637 Y49.5673 
G01 X64.2197 Y49.4321 
G01 X64.3010 Y49.3104 
G01 X64.4044 Y49.2069 
G01 X64.5261 Y49.1257 
G01 X64.6613 Y49.0697 
G01 X64.8048 Y49.0411 
G01 X66.2592 Y49.0411 
G01 X66.4027 Y49.0697 
G01 X66.5379 Y49.1257 
G01 X66.6596 Y49.2069 
G01 X66.7630 Y49.3104 
G01 X66.8443 Y49.4321 
G01 X66.9003 Y49.5673 
G01 X66.9289 Y49.7108 
G01 X66.9289 Y49.8572 
G01 X66.9003 Y50.0007 
G01 X66.8443 Y50.1359 
G01 X66.7630 Y50.2576 
G01 X66.6596 Y50.3610 
G01 X66.5379 Y50.4423 
G01 X66.4027 Y50.4983 
G01 X66.2592 Y50.5269 
G00 Z2.5400 
G00 X66.2592 Y53.0669 
G01 Z-0.1000 F254.00 
G01 X64.8048 Y53.0669 F200.00 
G01 X64.6613 Y53.0383 
G01 X64.5261 Y52.9823 
G01 X64.4044 Y52.9010 
G01 X64.3010 Y52.7976 
G01 X64.2197 Y52.6759 
G01 X64.1637 Y52.5407 
G01 X64.1351 Y52.3972 
G01 X64.1351 Y52.2508 
G01 X64.1637 Y52.1073 
G01 X64.2197 Y51.9721 
G01 X64.3010 Y51.8504 
G01 X64.4044 Y51.7470 
G01 X64.5261 Y51.6656 
G01 X64.6613 Y51.6097 
G01 X64.8048 Y51.5811 
G01 X66.2592 Y51.5811 
G01 X66.4027 Y51.6097 
G01 X66.5379 Y51.6656 
G01 X66.6596 Y51.7470 
G01 X66.7630 Y51.8504 
G01 X66.8443 Y51.9721 
G01 X66.9003 Y52.1073 
G01 X66.9289 Y52.2508 
G01 X66.9289 Y52.3972 
G01 X66.9003 Y52.5407 
G01 X66.8443 Y52.6759 
G01 X66.7630 Y52.7976 
G01 X66.6596 Y52.9010 
G01 X66.5379 Y52.9823 
G01 X66.4027 Y53.0383 
G01 X66.2592 Y53.0669 
G00 Z2.5400 
G00 X66.2592 Y55.6069 
G01 Z-0.1000 F254.00 
G01 X64.8048 Y55.6069 F200.00 
G01 X64.6613 Y55.5783 
G01 X64.5261 Y55.5223 
G01 X64.4044 Y55.4410 
G01 X64.3010 Y55.3376 
G01 X64.2197 Y55.2159 
G01 X64.1637 Y55.0807 
G01 X64.1351 Y54.9372 
G01 X64.1351 Y54.7908 
G01 X64.1637 Y54.6473 
G01 X64.2197 Y54.5121 
G01 X64.3010 Y54.3904 
G01 X64.4044 Y54.2870 
G01 X64.5261 Y54.2057 
G01 X64.6613 Y54.1497 
G01 X64.8048 Y54.1211 
G01 X66.2592 Y54.1211 
G01 X66.4027 Y54.1497 
G01 X66.5379 Y54.2057 
G01 X66.6596 Y54.2870 
G01 X66.7630 Y54.3904 
G01 X66.8443 Y54.5121 
G01 X66.9003 Y54.6473 
G01 X66.9289 Y54.7908 
G01 X66.9289 Y54.9372 
G01 X66.9003 Y55.0807 
G01 X66.8443 Y55.2159 
G01 X66.7630 Y55.3376 
G01 X66.6596 Y55.4410 
G01 X66.5379 Y55.5223 
G01 X66.4027 Y55.5783 
G01 X66.2592 Y55.6069 
G00 Z2.5400 
G00 X66.2592 Y58.1469 
G01 Z-0.1000 F254.00 
G01 X64.8048 Y58.1469 F200.00 
G01 X64.6613 Y58.1183 
G01 X64.5261 Y58.0623 
G01 X64.4044 Y57.9810 
G01 X64.3010 Y57.8776 
G01 X64.2197 Y57.7559 
G01 X64.1637 Y57.6207 
G01 X64.1351 Y57.4772 
G01 X64.1351 Y57.3308 
G01 X64.1637 Y57.1873 
G01 X64.2197 Y57.0521 
G01 X64.3010 Y56.9304 
G01 X64.4044 Y56.8270 
G01 X64.5261 Y56.7457 
G01 X64.6613 Y56.6897 
G01 X64.8048 Y56.6611 
G01 X66.2592 Y56.6611 
G01 X66.4027 Y56.6897 
G01 X66.5379 Y56.7457 
G01 X66.6596 Y56.8270 
G01 X66.7630 Y56.9304 
G01 X66.8443 Y57.0521 
G01 X66.9003 Y57.1873 
G01 X66.9289 Y57.3308 
G01 X66.9289 Y57.4772 
G01 X66.9003 Y57.6207 
G01 X66.8443 Y57.7559 
G01 X66.7630 Y57.8776 
G01 X66.6596 Y57.9810 
G01 X66.5379 Y58.0623 
G01 X66.4027 Y58.1183 
G01 X66.2592 Y58.1469 
G00 Z2.5400 
G00 X66.2592 Y60.6869 
G01 Z-0.1000 F254.00 
G01 X64.8048 Y60.6869 F200.00 
G01 X64.6613 Y60.6583 
G01 X64.5261 Y60.6023 
G01 X64.4044 Y60.5210 
G01 X64.3010 Y60.4176 
G01 X64.2197 Y60.2959 
G01 X64.1637 Y60.1607 
G01 X64.1351 Y60.0172 
G01 X64.1351 Y59.8708 
G01 X64.1637 Y59.7273 
G01 X64.2197 Y59.5921 
G01 X64.3010 Y59.4704 
G01 X64.4044 Y59.3670 
G01 X64.5261 Y59.2857 
G01 X64.6613 Y59.2296 
G01 X64.8048 Y59.2011 
G01 X66.2592 Y59.2011 
G01 X66.4027 Y59.2296 
G01 X66.5379 Y59.2857 
G01 X66.6596 Y59.3670 
G01 X66.7630 Y59.4704 
G01 X66.8443 Y59.5921 
G01 X66.9003 Y59.7273 
G01 X66.9289 Y59.8708 
G01 X66.9289 Y60.0172 
G01 X66.9003 Y60.1607 
G01 X66.8443 Y60.2959 
G01 X66.7630 Y60.4176 
G01 X66.6596 Y60.5210 
G01 X66.5379 Y60.6023 
G01 X66.4027 Y60.6583 
G01 X66.2592 Y60.6869 
G00 Z2.5400 
G00 X66.2592 Y63.2269 
G01 Z-0.1000 F254.00 
G01 X64.8048 Y63.2269 F200.00 
G01 X64.6613 Y63.1983 
G01 X64.5261 Y63.1423 
G01 X64.4044 Y63.0610 
G01 X64.3010 Y62.9576 
G01 X64.2197 Y62.8359 
G01 X64.1637 Y62.7007 
G01 X64.1351 Y62.5572 
G01 X64.1351 Y62.4108 
G01 X64.1637 Y62.2673 
G01 X64.2197 Y62.1321 
G01 X64.3010 Y62.0104 
G01 X64.4044 Y61.9070 
G01 X64.5261 Y61.8257 
G01 X64.6613 Y61.7697 
G01 X64.8048 Y61.7411 
G01 X66.2592 Y61.7411 
G01 X66.4027 Y61.7697 
G01 X66.5379 Y61.8257 
G01 X66.6596 Y61.9070 
G01 X66.7630 Y62.0104 
G01 X66.8443 Y62.1321 
G01 X66.9003 Y62.2673 
G01 X66.9289 Y62.4108 
G01 X66.9289 Y62.5572 
G01 X66.9003 Y62.7007 
G01 X66.8443 Y62.8359 
G01 X66.7630 Y62.9576 
G01 X66.6596 Y63.0610 
G01 X66.5379 Y63.1423 
G01 X66.4027 Y63.1983 
G01 X66.2592 Y63.2269 
G00 Z2.5400 
G00 X66.2592 Y65.7669 
G01 Z-0.1000 F254.00 
G01 X64.8048 Y65.7669 F200.00 
G01 X64.6613 Y65.7383 
G01 X64.5261 Y65.6823 
G01 X64.4044 Y65.6010 
G01 X64.3010 Y65.4976 
G01 X64.2197 Y65.3759 
G01 X64.1637 Y65.2407 
G01 X64.1351 Y65.0972 
G01 X64.1351 Y64.9508 
G01 X64.1637 Y64.8073 
G01 X64.2197 Y64.6721 
G01 X64.3010 Y64.5504 
G01 X64.4044 Y64.4470 
G01 X64.5261 Y64.3657 
G01 X64.6613 Y64.3097 
G01 X64.8048 Y64.2811 
G01 X66.2592 Y64.2811 
G01 X66.4027 Y64.3097 
G01 X66.5379 Y64.3657 
G01 X66.6596 Y64.4470 
G01 X66.7630 Y64.5504 
G01 X66.8443 Y64.6721 
G01 X66.9003 Y64.8073 
G01 X66.9289 Y64.9508 
G01 X66.9289 Y65.0972 
G01 X66.9003 Y65.2407 
G01 X66.8443 Y65.3759 
G01 X66.7630 Y65.4976 
G01 X66.6596 Y65.6010 
G01 X66.5379 Y65.6823 
G01 X66.4027 Y65.7383 
G01 X66.2592 Y65.7669 
G00 Z2.5400 
G00 X66.2592 Y68.3069 
G01 Z-0.1000 F254.00 
G01 X64.8048 Y68.3069 F200.00 
G01 X64.6613 Y68.2783 
G01 X64.5261 Y68.2223 
G01 X64.4044 Y68.1410 
G01 X64.3010 Y68.0376 
G01 X64.2197 Y67.9159 
G01 X64.1637 Y67.7807 
G01 X64.1351 Y67.6372 
G01 X64.1351 Y67.4908 
G01 X64.1637 Y67.3473 
G01 X64.2197 Y67.2121 
G01 X64.3010 Y67.0904 
G01 X64.4044 Y66.9870 
G01 X64.5261 Y66.9057 
G01 X64.6613 Y66.8496 
G01 X64.8048 Y66.8211 
G01 X66.2592 Y66.8211 
G01 X66.4027 Y66.8496 
G01 X66.5379 Y66.9057 
G01 X66.6596 Y66.9870 
G01 X66.7630 Y67.0904 
G01 X66.8443 Y67.2121 
G01 X66.9003 Y67.3473 
G01 X66.9289 Y67.4908 
G01 X66.9289 Y67.6372 
G01 X66.9003 Y67.7807 
G01 X66.8443 Y67.9159 
G01 X66.7630 Y68.0376 
G01 X66.6596 Y68.1410 
G01 X66.5379 Y68.2223 
G01 X66.4027 Y68.2783 
G01 X66.2592 Y68.3069 
G00 Z2.5400 
G00 X51.0192 Y20.0469 
G01 Z-0.1000 F254.00 
G01 X49.5648 Y20.0469 F200.00 
G01 X49.4213 Y20.0183 
G01 X49.2861 Y19.9623 
G01 X49.1644 Y19.8810 
G01 X49.0610 Y19.7776 
G01 X48.9796 Y19.6559 
G01 X48.9237 Y19.5207 
G01 X48.8951 Y19.3772 
G01 X48.8951 Y19.2308 
G01 X48.9237 Y19.0873 
G01 X48.9796 Y18.9521 
G01 X49.0610 Y18.8304 
G01 X49.1644 Y18.7270 
G01 X49.2861 Y18.6456 
G01 X49.4213 Y18.5897 
G01 X49.5648 Y18.5611 
G01 X51.0192 Y18.5611 
G01 X51.1627 Y18.5897 
G01 X51.2979 Y18.6456 
G01 X51.4196 Y18.7270 
G01 X51.5230 Y18.8304 
G01 X51.6043 Y18.9521 
G01 X51.6603 Y19.0873 
G01 X51.6889 Y19.2308 
G01 X51.6889 Y19.3772 
G01 X51.6603 Y19.5207 
G01 X51.6043 Y19.6559 
G01 X51.5230 Y19.7776 
G01 X51.4196 Y19.8810 
G01 X51.2979 Y19.9623 
G01 X51.1627 Y20.0183 
G01 X51.0192 Y20.0469 
G00 Z2.5400 
G00 X51.0192 Y22.5869 
G01 Z-0.1000 F254.00 
G01 X49.5648 Y22.5869 F200.00 
G01 X49.4213 Y22.5583 
G01 X49.2861 Y22.5023 
G01 X49.1644 Y22.4210 
G01 X49.0610 Y22.3176 
G01 X48.9796 Y22.1959 
G01 X48.9237 Y22.0607 
G01 X48.8951 Y21.9172 
G01 X48.8951 Y21.7708 
G01 X48.9237 Y21.6273 
G01 X48.9796 Y21.4921 
G01 X49.0610 Y21.3704 
G01 X49.1644 Y21.2670 
G01 X49.2861 Y21.1857 
G01 X49.4213 Y21.1297 
G01 X49.5648 Y21.1011 
G01 X51.0192 Y21.1011 
G01 X51.1627 Y21.1297 
G01 X51.2979 Y21.1857 
G01 X51.4196 Y21.2670 
G01 X51.5230 Y21.3704 
G01 X51.6043 Y21.4921 
G01 X51.6603 Y21.6273 
G01 X51.6889 Y21.7708 
G01 X51.6889 Y21.9172 
G01 X51.6603 Y22.0607 
G01 X51.6043 Y22.1959 
G01 X51.5230 Y22.3176 
G01 X51.4196 Y22.4210 
G01 X51.2979 Y22.5023 
G01 X51.1627 Y22.5583 
G01 X51.0192 Y22.5869 
G00 Z2.5400 
G00 X51.0192 Y25.1269 
G01 Z-0.1000 F254.00 
G01 X49.5648 Y25.1269 F200.00 
G01 X49.4213 Y25.0983 
G01 X49.2861 Y25.0423 
G01 X49.1644 Y24.9610 
G01 X49.0610 Y24.8576 
G01 X48.9796 Y24.7359 
G01 X48.9237 Y24.6007 
G01 X48.8951 Y24.4572 
G01 X48.8951 Y24.3108 
G01 X48.9237 Y24.1673 
G01 X48.9796 Y24.0321 
G01 X49.0610 Y23.9104 
G01 X49.1644 Y23.8070 
G01 X49.2861 Y23.7257 
G01 X49.4213 Y23.6697 
G01 X49.5648 Y23.6411 
G01 X51.0192 Y23.6411 
G01 X51.1627 Y23.6697 
G01 X51.2979 Y23.7257 
G01 X51.4196 Y23.8070 
G01 X51.5230 Y23.9104 
G01 X51.6043 Y24.0321 
G01 X51.6603 Y24.1673 
G01 X51.6889 Y24.3108 
G01 X51.6889 Y24.4572 
G01 X51.6603 Y24.6007 
G01 X51.6043 Y24.7359 
G01 X51.5230 Y24.8576 
G01 X51.4196 Y24.9610 
G01 X51.2979 Y25.0423 
G01 X51.1627 Y25.0983 
G01 X51.0192 Y25.1269 
G00 Z2.5400 
G00 X51.0192 Y27.6669 
G01 Z-0.1000 F254.00 
G01 X49.5648 Y27.6669 F200.00 
G01 X49.4213 Y27.6383 
G01 X49.2861 Y27.5823 
G01 X49.1644 Y27.5010 
G01 X49.0610 Y27.3976 
G01 X48.9796 Y27.2759 
G01 X48.9237 Y27.1407 
G01 X48.8951 Y26.9972 
G01 X48.8951 Y26.8508 
G01 X48.9237 Y26.7073 
G01 X48.9796 Y26.5721 
G01 X49.0610 Y26.4504 
G01 X49.1644 Y26.3469 
G01 X49.2861 Y26.2657 
G01 X49.4213 Y26.2096 
G01 X49.5648 Y26.1811 
G01 X51.0192 Y26.1811 
G01 X51.1627 Y26.2096 
G01 X51.2979 Y26.2657 
G01 X51.4196 Y26.3469 
G01 X51.5230 Y26.4504 
G01 X51.6043 Y26.5721 
G01 X51.6603 Y26.7073 
G01 X51.6889 Y26.8508 
G01 X51.6889 Y26.9972 
G01 X51.6603 Y27.1407 
G01 X51.6043 Y27.2759 
G01 X51.5230 Y27.3976 
G01 X51.4196 Y27.5010 
G01 X51.2979 Y27.5823 
G01 X51.1627 Y27.6383 
G01 X51.0192 Y27.6669 
G00 Z2.5400 
G00 X51.0192 Y30.2069 
G01 Z-0.1000 F254.00 
G01 X49.5648 Y30.2069 F200.00 
G01 X49.4213 Y30.1783 
G01 X49.2861 Y30.1223 
G01 X49.1644 Y30.0410 
G01 X49.0610 Y29.9376 
G01 X48.9796 Y29.8159 
G01 X48.9237 Y29.6807 
G01 X48.8951 Y29.5372 
G01 X48.8951 Y29.3908 
G01 X48.9237 Y29.2473 
G01 X48.9796 Y29.1121 
G01 X49.0610 Y28.9904 
G01 X49.1644 Y28.8870 
G01 X49.2861 Y28.8056 
G01 X49.4213 Y28.7497 
G01 X49.5648 Y28.7211 
G01 X51.0192 Y28.7211 
G01 X51.1627 Y28.7497 
G01 X51.2979 Y28.8056 
G01 X51.4196 Y28.8870 
G01 X51.5230 Y28.9904 
G01 X51.6043 Y29.1121 
G01 X51.6603 Y29.2473 
G01 X51.6889 Y29.3908 
G01 X51.6889 Y29.5372 
G01 X51.6603 Y29.6807 
G01 X51.6043 Y29.8159 
G01 X51.5230 Y29.9376 
G01 X51.4196 Y30.0410 
G01 X51.2979 Y30.1223 
G01 X51.1627 Y30.1783 
G01 X51.0192 Y30.2069 
G00 Z2.5400 
G00 X51.0192 Y32.7469 
G01 Z-0.1000 F254.00 
G01 X49.5648 Y32.7469 F200.00 
G01 X49.4213 Y32.7183 
G01 X49.2861 Y32.6623 
G01 X49.1644 Y32.5810 
G01 X49.0610 Y32.4776 
G01 X48.9796 Y32.3559 
G01 X48.9237 Y32.2207 
G01 X48.8951 Y32.0772 
G01 X48.8951 Y31.9308 
G01 X48.9237 Y31.7873 
G01 X48.9796 Y31.6521 
G01 X49.0610 Y31.5304 
G01 X49.1644 Y31.4270 
G01 X49.2861 Y31.3457 
G01 X49.4213 Y31.2897 
G01 X49.5648 Y31.2611 
G01 X51.0192 Y31.2611 
G01 X51.1627 Y31.2897 
G01 X51.2979 Y31.3457 
G01 X51.4196 Y31.4270 
G01 X51.5230 Y31.5304 
G01 X51.6043 Y31.6521 
G01 X51.6603 Y31.7873 
G01 X51.6889 Y31.9308 
G01 X51.6889 Y32.0772 
G01 X51.6603 Y32.2207 
G01 X51.6043 Y32.3559 
G01 X51.5230 Y32.4776 
G01 X51.4196 Y32.5810 
G01 X51.2979 Y32.6623 
G01 X51.1627 Y32.7183 
G01 X51.0192 Y32.7469 
G00 Z2.5400 
G00 X51.0192 Y35.2869 
G01 Z-0.1000 F254.00 
G01 X49.5648 Y35.2869 F200.00 
G01 X49.4213 Y35.2583 
G01 X49.2861 Y35.2023 
G01 X49.1644 Y35.1210 
G01 X49.0610 Y35.0176 
G01 X48.9796 Y34.8959 
G01 X48.9237 Y34.7607 
G01 X48.8951 Y34.6172 
G01 X48.8951 Y34.4708 
G01 X48.9237 Y34.3273 
G01 X48.9796 Y34.1921 
G01 X49.0610 Y34.0704 
G01 X49.1644 Y33.9670 
G01 X49.2861 Y33.8856 
G01 X49.4213 Y33.8297 
G01 X49.5648 Y33.8011 
G01 X51.0192 Y33.8011 
G01 X51.1627 Y33.8297 
G01 X51.2979 Y33.8856 
G01 X51.4196 Y33.9670 
G01 X51.5230 Y34.0704 
G01 X51.6043 Y34.1921 
G01 X51.6603 Y34.3273 
G01 X51.6889 Y34.4708 
G01 X51.6889 Y34.6172 
G01 X51.6603 Y34.7607 
G01 X51.6043 Y34.8959 
G01 X51.5230 Y35.0176 
G01 X51.4196 Y35.1210 
G01 X51.2979 Y35.2023 
G01 X51.1627 Y35.2583 
G01 X51.0192 Y35.2869 
G00 Z2.5400 
G00 X51.0192 Y37.8269 
G01 Z-0.1000 F254.00 
G01 X49.5648 Y37.8269 F200.00 
G01 X49.4213 Y37.7983 
G01 X49.2861 Y37.7423 
G01 X49.1644 Y37.6610 
G01 X49.0610 Y37.5576 
G01 X48.9796 Y37.4359 
G01 X48.9237 Y37.3007 
G01 X48.8951 Y37.1572 
G01 X48.8951 Y37.0108 
G01 X48.9237 Y36.8673 
G01 X48.9796 Y36.7321 
G01 X49.0610 Y36.6104 
G01 X49.1644 Y36.5070 
G01 X49.2861 Y36.4257 
G01 X49.4213 Y36.3697 
G01 X49.5648 Y36.3411 
G01 X51.0192 Y36.3411 
G01 X51.1627 Y36.3697 
G01 X51.2979 Y36.4257 
G01 X51.4196 Y36.5070 
G01 X51.5230 Y36.6104 
G01 X51.6043 Y36.7321 
G01 X51.6603 Y36.8673 
G01 X51.6889 Y37.0108 
G01 X51.6889 Y37.1572 
G01 X51.6603 Y37.3007 
G01 X51.6043 Y37.4359 
G01 X51.5230 Y37.5576 
G01 X51.4196 Y37.6610 
G01 X51.2979 Y37.7423 
G01 X51.1627 Y37.7983 
G01 X51.0192 Y37.8269 
G00 Z2.5400 
G00 X51.0192 Y40.3669 
G01 Z-0.1000 F254.00 
G01 X49.5648 Y40.3669 F200.00 
G01 X49.4213 Y40.3383 
G01 X49.2861 Y40.2823 
G01 X49.1644 Y40.2010 
G01 X49.0610 Y40.0976 
G01 X48.9796 Y39.9759 
G01 X48.9237 Y39.8407 
G01 X48.8951 Y39.6972 
G01 X48.8951 Y39.5508 
G01 X48.9237 Y39.4073 
G01 X48.9796 Y39.2721 
G01 X49.0610 Y39.1504 
G01 X49.1644 Y39.0470 
G01 X49.2861 Y38.9657 
G01 X49.4213 Y38.9096 
G01 X49.5648 Y38.8811 
G01 X51.0192 Y38.8811 
G01 X51.1627 Y38.9096 
G01 X51.2979 Y38.9657 
G01 X51.4196 Y39.0470 
G01 X51.5230 Y39.1504 
G01 X51.6043 Y39.2721 
G01 X51.6603 Y39.4073 
G01 X51.6889 Y39.5508 
G01 X51.6889 Y39.6972 
G01 X51.6603 Y39.8407 
G01 X51.6043 Y39.9759 
G01 X51.5230 Y40.0976 
G01 X51.4196 Y40.2010 
G01 X51.2979 Y40.2823 
G01 X51.1627 Y40.3383 
G01 X51.0192 Y40.3669 
G00 Z2.5400 
G00 X51.0192 Y42.9069 
G01 Z-0.1000 F254.00 
G01 X49.5648 Y42.9069 F200.00 
G01 X49.4213 Y42.8783 
G01 X49.2861 Y42.8223 
G01 X49.1644 Y42.7410 
G01 X49.0610 Y42.6376 
G01 X48.9796 Y42.5159 
G01 X48.9237 Y42.3807 
G01 X48.8951 Y42.2372 
G01 X48.8951 Y42.0908 
G01 X48.9237 Y41.9473 
G01 X48.9796 Y41.8121 
G01 X49.0610 Y41.6904 
G01 X49.1644 Y41.5870 
G01 X49.2861 Y41.5057 
G01 X49.4213 Y41.4497 
G01 X49.5648 Y41.4211 
G01 X51.0192 Y41.4211 
G01 X51.1627 Y41.4497 
G01 X51.2979 Y41.5057 
G01 X51.4196 Y41.5870 
G01 X51.5230 Y41.6904 
G01 X51.6043 Y41.8121 
G01 X51.6603 Y41.9473 
G01 X51.6889 Y42.0908 
G01 X51.6889 Y42.2372 
G01 X51.6603 Y42.3807 
G01 X51.6043 Y42.5159 
G01 X51.5230 Y42.6376 
G01 X51.4196 Y42.7410 
G01 X51.2979 Y42.8223 
G01 X51.1627 Y42.8783 
G01 X51.0192 Y42.9069 
G00 Z2.5400 
G00 X51.0192 Y45.4469 
G01 Z-0.1000 F254.00 
G01 X49.5648 Y45.4469 F200.00 
G01 X49.4213 Y45.4183 
G01 X49.2861 Y45.3623 
G01 X49.1644 Y45.2810 
G01 X49.0610 Y45.1776 
G01 X48.9796 Y45.0559 
G01 X48.9237 Y44.9207 
G01 X48.8951 Y44.7772 
G01 X48.8951 Y44.6308 
G01 X48.9237 Y44.4873 
G01 X48.9796 Y44.3521 
G01 X49.0610 Y44.2304 
G01 X49.1644 Y44.1270 
G01 X49.2861 Y44.0457 
G01 X49.4213 Y43.9897 
G01 X49.5648 Y43.9611 
G01 X51.0192 Y43.9611 
G01 X51.1627 Y43.9897 
G01 X51.2979 Y44.0457 
G01 X51.4196 Y44.1270 
G01 X51.5230 Y44.2304 
G01 X51.6043 Y44.3521 
G01 X51.6603 Y44.4873 
G01 X51.6889 Y44.6308 
G01 X51.6889 Y44.7772 
G01 X51.6603 Y44.9207 
G01 X51.6043 Y45.0559 
G01 X51.5230 Y45.1776 
G01 X51.4196 Y45.2810 
G01 X51.2979 Y45.3623 
G01 X51.1627 Y45.4183 
G01 X51.0192 Y45.4469 
G00 Z2.5400 
G00 X51.0192 Y47.9869 
G01 Z-0.1000 F254.00 
G01 X49.5648 Y47.9869 F200.00 
G01 X49.4213 Y47.9583 
G01 X49.2861 Y47.9023 
G01 X49.1644 Y47.8210 
G01 X49.0610 Y47.7176 
G01 X48.9796 Y47.5959 
G01 X48.9237 Y47.4607 
G01 X48.8951 Y47.3172 
G01 X48.8951 Y47.1708 
G01 X48.9237 Y47.0273 
G01 X48.9796 Y46.8921 
G01 X49.0610 Y46.7704 
G01 X49.1644 Y46.6669 
G01 X49.2861 Y46.5857 
G01 X49.4213 Y46.5297 
G01 X49.5648 Y46.5011 
G01 X51.0192 Y46.5011 
G01 X51.1627 Y46.5297 
G01 X51.2979 Y46.5857 
G01 X51.4196 Y46.6669 
G01 X51.5230 Y46.7704 
G01 X51.6043 Y46.8921 
G01 X51.6603 Y47.0273 
G01 X51.6889 Y47.1708 
G01 X51.6889 Y47.3172 
G01 X51.6603 Y47.4607 
G01 X51.6043 Y47.5959 
G01 X51.5230 Y47.7176 
G01 X51.4196 Y47.8210 
G01 X51.2979 Y47.9023 
G01 X51.1627 Y47.9583 
G01 X51.0192 Y47.9869 
G00 Z2.5400 
G00 X51.0192 Y50.5269 
G01 Z-0.1000 F254.00 
G01 X49.5648 Y50.5269 F200.00 
G01 X49.4213 Y50.4983 
G01 X49.2861 Y50.4423 
G01 X49.1644 Y50.3610 
G01 X49.0610 Y50.2576 
G01 X48.9796 Y50.1359 
G01 X48.9237 Y50.0007 
G01 X48.8951 Y49.8572 
G01 X48.8951 Y49.7108 
G01 X48.9237 Y49.5673 
G01 X48.9796 Y49.4321 
G01 X49.0610 Y49.3104 
G01 X49.1644 Y49.2069 
G01 X49.2861 Y49.1257 
G01 X49.4213 Y49.0697 
G01 X49.5648 Y49.0411 
G01 X51.0192 Y49.0411 
G01 X51.1627 Y49.0697 
G01 X51.2979 Y49.1257 
G01 X51.4196 Y49.2069 
G01 X51.5230 Y49.3104 
G01 X51.6043 Y49.4321 
G01 X51.6603 Y49.5673 
G01 X51.6889 Y49.7108 
G01 X51.6889 Y49.8572 
G01 X51.6603 Y50.0007 
G01 X51.6043 Y50.1359 
G01 X51.5230 Y50.2576 
G01 X51.4196 Y50.3610 
G01 X51.2979 Y50.4423 
G01 X51.1627 Y50.4983 
G01 X51.0192 Y50.5269 
G00 Z2.5400 
G00 X51.0192 Y53.0669 
G01 Z-0.1000 F254.00 
G01 X49.5648 Y53.0669 F200.00 
G01 X49.4213 Y53.0383 
G01 X49.2861 Y52.9823 
G01 X49.1644 Y52.9010 
G01 X49.0610 Y52.7976 
G01 X48.9796 Y52.6759 
G01 X48.9237 Y52.5407 
G01 X48.8951 Y52.3972 
G01 X48.8951 Y52.2508 
G01 X48.9237 Y52.1073 
G01 X48.9796 Y51.9721 
G01 X49.0610 Y51.8504 
G01 X49.1644 Y51.7470 
G01 X49.2861 Y51.6656 
G01 X49.4213 Y51.6097 
G01 X49.5648 Y51.5811 
G01 X51.0192 Y51.5811 
G01 X51.1627 Y51.6097 
G01 X51.2979 Y51.6656 
G01 X51.4196 Y51.7470 
G01 X51.5230 Y51.8504 
G01 X51.6043 Y51.9721 
G01 X51.6603 Y52.1073 
G01 X51.6889 Y52.2508 
G01 X51.6889 Y52.3972 
G01 X51.6603 Y52.5407 
G01 X51.6043 Y52.6759 
G01 X51.5230 Y52.7976 
G01 X51.4196 Y52.9010 
G01 X51.2979 Y52.9823 
G01 X51.1627 Y53.0383 
G01 X51.0192 Y53.0669 
G00 Z2.5400 
G00 X51.0192 Y55.6069 
G01 Z-0.1000 F254.00 
G01 X49.5648 Y55.6069 F200.00 
G01 X49.4213 Y55.5783 
G01 X49.2861 Y55.5223 
G01 X49.1644 Y55.4410 
G01 X49.0610 Y55.3376 
G01 X48.9796 Y55.2159 
G01 X48.9237 Y55.0807 
G01 X48.8951 Y54.9372 
G01 X48.8951 Y54.7908 
G01 X48.9237 Y54.6473 
G01 X48.9796 Y54.5121 
G01 X49.0610 Y54.3904 
G01 X49.1644 Y54.2870 
G01 X49.2861 Y54.2057 
G01 X49.4213 Y54.1497 
G01 X49.5648 Y54.1211 
G01 X51.0192 Y54.1211 
G01 X51.1627 Y54.1497 
G01 X51.2979 Y54.2057 
G01 X51.4196 Y54.2870 
G01 X51.5230 Y54.3904 
G01 X51.6043 Y54.5121 
G01 X51.6603 Y54.6473 
G01 X51.6889 Y54.7908 
G01 X51.6889 Y54.9372 
G01 X51.6603 Y55.0807 
G01 X51.6043 Y55.2159 
G01 X51.5230 Y55.3376 
G01 X51.4196 Y55.4410 
G01 X51.2979 Y55.5223 
G01 X51.1627 Y55.5783 
G01 X51.0192 Y55.6069 
G00 Z2.5400 
G00 X51.0192 Y58.1469 
G01 Z-0.1000 F254.00 
G01 X49.5648 Y58.1469 F200.00 
G01 X49.4213 Y58.1183 
G01 X49.2861 Y58.0623 
G01 X49.1644 Y57.9810 
G01 X49.0610 Y57.8776 
G01 X48.9796 Y57.7559 
G01 X48.9237 Y57.6207 
G01 X48.8951 Y57.4772 
G01 X48.8951 Y57.3308 
G01 X48.9237 Y57.1873 
G01 X48.9796 Y57.0521 
G01 X49.0610 Y56.9304 
G01 X49.1644 Y56.8270 
G01 X49.2861 Y56.7457 
G01 X49.4213 Y56.6897 
G01 X49.5648 Y56.6611 
G01 X51.0192 Y56.6611 
G01 X51.1627 Y56.6897 
G01 X51.2979 Y56.7457 
G01 X51.4196 Y56.8270 
G01 X51.5230 Y56.9304 
G01 X51.6043 Y57.0521 
G01 X51.6603 Y57.1873 
G01 X51.6889 Y57.3308 
G01 X51.6889 Y57.4772 
G01 X51.6603 Y57.6207 
G01 X51.6043 Y57.7559 
G01 X51.5230 Y57.8776 
G01 X51.4196 Y57.9810 
G01 X51.2979 Y58.0623 
G01 X51.1627 Y58.1183 
G01 X51.0192 Y58.1469 
G00 Z2.5400 
G00 X51.0192 Y60.6869 
G01 Z-0.1000 F254.00 
G01 X49.5648 Y60.6869 F200.00 
G01 X49.4213 Y60.6583 
G01 X49.2861 Y60.6023 
G01 X49.1644 Y60.5210 
G01 X49.0610 Y60.4176 
G01 X48.9796 Y60.2959 
G01 X48.9237 Y60.1607 
G01 X48.8951 Y60.0172 
G01 X48.8951 Y59.8708 
G01 X48.9237 Y59.7273 
G01 X48.9796 Y59.5921 
G01 X49.0610 Y59.4704 
G01 X49.1644 Y59.3670 
G01 X49.2861 Y59.2857 
G01 X49.4213 Y59.2296 
G01 X49.5648 Y59.2011 
G01 X51.0192 Y59.2011 
G01 X51.1627 Y59.2296 
G01 X51.2979 Y59.2857 
G01 X51.4196 Y59.3670 
G01 X51.5230 Y59.4704 
G01 X51.6043 Y59.5921 
G01 X51.6603 Y59.7273 
G01 X51.6889 Y59.8708 
G01 X51.6889 Y60.0172 
G01 X51.6603 Y60.1607 
G01 X51.6043 Y60.2959 
G01 X51.5230 Y60.4176 
G01 X51.4196 Y60.5210 
G01 X51.2979 Y60.6023 
G01 X51.1627 Y60.6583 
G01 X51.0192 Y60.6869 
G00 Z2.5400 
G00 X51.0192 Y63.2269 
G01 Z-0.1000 F254.00 
G01 X49.5648 Y63.2269 F200.00 
G01 X49.4213 Y63.1983 
G01 X49.2861 Y63.1423 
G01 X49.1644 Y63.0610 
G01 X49.0610 Y62.9576 
G01 X48.9796 Y62.8359 
G01 X48.9237 Y62.7007 
G01 X48.8951 Y62.5572 
G01 X48.8951 Y62.4108 
G01 X48.9237 Y62.2673 
G01 X48.9796 Y62.1321 
G01 X49.0610 Y62.0104 
G01 X49.1644 Y61.9070 
G01 X49.2861 Y61.8257 
G01 X49.4213 Y61.7697 
G01 X49.5648 Y61.7411 
G01 X51.0192 Y61.7411 
G01 X51.1627 Y61.7697 
G01 X51.2979 Y61.8257 
G01 X51.4196 Y61.9070 
G01 X51.5230 Y62.0104 
G01 X51.6043 Y62.1321 
G01 X51.6603 Y62.2673 
G01 X51.6889 Y62.4108 
G01 X51.6889 Y62.5572 
G01 X51.6603 Y62.7007 
G01 X51.6043 Y62.8359 
G01 X51.5230 Y62.9576 
G01 X51.4196 Y63.0610 
G01 X51.2979 Y63.1423 
G01 X51.1627 Y63.1983 
G01 X51.0192 Y63.2269 
G00 Z2.5400 
G00 X51.0192 Y65.7669 
G01 Z-0.1000 F254.00 
G01 X49.5648 Y65.7669 F200.00 
G01 X49.4213 Y65.7383 
G01 X49.2861 Y65.6823 
G01 X49.1644 Y65.6010 
G01 X49.0610 Y65.4976 
G01 X48.9796 Y65.3759 
G01 X48.9237 Y65.2407 
G01 X48.8951 Y65.0972 
G01 X48.8951 Y64.9508 
G01 X48.9237 Y64.8073 
G01 X48.9796 Y64.6721 
G01 X49.0610 Y64.5504 
G01 X49.1644 Y64.4470 
G01 X49.2861 Y64.3657 
G01 X49.4213 Y64.3097 
G01 X49.5648 Y64.2811 
G01 X51.0192 Y64.2811 
G01 X51.1627 Y64.3097 
G01 X51.2979 Y64.3657 
G01 X51.4196 Y64.4470 
G01 X51.5230 Y64.5504 
G01 X51.6043 Y64.6721 
G01 X51.6603 Y64.8073 
G01 X51.6889 Y64.9508 
G01 X51.6889 Y65.0972 
G01 X51.6603 Y65.2407 
G01 X51.6043 Y65.3759 
G01 X51.5230 Y65.4976 
G01 X51.4196 Y65.6010 
G01 X51.2979 Y65.6823 
G01 X51.1627 Y65.7383 
G01 X51.0192 Y65.7669 
G00 Z2.5400 
G00 X51.0192 Y68.3069 
G01 Z-0.1000 F254.00 
G01 X49.5648 Y68.3069 F200.00 
G01 X49.4213 Y68.2783 
G01 X49.2861 Y68.2223 
G01 X49.1644 Y68.1410 
G01 X49.0610 Y68.0376 
G01 X48.9796 Y67.9159 
G01 X48.9237 Y67.7807 
G01 X48.8951 Y67.6372 
G01 X48.8951 Y67.4908 
G01 X48.9237 Y67.3473 
G01 X48.9796 Y67.2121 
G01 X49.0610 Y67.0904 
G01 X49.1644 Y66.9870 
G01 X49.2861 Y66.9057 
G01 X49.4213 Y66.8496 
G01 X49.5648 Y66.8211 
G01 X51.0192 Y66.8211 
G01 X51.1627 Y66.8496 
G01 X51.2979 Y66.9057 
G01 X51.4196 Y66.9870 
G01 X51.5230 Y67.0904 
G01 X51.6043 Y67.2121 
G01 X51.6603 Y67.3473 
G01 X51.6889 Y67.4908 
G01 X51.6889 Y67.6372 
G01 X51.6603 Y67.7807 
G01 X51.6043 Y67.9159 
G01 X51.5230 Y68.0376 
G01 X51.4196 Y68.1410 
G01 X51.2979 Y68.2223 
G01 X51.1627 Y68.2783 
G01 X51.0192 Y68.3069 
G00 Z2.5400 
G00 X34.1907 Y38.9327 
G01 Z-0.1000 F254.00 
G01 X34.1907 Y39.1353 F200.00 
G01 X34.1512 Y39.3341 
G01 X34.0736 Y39.5213 
G01 X33.9610 Y39.6898 
G01 X33.8178 Y39.8330 
G01 X33.6493 Y39.9456 
G01 X33.4621 Y40.0232 
G01 X33.2633 Y40.0627 
G01 X33.0607 Y40.0627 
G01 X32.8619 Y40.0232 
G01 X32.6747 Y39.9456 
G01 X32.5062 Y39.8330 
G01 X32.3630 Y39.6898 
G01 X32.2504 Y39.5213 
G01 X32.1728 Y39.3341 
G01 X32.1333 Y39.1353 
G01 X32.1333 Y38.9327 
G01 X32.1728 Y38.7339 
G01 X32.2504 Y38.5467 
G01 X32.3630 Y38.3782 
G01 X32.5062 Y38.2350 
G01 X32.6747 Y38.1224 
G01 X32.8619 Y38.0448 
G01 X33.0607 Y38.0053 
G01 X33.2633 Y38.0053 
G01 X33.4621 Y38.0448 
G01 X33.6493 Y38.1224 
G01 X33.8178 Y38.2350 
G01 X33.9610 Y38.3782 
G01 X34.0736 Y38.5467 
G01 X34.1512 Y38.7339 
G01 X34.1907 Y38.9327 
G00 Z2.5400 
G00 X41.8107 Y38.9327 
G01 Z-0.1000 F254.00 
G01 X41.8107 Y39.1353 F200.00 
G01 X41.7712 Y39.3341 
G01 X41.6936 Y39.5213 
G01 X41.5810 Y39.6898 
G01 X41.4378 Y39.8330 
G01 X41.2693 Y39.9456 
G01 X41.0821 Y40.0232 
G01 X40.8833 Y40.0627 
G01 X40.6807 Y40.0627 
G01 X40.4819 Y40.0232 
G01 X40.2947 Y39.9456 
G01 X40.1262 Y39.8330 
G01 X39.9830 Y39.6898 
G01 X39.8704 Y39.5213 
G01 X39.7928 Y39.3341 
G01 X39.7533 Y39.1353 
G01 X39.7533 Y38.9327 
G01 X39.7928 Y38.7339 
G01 X39.8704 Y38.5467 
G01 X39.9830 Y38.3782 
G01 X40.1262 Y38.2350 
G01 X40.2947 Y38.1224 
G01 X40.4819 Y38.0448 
G01 X40.6807 Y38.0053 
G01 X40.8833 Y38.0053 
G01 X41.0821 Y38.0448 
G01 X41.2693 Y38.1224 
G01 X41.4378 Y38.2350 
G01 X41.5810 Y38.3782 
G01 X41.6936 Y38.5467 
G01 X41.7712 Y38.7339 
G01 X41.8107 Y38.9327 
G00 Z2.5400 
G00 X31.0007 Y54.7627 
G01 Z-0.1000 F254.00 
G01 X31.0007 Y54.9653 F200.00 
G01 X30.9612 Y55.1641 
G01 X30.8836 Y55.3513 
G01 X30.7710 Y55.5198 
G01 X30.6278 Y55.6630 
G01 X30.4593 Y55.7756 
G01 X30.2721 Y55.8532 
G01 X30.0733 Y55.8927 
G01 X29.8707 Y55.8927 
G01 X29.6719 Y55.8532 
G01 X29.4847 Y55.7756 
G01 X29.3162 Y55.6630 
G01 X29.1730 Y55.5198 
G01 X29.0604 Y55.3513 
G01 X28.9828 Y55.1641 
G01 X28.9433 Y54.9653 
G01 X28.9433 Y54.7627 
G01 X28.9828 Y54.5639 
G01 X29.0604 Y54.3767 
G01 X29.1730 Y54.2082 
G01 X29.3162 Y54.0650 
G01 X29.4847 Y53.9524 
G01 X29.6719 Y53.8748 
G01 X29.8707 Y53.8353 
G01 X30.0733 Y53.8353 
G01 X30.2721 Y53.8748 
G01 X30.4593 Y53.9524 
G01 X30.6278 Y54.0650 
G01 X30.7710 Y54.2082 
G01 X30.8836 Y54.3767 
G01 X30.9612 Y54.5639 
G01 X31.0007 Y54.7627 
G00 Z2.5400 
G00 X31.0007 Y47.1427 
G01 Z-0.1000 F254.00 
G01 X31.0007 Y47.3453 F200.00 
G01 X30.9612 Y47.5441 
G01 X30.8836 Y47.7313 
G01 X30.7710 Y47.8998 
G01 X30.6278 Y48.0430 
G01 X30.4593 Y48.1556 
G01 X30.2721 Y48.2332 
G01 X30.0733 Y48.2727 
G01 X29.8707 Y48.2727 
G01 X29.6719 Y48.2332 
G01 X29.4847 Y48.1556 
G01 X29.3162 Y48.0430 
G01 X29.1730 Y47.8998 
G01 X29.0604 Y47.7313 
G01 X28.9828 Y47.5441 
G01 X28.9433 Y47.3453 
G01 X28.9433 Y47.1427 
G01 X28.9828 Y46.9439 
G01 X29.0604 Y46.7567 
G01 X29.1730 Y46.5882 
G01 X29.3162 Y46.4450 
G01 X29.4847 Y46.3324 
G01 X29.6719 Y46.2548 
G01 X29.8707 Y46.2153 
G01 X30.0733 Y46.2153 
G01 X30.2721 Y46.2548 
G01 X30.4593 Y46.3324 
G01 X30.6278 Y46.4450 
G01 X30.7710 Y46.5882 
G01 X30.8836 Y46.7567 
G01 X30.9612 Y46.9439 
G01 X31.0007 Y47.1427 
G00 Z2.5400 
G00 X41.1607 Y50.9527 
G01 Z-0.1000 F254.00 
G01 X41.1607 Y51.1553 F200.00 
G01 X41.1212 Y51.3541 
G01 X41.0436 Y51.5413 
G01 X40.9310 Y51.7098 
G01 X40.7878 Y51.8530 
G01 X40.6193 Y51.9656 
G01 X40.4321 Y52.0432 
G01 X40.2333 Y52.0827 
G01 X40.0307 Y52.0827 
G01 X39.8319 Y52.0432 
G01 X39.6447 Y51.9656 
G01 X39.4762 Y51.8530 
G01 X39.3330 Y51.7098 
G01 X39.2204 Y51.5413 
G01 X39.1428 Y51.3541 
G01 X39.1033 Y51.1553 
G01 X39.1033 Y50.9527 
G01 X39.1428 Y50.7539 
G01 X39.2204 Y50.5667 
G01 X39.3330 Y50.3982 
G01 X39.4762 Y50.2550 
G01 X39.6447 Y50.1424 
G01 X39.8319 Y50.0648 
G01 X40.0307 Y50.0253 
G01 X40.2333 Y50.0253 
G01 X40.4321 Y50.0648 
G01 X40.6193 Y50.1424 
G01 X40.7878 Y50.2550 
G01 X40.9310 Y50.3982 
G01 X41.0436 Y50.5667 
G01 X41.1212 Y50.7539 
G01 X41.1607 Y50.9527 
G00 Z2.5400 
G00 X33.5407 Y50.9527 
G01 Z-0.1000 F254.00 
G01 X33.5407 Y51.1553 F200.00 
G01 X33.5012 Y51.3541 
G01 X33.4236 Y51.5413 
G01 X33.3110 Y51.7098 
G01 X33.1678 Y51.8530 
G01 X32.9993 Y51.9656 
G01 X32.8121 Y52.0432 
G01 X32.6133 Y52.0827 
G01 X32.4107 Y52.0827 
G01 X32.2119 Y52.0432 
G01 X32.0247 Y51.9656 
G01 X31.8562 Y51.8530 
G01 X31.7130 Y51.7098 
G01 X31.6004 Y51.5413 
G01 X31.5228 Y51.3541 
G01 X31.4833 Y51.1553 
G01 X31.4833 Y50.9527 
G01 X31.5228 Y50.7539 
G01 X31.6004 Y50.5667 
G01 X31.7130 Y50.3982 
G01 X31.8562 Y50.2550 
G01 X32.0247 Y50.1424 
G01 X32.2119 Y50.0648 
G01 X32.4107 Y50.0253 
G01 X32.6133 Y50.0253 
G01 X32.8121 Y50.0648 
G01 X32.9993 Y50.1424 
G01 X33.1678 Y50.2550 
G01 X33.3110 Y50.3982 
G01 X33.4236 Y50.5667 
G01 X33.5012 Y50.7539 
G01 X33.5407 Y50.9527 
G00 Z2.5400 
G00 X31.0007 Y38.2527 
G01 Z-0.1000 F254.00 
G01 X31.0007 Y38.4553 F200.00 
G01 X30.9612 Y38.6541 
G01 X30.8836 Y38.8413 
G01 X30.7710 Y39.0098 
G01 X30.6278 Y39.1530 
G01 X30.4593 Y39.2656 
G01 X30.2721 Y39.3432 
G01 X30.0733 Y39.3827 
G01 X29.8707 Y39.3827 
G01 X29.6719 Y39.3432 
G01 X29.4847 Y39.2656 
G01 X29.3162 Y39.1530 
G01 X29.1730 Y39.0098 
G01 X29.0604 Y38.8413 
G01 X28.9828 Y38.6541 
G01 X28.9433 Y38.4553 
G01 X28.9433 Y38.2527 
G01 X28.9828 Y38.0539 
G01 X29.0604 Y37.8667 
G01 X29.1730 Y37.6982 
G01 X29.3162 Y37.5550 
G01 X29.4847 Y37.4424 
G01 X29.6719 Y37.3648 
G01 X29.8707 Y37.3253 
G01 X30.0733 Y37.3253 
G01 X30.2721 Y37.3648 
G01 X30.4593 Y37.4424 
G01 X30.6278 Y37.5550 
G01 X30.7710 Y37.6982 
G01 X30.8836 Y37.8667 
G01 X30.9612 Y38.0539 
G01 X31.0007 Y38.2527 
G00 Z2.5400 
G00 X31.0007 Y30.6327 
G01 Z-0.1000 F254.00 
G01 X31.0007 Y30.8353 F200.00 
G01 X30.9612 Y31.0341 
G01 X30.8836 Y31.2213 
G01 X30.7710 Y31.3898 
G01 X30.6278 Y31.5330 
G01 X30.4593 Y31.6456 
G01 X30.2721 Y31.7232 
G01 X30.0733 Y31.7627 
G01 X29.8707 Y31.7627 
G01 X29.6719 Y31.7232 
G01 X29.4847 Y31.6456 
G01 X29.3162 Y31.5330 
G01 X29.1730 Y31.3898 
G01 X29.0604 Y31.2213 
G01 X28.9828 Y31.0341 
G01 X28.9433 Y30.8353 
G01 X28.9433 Y30.6327 
G01 X28.9828 Y30.4339 
G01 X29.0604 Y30.2467 
G01 X29.1730 Y30.0782 
G01 X29.3162 Y29.9350 
G01 X29.4847 Y29.8224 
G01 X29.6719 Y29.7448 
G01 X29.8707 Y29.7053 
G01 X30.0733 Y29.7053 
G01 X30.2721 Y29.7448 
G01 X30.4593 Y29.8224 
G01 X30.6278 Y29.9350 
G01 X30.7710 Y30.0782 
G01 X30.8836 Y30.2467 
G01 X30.9612 Y30.4339 
G01 X31.0007 Y30.6327 
G00 Z2.5400 
G00 X41.4857 Y35.4177 
G01 Z-0.1000 F254.00 
G01 X41.4857 Y35.6203 F200.00 
G01 X41.4462 Y35.8191 
G01 X41.3686 Y36.0063 
G01 X41.2560 Y36.1748 
G01 X41.1128 Y36.3180 
G01 X40.9443 Y36.4306 
G01 X40.7571 Y36.5082 
G01 X40.5583 Y36.5477 
G01 X40.3557 Y36.5477 
G01 X40.1569 Y36.5082 
G01 X39.9697 Y36.4306 
G01 X39.8012 Y36.3180 
G01 X39.6580 Y36.1748 
G01 X39.5454 Y36.0063 
G01 X39.4678 Y35.8191 
G01 X39.4283 Y35.6203 
G01 X39.4283 Y35.4177 
G01 X39.4678 Y35.2189 
G01 X39.5454 Y35.0317 
G01 X39.6580 Y34.8632 
G01 X39.8012 Y34.7200 
G01 X39.9697 Y34.6074 
G01 X40.1569 Y34.5298 
G01 X40.3557 Y34.4903 
G01 X40.5583 Y34.4903 
G01 X40.7571 Y34.5298 
G01 X40.9443 Y34.6074 
G01 X41.1128 Y34.7200 
G01 X41.2560 Y34.8632 
G01 X41.3686 Y35.0317 
G01 X41.4462 Y35.2189 
G01 X41.4857 Y35.4177 
G00 Z2.5400 
G00 X33.8657 Y35.4177 
G01 Z-0.1000 F254.00 
G01 X33.8657 Y35.6203 F200.00 
G01 X33.8262 Y35.8191 
G01 X33.7486 Y36.0063 
G01 X33.6360 Y36.1748 
G01 X33.4928 Y36.3180 
G01 X33.3243 Y36.4306 
G01 X33.1371 Y36.5082 
G01 X32.9383 Y36.5477 
G01 X32.7357 Y36.5477 
G01 X32.5369 Y36.5082 
G01 X32.3497 Y36.4306 
G01 X32.1812 Y36.3180 
G01 X32.0380 Y36.1748 
G01 X31.9254 Y36.0063 
G01 X31.8478 Y35.8191 
G01 X31.8083 Y35.6203 
G01 X31.8083 Y35.4177 
G01 X31.8478 Y35.2189 
G01 X31.9254 Y35.0317 
G01 X32.0380 Y34.8632 
G01 X32.1812 Y34.7200 
G01 X32.3497 Y34.6074 
G01 X32.5369 Y34.5298 
G01 X32.7357 Y34.4903 
G01 X32.9383 Y34.4903 
G01 X33.1371 Y34.5298 
G01 X33.3243 Y34.6074 
G01 X33.4928 Y34.7200 
G01 X33.6360 Y34.8632 
G01 X33.7486 Y35.0317 
G01 X33.8262 Y35.2189 
G01 X33.8657 Y35.4177 
G00 Z2.5400 
G00 X81.1507 Y24.2827 
G01 Z-0.1000 F254.00 
G01 X81.1507 Y24.4853 F200.00 
G01 X81.1112 Y24.6841 
G01 X81.0336 Y24.8713 
G01 X80.9210 Y25.0398 
G01 X80.7778 Y25.1830 
G01 X80.6093 Y25.2956 
G01 X80.4221 Y25.3732 
G01 X80.2233 Y25.4127 
G01 X80.0207 Y25.4127 
G01 X79.8219 Y25.3732 
G01 X79.6347 Y25.2956 
G01 X79.4662 Y25.1830 
G01 X79.3230 Y25.0398 
G01 X79.2104 Y24.8713 
G01 X79.1328 Y24.6841 
G01 X79.0933 Y24.4853 
G01 X79.0933 Y24.2827 
G01 X79.1328 Y24.0839 
G01 X79.2104 Y23.8967 
G01 X79.3230 Y23.7282 
G01 X79.4662 Y23.5850 
G01 X79.6347 Y23.4724 
G01 X79.8219 Y23.3948 
G01 X80.0207 Y23.3553 
G01 X80.2233 Y23.3553 
G01 X80.4221 Y23.3948 
G01 X80.6093 Y23.4724 
G01 X80.7778 Y23.5850 
G01 X80.9210 Y23.7282 
G01 X81.0336 Y23.8967 
G01 X81.1112 Y24.0839 
G01 X81.1507 Y24.2827 
G00 Z2.5400 
G00 X81.1507 Y31.9027 
G01 Z-0.1000 F254.00 
G01 X81.1507 Y32.1053 F200.00 
G01 X81.1112 Y32.3041 
G01 X81.0336 Y32.4913 
G01 X80.9210 Y32.6598 
G01 X80.7778 Y32.8030 
G01 X80.6093 Y32.9156 
G01 X80.4221 Y32.9932 
G01 X80.2233 Y33.0327 
G01 X80.0207 Y33.0327 
G01 X79.8219 Y32.9932 
G01 X79.6347 Y32.9156 
G01 X79.4662 Y32.8030 
G01 X79.3230 Y32.6598 
G01 X79.2104 Y32.4913 
G01 X79.1328 Y32.3041 
G01 X79.0933 Y32.1053 
G01 X79.0933 Y31.9027 
G01 X79.1328 Y31.7039 
G01 X79.2104 Y31.5167 
G01 X79.3230 Y31.3482 
G01 X79.4662 Y31.2050 
G01 X79.6347 Y31.0924 
G01 X79.8219 Y31.0148 
G01 X80.0207 Y30.9753 
G01 X80.2233 Y30.9753 
G01 X80.4221 Y31.0148 
G01 X80.6093 Y31.0924 
G01 X80.7778 Y31.2050 
G01 X80.9210 Y31.3482 
G01 X81.0336 Y31.5167 
G01 X81.1112 Y31.7039 
G01 X81.1507 Y31.9027 
G00 Z2.5400 
G00 X81.8007 Y38.2527 
G01 Z-0.1000 F254.00 
G01 X81.8007 Y38.4553 F200.00 
G01 X81.7612 Y38.6541 
G01 X81.6836 Y38.8413 
G01 X81.5710 Y39.0098 
G01 X81.4278 Y39.1530 
G01 X81.2593 Y39.2656 
G01 X81.0721 Y39.3432 
G01 X80.8733 Y39.3827 
G01 X80.6707 Y39.3827 
G01 X80.4719 Y39.3432 
G01 X80.2847 Y39.2656 
G01 X80.1162 Y39.1530 
G01 X79.9730 Y39.0098 
G01 X79.8604 Y38.8413 
G01 X79.7828 Y38.6541 
G01 X79.7433 Y38.4553 
G01 X79.7433 Y38.2527 
G01 X79.7828 Y38.0539 
G01 X79.8604 Y37.8667 
G01 X79.9730 Y37.6982 
G01 X80.1162 Y37.5550 
G01 X80.2847 Y37.4424 
G01 X80.4719 Y37.3648 
G01 X80.6707 Y37.3253 
G01 X80.8733 Y37.3253 
G01 X81.0721 Y37.3648 
G01 X81.2593 Y37.4424 
G01 X81.4278 Y37.5550 
G01 X81.5710 Y37.6982 
G01 X81.6836 Y37.8667 
G01 X81.7612 Y38.0539 
G01 X81.8007 Y38.2527 
G00 Z2.5400 
G00 X81.8007 Y45.8727 
G01 Z-0.1000 F254.00 
G01 X81.8007 Y46.0753 F200.00 
G01 X81.7612 Y46.2741 
G01 X81.6836 Y46.4613 
G01 X81.5710 Y46.6298 
G01 X81.4278 Y46.7730 
G01 X81.2593 Y46.8856 
G01 X81.0721 Y46.9632 
G01 X80.8733 Y47.0027 
G01 X80.6707 Y47.0027 
G01 X80.4719 Y46.9632 
G01 X80.2847 Y46.8856 
G01 X80.1162 Y46.7730 
G01 X79.9730 Y46.6298 
G01 X79.8604 Y46.4613 
G01 X79.7828 Y46.2741 
G01 X79.7433 Y46.0753 
G01 X79.7433 Y45.8727 
G01 X79.7828 Y45.6739 
G01 X79.8604 Y45.4867 
G01 X79.9730 Y45.3182 
G01 X80.1162 Y45.1750 
G01 X80.2847 Y45.0624 
G01 X80.4719 Y44.9848 
G01 X80.6707 Y44.9453 
G01 X80.8733 Y44.9453 
G01 X81.0721 Y44.9848 
G01 X81.2593 Y45.0624 
G01 X81.4278 Y45.1750 
G01 X81.5710 Y45.3182 
G01 X81.6836 Y45.4867 
G01 X81.7612 Y45.6739 
G01 X81.8007 Y45.8727 
G00 Z2.5400 
G00 X20.8407 Y70.9777 
G01 Z-0.1000 F254.00 
G01 X20.8407 Y71.1803 F200.00 
G01 X20.8012 Y71.3791 
G01 X20.7236 Y71.5663 
G01 X20.6110 Y71.7348 
G01 X20.4678 Y71.8780 
G01 X20.2993 Y71.9906 
G01 X20.1121 Y72.0682 
G01 X19.9133 Y72.1077 
G01 X19.7107 Y72.1077 
G01 X19.5119 Y72.0682 
G01 X19.3247 Y71.9906 
G01 X19.1562 Y71.8780 
G01 X19.0130 Y71.7348 
G01 X18.9004 Y71.5663 
G01 X18.8228 Y71.3791 
G01 X18.7833 Y71.1803 
G01 X18.7833 Y70.9777 
G01 X18.8228 Y70.7789 
G01 X18.9004 Y70.5917 
G01 X19.0130 Y70.4232 
G01 X19.1562 Y70.2800 
G01 X19.3247 Y70.1674 
G01 X19.5119 Y70.0898 
G01 X19.7107 Y70.0503 
G01 X19.9133 Y70.0503 
G01 X20.1121 Y70.0898 
G01 X20.2993 Y70.1674 
G01 X20.4678 Y70.2800 
G01 X20.6110 Y70.4232 
G01 X20.7236 Y70.5917 
G01 X20.8012 Y70.7789 
G01 X20.8407 Y70.9777 
G00 Z2.5400 
G00 X13.2207 Y70.9777 
G01 Z-0.1000 F254.00 
G01 X13.2207 Y71.1803 F200.00 
G01 X13.1812 Y71.3791 
G01 X13.1036 Y71.5663 
G01 X12.9910 Y71.7348 
G01 X12.8478 Y71.8780 
G01 X12.6793 Y71.9906 
G01 X12.4921 Y72.0682 
G01 X12.2933 Y72.1077 
G01 X12.0907 Y72.1077 
G01 X11.8919 Y72.0682 
G01 X11.7047 Y71.9906 
G01 X11.5362 Y71.8780 
G01 X11.3930 Y71.7348 
G01 X11.2804 Y71.5663 
G01 X11.2028 Y71.3791 
G01 X11.1633 Y71.1803 
G01 X11.1633 Y70.9777 
G01 X11.2028 Y70.7789 
G01 X11.2804 Y70.5917 
G01 X11.3930 Y70.4232 
G01 X11.5362 Y70.2800 
G01 X11.7047 Y70.1674 
G01 X11.8919 Y70.0898 
G01 X12.0907 Y70.0503 
G01 X12.2933 Y70.0503 
G01 X12.4921 Y70.0898 
G01 X12.6793 Y70.1674 
G01 X12.8478 Y70.2800 
G01 X12.9910 Y70.4232 
G01 X13.1036 Y70.5917 
G01 X13.1812 Y70.7789 
G01 X13.2207 Y70.9777 
G00 Z2.5400 
G00 X35.4907 Y70.0327 
G01 Z-0.1000 F254.00 
G01 X35.4907 Y70.2353 F200.00 
G01 X35.4512 Y70.4341 
G01 X35.3736 Y70.6213 
G01 X35.2610 Y70.7898 
G01 X35.1178 Y70.9330 
G01 X34.9493 Y71.0456 
G01 X34.7621 Y71.1232 
G01 X34.5633 Y71.1627 
G01 X34.3607 Y71.1627 
G01 X34.1619 Y71.1232 
G01 X33.9747 Y71.0456 
G01 X33.8062 Y70.9330 
G01 X33.6630 Y70.7898 
G01 X33.5504 Y70.6213 
G01 X33.4728 Y70.4341 
G01 X33.4333 Y70.2353 
G01 X33.4333 Y70.0327 
G01 X33.4728 Y69.8339 
G01 X33.5504 Y69.6467 
G01 X33.6630 Y69.4782 
G01 X33.8062 Y69.3350 
G01 X33.9747 Y69.2224 
G01 X34.1619 Y69.1448 
G01 X34.3607 Y69.1053 
G01 X34.5633 Y69.1053 
G01 X34.7621 Y69.1448 
G01 X34.9493 Y69.2224 
G01 X35.1178 Y69.3350 
G01 X35.2610 Y69.4782 
G01 X35.3736 Y69.6467 
G01 X35.4512 Y69.8339 
G01 X35.4907 Y70.0327 
G00 Z2.5400 
G00 X43.1107 Y70.0327 
G01 Z-0.1000 F254.00 
G01 X43.1107 Y70.2353 F200.00 
G01 X43.0712 Y70.4341 
G01 X42.9936 Y70.6213 
G01 X42.8810 Y70.7898 
G01 X42.7378 Y70.9330 
G01 X42.5693 Y71.0456 
G01 X42.3821 Y71.1232 
G01 X42.1833 Y71.1627 
G01 X41.9807 Y71.1627 
G01 X41.7819 Y71.1232 
G01 X41.5947 Y71.0456 
G01 X41.4262 Y70.9330 
G01 X41.2830 Y70.7898 
G01 X41.1704 Y70.6213 
G01 X41.0928 Y70.4341 
G01 X41.0533 Y70.2353 
G01 X41.0533 Y70.0327 
G01 X41.0928 Y69.8339 
G01 X41.1704 Y69.6467 
G01 X41.2830 Y69.4782 
G01 X41.4262 Y69.3350 
G01 X41.5947 Y69.2224 
G01 X41.7819 Y69.1448 
G01 X41.9807 Y69.1053 
G01 X42.1833 Y69.1053 
G01 X42.3821 Y69.1448 
G01 X42.5693 Y69.2224 
G01 X42.7378 Y69.3350 
G01 X42.8810 Y69.4782 
G01 X42.9936 Y69.6467 
G01 X43.0712 Y69.8339 
G01 X43.1107 Y70.0327 
G00 Z2.5400 
G00 X32.3007 Y71.3027 
G01 Z-0.1000 F254.00 
G01 X32.3007 Y71.5053 F200.00 
G01 X32.2612 Y71.7041 
G01 X32.1836 Y71.8913 
G01 X32.0710 Y72.0598 
G01 X31.9278 Y72.2030 
G01 X31.7593 Y72.3156 
G01 X31.5721 Y72.3932 
G01 X31.3733 Y72.4327 
G01 X31.1707 Y72.4327 
G01 X30.9719 Y72.3932 
G01 X30.7847 Y72.3156 
G01 X30.6162 Y72.2030 
G01 X30.4730 Y72.0598 
G01 X30.3604 Y71.8913 
G01 X30.2828 Y71.7041 
G01 X30.2433 Y71.5053 
G01 X30.2433 Y71.3027 
G01 X30.2828 Y71.1039 
G01 X30.3604 Y70.9167 
G01 X30.4730 Y70.7482 
G01 X30.6162 Y70.6050 
G01 X30.7847 Y70.4924 
G01 X30.9719 Y70.4148 
G01 X31.1707 Y70.3753 
G01 X31.3733 Y70.3753 
G01 X31.5721 Y70.4148 
G01 X31.7593 Y70.4924 
G01 X31.9278 Y70.6050 
G01 X32.0710 Y70.7482 
G01 X32.1836 Y70.9167 
G01 X32.2612 Y71.1039 
G01 X32.3007 Y71.3027 
G00 Z2.5400 
G00 X32.3007 Y63.6827 
G01 Z-0.1000 F254.00 
G01 X32.3007 Y63.8853 F200.00 
G01 X32.2612 Y64.0841 
G01 X32.1836 Y64.2713 
G01 X32.0710 Y64.4398 
G01 X31.9278 Y64.5830 
G01 X31.7593 Y64.6956 
G01 X31.5721 Y64.7732 
G01 X31.3733 Y64.8127 
G01 X31.1707 Y64.8127 
G01 X30.9719 Y64.7732 
G01 X30.7847 Y64.6956 
G01 X30.6162 Y64.5830 
G01 X30.4730 Y64.4398 
G01 X30.3604 Y64.2713 
G01 X30.2828 Y64.0841 
G01 X30.2433 Y63.8853 
G01 X30.2433 Y63.6827 
G01 X30.2828 Y63.4839 
G01 X30.3604 Y63.2967 
G01 X30.4730 Y63.1282 
G01 X30.6162 Y62.9850 
G01 X30.7847 Y62.8724 
G01 X30.9719 Y62.7948 
G01 X31.1707 Y62.7553 
G01 X31.3733 Y62.7553 
G01 X31.5721 Y62.7948 
G01 X31.7593 Y62.8724 
G01 X31.9278 Y62.9850 
G01 X32.0710 Y63.1282 
G01 X32.1836 Y63.2967 
G01 X32.2612 Y63.4839 
G01 X32.3007 Y63.6827 
G00 Z2.5400 
G00 X43.1107 Y66.1927 
G01 Z-0.1000 F254.00 
G01 X43.1107 Y66.3953 F200.00 
G01 X43.0712 Y66.5941 
G01 X42.9936 Y66.7813 
G01 X42.8810 Y66.9498 
G01 X42.7378 Y67.0930 
G01 X42.5693 Y67.2056 
G01 X42.3821 Y67.2832 
G01 X42.1833 Y67.3227 
G01 X41.9807 Y67.3227 
G01 X41.7819 Y67.2832 
G01 X41.5947 Y67.2056 
G01 X41.4262 Y67.0930 
G01 X41.2830 Y66.9498 
G01 X41.1704 Y66.7813 
G01 X41.0928 Y66.5941 
G01 X41.0533 Y66.3953 
G01 X41.0533 Y66.1927 
G01 X41.0928 Y65.9939 
G01 X41.1704 Y65.8067 
G01 X41.2830 Y65.6382 
G01 X41.4262 Y65.4950 
G01 X41.5947 Y65.3824 
G01 X41.7819 Y65.3048 
G01 X41.9807 Y65.2653 
G01 X42.1833 Y65.2653 
G01 X42.3821 Y65.3048 
G01 X42.5693 Y65.3824 
G01 X42.7378 Y65.4950 
G01 X42.8810 Y65.6382 
G01 X42.9936 Y65.8067 
G01 X43.0712 Y65.9939 
G01 X43.1107 Y66.1927 
G00 Z2.5400 
G00 X35.4907 Y66.1927 
G01 Z-0.1000 F254.00 
G01 X35.4907 Y66.3953 F200.00 
G01 X35.4512 Y66.5941 
G01 X35.3736 Y66.7813 
G01 X35.2610 Y66.9498 
G01 X35.1178 Y67.0930 
G01 X34.9493 Y67.2056 
G01 X34.7621 Y67.2832 
G01 X34.5633 Y67.3227 
G01 X34.3607 Y67.3227 
G01 X34.1619 Y67.2832 
G01 X33.9747 Y67.2056 
G01 X33.8062 Y67.0930 
G01 X33.6630 Y66.9498 
G01 X33.5504 Y66.7813 
G01 X33.4728 Y66.5941 
G01 X33.4333 Y66.3953 
G01 X33.4333 Y66.1927 
G01 X33.4728 Y65.9939 
G01 X33.5504 Y65.8067 
G01 X33.6630 Y65.6382 
G01 X33.8062 Y65.4950 
G01 X33.9747 Y65.3824 
G01 X34.1619 Y65.3048 
G01 X34.3607 Y65.2653 
G01 X34.5633 Y65.2653 
G01 X34.7621 Y65.3048 
G01 X34.9493 Y65.3824 
G01 X35.1178 Y65.4950 
G01 X35.2610 Y65.6382 
G01 X35.3736 Y65.8067 
G01 X35.4512 Y65.9939 
G01 X35.4907 Y66.1927 
G00 Z2.5400 
G00 X79.2607 Y50.9527 
G01 Z-0.1000 F254.00 
G01 X79.2607 Y51.1553 F200.00 
G01 X79.2212 Y51.3541 
G01 X79.1436 Y51.5413 
G01 X79.0310 Y51.7098 
G01 X78.8878 Y51.8530 
G01 X78.7193 Y51.9656 
G01 X78.5321 Y52.0432 
G01 X78.3333 Y52.0827 
G01 X78.1307 Y52.0827 
G01 X77.9319 Y52.0432 
G01 X77.7447 Y51.9656 
G01 X77.5762 Y51.8530 
G01 X77.4330 Y51.7098 
G01 X77.3204 Y51.5413 
G01 X77.2428 Y51.3541 
G01 X77.2033 Y51.1553 
G01 X77.2033 Y50.9527 
G01 X77.2428 Y50.7539 
G01 X77.3204 Y50.5667 
G01 X77.4330 Y50.3982 
G01 X77.5762 Y50.2550 
G01 X77.7447 Y50.1424 
G01 X77.9319 Y50.0648 
G01 X78.1307 Y50.0253 
G01 X78.3333 Y50.0253 
G01 X78.5321 Y50.0648 
G01 X78.7193 Y50.1424 
G01 X78.8878 Y50.2550 
G01 X79.0310 Y50.3982 
G01 X79.1436 Y50.5667 
G01 X79.2212 Y50.7539 
G01 X79.2607 Y50.9527 
G00 Z2.5400 
G00 X79.2607 Y58.5727 
G01 Z-0.1000 F254.00 
G01 X79.2607 Y58.7753 F200.00 
G01 X79.2212 Y58.9741 
G01 X79.1436 Y59.1613 
G01 X79.0310 Y59.3298 
G01 X78.8878 Y59.4730 
G01 X78.7193 Y59.5856 
G01 X78.5321 Y59.6632 
G01 X78.3333 Y59.7027 
G01 X78.1307 Y59.7027 
G01 X77.9319 Y59.6632 
G01 X77.7447 Y59.5856 
G01 X77.5762 Y59.4730 
G01 X77.4330 Y59.3298 
G01 X77.3204 Y59.1613 
G01 X77.2428 Y58.9741 
G01 X77.2033 Y58.7753 
G01 X77.2033 Y58.5727 
G01 X77.2428 Y58.3739 
G01 X77.3204 Y58.1867 
G01 X77.4330 Y58.0182 
G01 X77.5762 Y57.8750 
G01 X77.7447 Y57.7624 
G01 X77.9319 Y57.6848 
G01 X78.1307 Y57.6453 
G01 X78.3333 Y57.6453 
G01 X78.5321 Y57.6848 
G01 X78.7193 Y57.7624 
G01 X78.8878 Y57.8750 
G01 X79.0310 Y58.0182 
G01 X79.1436 Y58.1867 
G01 X79.2212 Y58.3739 
G01 X79.2607 Y58.5727 
G00 Z2.5400 
G00 X71.6407 Y53.4927 
G01 Z-0.1000 F254.00 
G01 X71.6407 Y53.6953 F200.00 
G01 X71.6012 Y53.8941 
G01 X71.5236 Y54.0813 
G01 X71.4110 Y54.2498 
G01 X71.2678 Y54.3930 
G01 X71.0993 Y54.5056 
G01 X70.9121 Y54.5832 
G01 X70.7133 Y54.6227 
G01 X70.5107 Y54.6227 
G01 X70.3119 Y54.5832 
G01 X70.1247 Y54.5056 
G01 X69.9562 Y54.3930 
G01 X69.8130 Y54.2498 
G01 X69.7004 Y54.0813 
G01 X69.6228 Y53.8941 
G01 X69.5833 Y53.6953 
G01 X69.5833 Y53.4927 
G01 X69.6228 Y53.2939 
G01 X69.7004 Y53.1067 
G01 X69.8130 Y52.9382 
G01 X69.9562 Y52.7950 
G01 X70.1247 Y52.6824 
G01 X70.3119 Y52.6048 
G01 X70.5107 Y52.5653 
G01 X70.7133 Y52.5653 
G01 X70.9121 Y52.6048 
G01 X71.0993 Y52.6824 
G01 X71.2678 Y52.7950 
G01 X71.4110 Y52.9382 
G01 X71.5236 Y53.1067 
G01 X71.6012 Y53.2939 
G01 X71.6407 Y53.4927 
G00 Z2.5400 
G00 X71.6407 Y45.8727 
G01 Z-0.1000 F254.00 
G01 X71.6407 Y46.0753 F200.00 
G01 X71.6012 Y46.2741 
G01 X71.5236 Y46.4613 
G01 X71.4110 Y46.6298 
G01 X71.2678 Y46.7730 
G01 X71.0993 Y46.8856 
G01 X70.9121 Y46.9632 
G01 X70.7133 Y47.0027 
G01 X70.5107 Y47.0027 
G01 X70.3119 Y46.9632 
G01 X70.1247 Y46.8856 
G01 X69.9562 Y46.7730 
G01 X69.8130 Y46.6298 
G01 X69.7004 Y46.4613 
G01 X69.6228 Y46.2741 
G01 X69.5833 Y46.0753 
G01 X69.5833 Y45.8727 
G01 X69.6228 Y45.6739 
G01 X69.7004 Y45.4867 
G01 X69.8130 Y45.3182 
G01 X69.9562 Y45.1750 
G01 X70.1247 Y45.0624 
G01 X70.3119 Y44.9848 
G01 X70.5107 Y44.9453 
G01 X70.7133 Y44.9453 
G01 X70.9121 Y44.9848 
G01 X71.0993 Y45.0624 
G01 X71.2678 Y45.1750 
G01 X71.4110 Y45.3182 
G01 X71.5236 Y45.4867 
G01 X71.6012 Y45.6739 
G01 X71.6407 Y45.8727 
G00 Z2.5400 
G00 X74.1807 Y50.9527 
G01 Z-0.1000 F254.00 
G01 X74.1807 Y51.1553 F200.00 
G01 X74.1412 Y51.3541 
G01 X74.0636 Y51.5413 
G01 X73.9510 Y51.7098 
G01 X73.8078 Y51.8530 
G01 X73.6393 Y51.9656 
G01 X73.4521 Y52.0432 
G01 X73.2533 Y52.0827 
G01 X73.0507 Y52.0827 
G01 X72.8519 Y52.0432 
G01 X72.6647 Y51.9656 
G01 X72.4962 Y51.8530 
G01 X72.3530 Y51.7098 
G01 X72.2404 Y51.5413 
G01 X72.1628 Y51.3541 
G01 X72.1233 Y51.1553 
G01 X72.1233 Y50.9527 
G01 X72.1628 Y50.7539 
G01 X72.2404 Y50.5667 
G01 X72.3530 Y50.3982 
G01 X72.4962 Y50.2550 
G01 X72.6647 Y50.1424 
G01 X72.8519 Y50.0648 
G01 X73.0507 Y50.0253 
G01 X73.2533 Y50.0253 
G01 X73.4521 Y50.0648 
G01 X73.6393 Y50.1424 
G01 X73.8078 Y50.2550 
G01 X73.9510 Y50.3982 
G01 X74.0636 Y50.5667 
G01 X74.1412 Y50.7539 
G01 X74.1807 Y50.9527 
G00 Z2.5400 
G00 X74.1807 Y58.5727 
G01 Z-0.1000 F254.00 
G01 X74.1807 Y58.7753 F200.00 
G01 X74.1412 Y58.9741 
G01 X74.0636 Y59.1613 
G01 X73.9510 Y59.3298 
G01 X73.8078 Y59.4730 
G01 X73.6393 Y59.5856 
G01 X73.4521 Y59.6632 
G01 X73.2533 Y59.7027 
G01 X73.0507 Y59.7027 
G01 X72.8519 Y59.6632 
G01 X72.6647 Y59.5856 
G01 X72.4962 Y59.4730 
G01 X72.3530 Y59.3298 
G01 X72.2404 Y59.1613 
G01 X72.1628 Y58.9741 
G01 X72.1233 Y58.7753 
G01 X72.1233 Y58.5727 
G01 X72.1628 Y58.3739 
G01 X72.2404 Y58.1867 
G01 X72.3530 Y58.0182 
G01 X72.4962 Y57.8750 
G01 X72.6647 Y57.7624 
G01 X72.8519 Y57.6848 
G01 X73.0507 Y57.6453 
G01 X73.2533 Y57.6453 
G01 X73.4521 Y57.6848 
G01 X73.6393 Y57.7624 
G01 X73.8078 Y57.8750 
G01 X73.9510 Y58.0182 
G01 X74.0636 Y58.1867 
G01 X74.1412 Y58.3739 
G01 X74.1807 Y58.5727 
G00 Z2.5400 
G00 X81.8007 Y58.5727 
G01 Z-0.1000 F254.00 
G01 X81.8007 Y58.7753 F200.00 
G01 X81.7612 Y58.9741 
G01 X81.6836 Y59.1613 
G01 X81.5710 Y59.3298 
G01 X81.4278 Y59.4730 
G01 X81.2593 Y59.5856 
G01 X81.0721 Y59.6632 
G01 X80.8733 Y59.7027 
G01 X80.6707 Y59.7027 
G01 X80.4719 Y59.6632 
G01 X80.2847 Y59.5856 
G01 X80.1162 Y59.4730 
G01 X79.9730 Y59.3298 
G01 X79.8604 Y59.1613 
G01 X79.7828 Y58.9741 
G01 X79.7433 Y58.7753 
G01 X79.7433 Y58.5727 
G01 X79.7828 Y58.3739 
G01 X79.8604 Y58.1867 
G01 X79.9730 Y58.0182 
G01 X80.1162 Y57.8750 
G01 X80.2847 Y57.7624 
G01 X80.4719 Y57.6848 
G01 X80.6707 Y57.6453 
G01 X80.8733 Y57.6453 
G01 X81.0721 Y57.6848 
G01 X81.2593 Y57.7624 
G01 X81.4278 Y57.8750 
G01 X81.5710 Y58.0182 
G01 X81.6836 Y58.1867 
G01 X81.7612 Y58.3739 
G01 X81.8007 Y58.5727 
G00 Z2.5400 
G00 X81.8007 Y50.9527 
G01 Z-0.1000 F254.00 
G01 X81.8007 Y51.1553 F200.00 
G01 X81.7612 Y51.3541 
G01 X81.6836 Y51.5413 
G01 X81.5710 Y51.7098 
G01 X81.4278 Y51.8530 
G01 X81.2593 Y51.9656 
G01 X81.0721 Y52.0432 
G01 X80.8733 Y52.0827 
G01 X80.6707 Y52.0827 
G01 X80.4719 Y52.0432 
G01 X80.2847 Y51.9656 
G01 X80.1162 Y51.8530 
G01 X79.9730 Y51.7098 
G01 X79.8604 Y51.5413 
G01 X79.7828 Y51.3541 
G01 X79.7433 Y51.1553 
G01 X79.7433 Y50.9527 
G01 X79.7828 Y50.7539 
G01 X79.8604 Y50.5667 
G01 X79.9730 Y50.3982 
G01 X80.1162 Y50.2550 
G01 X80.2847 Y50.1424 
G01 X80.4719 Y50.0648 
G01 X80.6707 Y50.0253 
G01 X80.8733 Y50.0253 
G01 X81.0721 Y50.0648 
G01 X81.2593 Y50.1424 
G01 X81.4278 Y50.2550 
G01 X81.5710 Y50.3982 
G01 X81.6836 Y50.5667 
G01 X81.7612 Y50.7539 
G01 X81.8007 Y50.9527 
G00 Z2.5400 
G00 X84.3407 Y58.5727 
G01 Z-0.1000 F254.00 
G01 X84.3407 Y58.7753 F200.00 
G01 X84.3012 Y58.9741 
G01 X84.2236 Y59.1613 
G01 X84.1110 Y59.3298 
G01 X83.9678 Y59.4730 
G01 X83.7993 Y59.5856 
G01 X83.6121 Y59.6632 
G01 X83.4133 Y59.7027 
G01 X83.2107 Y59.7027 
G01 X83.0119 Y59.6632 
G01 X82.8247 Y59.5856 
G01 X82.6562 Y59.4730 
G01 X82.5130 Y59.3298 
G01 X82.4004 Y59.1613 
G01 X82.3228 Y58.9741 
G01 X82.2833 Y58.7753 
G01 X82.2833 Y58.5727 
G01 X82.3228 Y58.3739 
G01 X82.4004 Y58.1867 
G01 X82.5130 Y58.0182 
G01 X82.6562 Y57.8750 
G01 X82.8247 Y57.7624 
G01 X83.0119 Y57.6848 
G01 X83.2107 Y57.6453 
G01 X83.4133 Y57.6453 
G01 X83.6121 Y57.6848 
G01 X83.7993 Y57.7624 
G01 X83.9678 Y57.8750 
G01 X84.1110 Y58.0182 
G01 X84.2236 Y58.1867 
G01 X84.3012 Y58.3739 
G01 X84.3407 Y58.5727 
G00 Z2.5400 
G00 X84.3407 Y50.9527 
G01 Z-0.1000 F254.00 
G01 X84.3407 Y51.1553 F200.00 
G01 X84.3012 Y51.3541 
G01 X84.2236 Y51.5413 
G01 X84.1110 Y51.7098 
G01 X83.9678 Y51.8530 
G01 X83.7993 Y51.9656 
G01 X83.6121 Y52.0432 
G01 X83.4133 Y52.0827 
G01 X83.2107 Y52.0827 
G01 X83.0119 Y52.0432 
G01 X82.8247 Y51.9656 
G01 X82.6562 Y51.8530 
G01 X82.5130 Y51.7098 
G01 X82.4004 Y51.5413 
G01 X82.3228 Y51.3541 
G01 X82.2833 Y51.1553 
G01 X82.2833 Y50.9527 
G01 X82.3228 Y50.7539 
G01 X82.4004 Y50.5667 
G01 X82.5130 Y50.3982 
G01 X82.6562 Y50.2550 
G01 X82.8247 Y50.1424 
G01 X83.0119 Y50.0648 
G01 X83.2107 Y50.0253 
G01 X83.4133 Y50.0253 
G01 X83.6121 Y50.0648 
G01 X83.7993 Y50.1424 
G01 X83.9678 Y50.2550 
G01 X84.1110 Y50.3982 
G01 X84.2236 Y50.5667 
G01 X84.3012 Y50.7539 
G01 X84.3407 Y50.9527 
G00 Z2.5400 
G00 X76.7207 Y58.5727 
G01 Z-0.1000 F254.00 
G01 X76.7207 Y58.7753 F200.00 
G01 X76.6812 Y58.9741 
G01 X76.6036 Y59.1613 
G01 X76.4910 Y59.3298 
G01 X76.3478 Y59.4730 
G01 X76.1793 Y59.5856 
G01 X75.9921 Y59.6632 
G01 X75.7933 Y59.7027 
G01 X75.5907 Y59.7027 
G01 X75.3919 Y59.6632 
G01 X75.2047 Y59.5856 
G01 X75.0362 Y59.4730 
G01 X74.8930 Y59.3298 
G01 X74.7804 Y59.1613 
G01 X74.7028 Y58.9741 
G01 X74.6633 Y58.7753 
G01 X74.6633 Y58.5727 
G01 X74.7028 Y58.3739 
G01 X74.7804 Y58.1867 
G01 X74.8930 Y58.0182 
G01 X75.0362 Y57.8750 
G01 X75.2047 Y57.7624 
G01 X75.3919 Y57.6848 
G01 X75.5907 Y57.6453 
G01 X75.7933 Y57.6453 
G01 X75.9921 Y57.6848 
G01 X76.1793 Y57.7624 
G01 X76.3478 Y57.8750 
G01 X76.4910 Y58.0182 
G01 X76.6036 Y58.1867 
G01 X76.6812 Y58.3739 
G01 X76.7207 Y58.5727 
G00 Z2.5400 
G00 X76.7207 Y50.9527 
G01 Z-0.1000 F254.00 
G01 X76.7207 Y51.1553 F200.00 
G01 X76.6812 Y51.3541 
G01 X76.6036 Y51.5413 
G01 X76.4910 Y51.7098 
G01 X76.3478 Y51.8530 
G01 X76.1793 Y51.9656 
G01 X75.9921 Y52.0432 
G01 X75.7933 Y52.0827 
G01 X75.5907 Y52.0827 
G01 X75.3919 Y52.0432 
G01 X75.2047 Y51.9656 
G01 X75.0362 Y51.8530 
G01 X74.8930 Y51.7098 
G01 X74.7804 Y51.5413 
G01 X74.7028 Y51.3541 
G01 X74.6633 Y51.1553 
G01 X74.6633 Y50.9527 
G01 X74.7028 Y50.7539 
G01 X74.7804 Y50.5667 
G01 X74.8930 Y50.3982 
G01 X75.0362 Y50.2550 
G01 X75.2047 Y50.1424 
G01 X75.3919 Y50.0648 
G01 X75.5907 Y50.0253 
G01 X75.7933 Y50.0253 
G01 X75.9921 Y50.0648 
G01 X76.1793 Y50.1424 
G01 X76.3478 Y50.2550 
G01 X76.4910 Y50.3982 
G01 X76.6036 Y50.5667 
G01 X76.6812 Y50.7539 
G01 X76.7207 Y50.9527 
G00 Z2.5400 
G00 X77.0157 Y16.1877 
G01 Z-0.1000 F254.00 
G01 X77.0157 Y16.3903 F200.00 
G01 X76.9762 Y16.5891 
G01 X76.8986 Y16.7763 
G01 X76.7860 Y16.9448 
G01 X76.6428 Y17.0880 
G01 X76.4743 Y17.2006 
G01 X76.2871 Y17.2782 
G01 X76.0883 Y17.3177 
G01 X75.8857 Y17.3177 
G01 X75.6869 Y17.2782 
G01 X75.4997 Y17.2006 
G01 X75.3312 Y17.0880 
G01 X75.1880 Y16.9448 
G01 X75.0754 Y16.7763 
G01 X74.9978 Y16.5891 
G01 X74.9583 Y16.3903 
G01 X74.9583 Y16.1877 
G01 X74.9978 Y15.9889 
G01 X75.0754 Y15.8017 
G01 X75.1880 Y15.6332 
G01 X75.3312 Y15.4900 
G01 X75.4997 Y15.3774 
G01 X75.6869 Y15.2998 
G01 X75.8857 Y15.2603 
G01 X76.0883 Y15.2603 
G01 X76.2871 Y15.2998 
G01 X76.4743 Y15.3774 
G01 X76.6428 Y15.4900 
G01 X76.7860 Y15.6332 
G01 X76.8986 Y15.8017 
G01 X76.9762 Y15.9889 
G01 X77.0157 Y16.1877 
G00 Z2.5400 
G00 X77.0157 Y23.8077 
G01 Z-0.1000 F254.00 
G01 X77.0157 Y24.0103 F200.00 
G01 X76.9762 Y24.2091 
G01 X76.8986 Y24.3963 
G01 X76.7860 Y24.5648 
G01 X76.6428 Y24.7080 
G01 X76.4743 Y24.8206 
G01 X76.2871 Y24.8982 
G01 X76.0883 Y24.9377 
G01 X75.8857 Y24.9377 
G01 X75.6869 Y24.8982 
G01 X75.4997 Y24.8206 
G01 X75.3312 Y24.7080 
G01 X75.1880 Y24.5648 
G01 X75.0754 Y24.3963 
G01 X74.9978 Y24.2091 
G01 X74.9583 Y24.0103 
G01 X74.9583 Y23.8077 
G01 X74.9978 Y23.6089 
G01 X75.0754 Y23.4217 
G01 X75.1880 Y23.2532 
G01 X75.3312 Y23.1100 
G01 X75.4997 Y22.9974 
G01 X75.6869 Y22.9198 
G01 X75.8857 Y22.8803 
G01 X76.0883 Y22.8803 
G01 X76.2871 Y22.9198 
G01 X76.4743 Y22.9974 
G01 X76.6428 Y23.1100 
G01 X76.7860 Y23.2532 
G01 X76.8986 Y23.4217 
G01 X76.9762 Y23.6089 
G01 X77.0157 Y23.8077 
G00 Z2.5400 
G00 X6.8707 Y42.0627 
G01 Z-0.1000 F254.00 
G01 X6.8707 Y42.2653 F200.00 
G01 X6.8312 Y42.4641 
G01 X6.7536 Y42.6513 
G01 X6.6410 Y42.8198 
G01 X6.4978 Y42.9630 
G01 X6.3293 Y43.0756 
G01 X6.1421 Y43.1532 
G01 X5.9433 Y43.1927 
G01 X5.7407 Y43.1927 
G01 X5.5419 Y43.1532 
G01 X5.3547 Y43.0756 
G01 X5.1862 Y42.9630 
G01 X5.0430 Y42.8198 
G01 X4.9304 Y42.6513 
G01 X4.8528 Y42.4641 
G01 X4.8133 Y42.2653 
G01 X4.8133 Y42.0627 
G01 X4.8528 Y41.8639 
G01 X4.9304 Y41.6767 
G01 X5.0430 Y41.5082 
G01 X5.1862 Y41.3650 
G01 X5.3547 Y41.2524 
G01 X5.5419 Y41.1748 
G01 X5.7407 Y41.1353 
G01 X5.9433 Y41.1353 
G01 X6.1421 Y41.1748 
G01 X6.3293 Y41.2524 
G01 X6.4978 Y41.3650 
G01 X6.6410 Y41.5082 
G01 X6.7536 Y41.6767 
G01 X6.8312 Y41.8639 
G01 X6.8707 Y42.0627 
G00 Z2.5400 
G00 X14.4907 Y42.0627 
G01 Z-0.1000 F254.00 
G01 X14.4907 Y42.2653 F200.00 
G01 X14.4512 Y42.4641 
G01 X14.3736 Y42.6513 
G01 X14.2610 Y42.8198 
G01 X14.1178 Y42.9630 
G01 X13.9493 Y43.0756 
G01 X13.7621 Y43.1532 
G01 X13.5633 Y43.1927 
G01 X13.3607 Y43.1927 
G01 X13.1619 Y43.1532 
G01 X12.9747 Y43.0756 
G01 X12.8062 Y42.9630 
G01 X12.6630 Y42.8198 
G01 X12.5504 Y42.6513 
G01 X12.4728 Y42.4641 
G01 X12.4333 Y42.2653 
G01 X12.4333 Y42.0627 
G01 X12.4728 Y41.8639 
G01 X12.5504 Y41.6767 
G01 X12.6630 Y41.5082 
G01 X12.8062 Y41.3650 
G01 X12.9747 Y41.2524 
G01 X13.1619 Y41.1748 
G01 X13.3607 Y41.1353 
G01 X13.5633 Y41.1353 
G01 X13.7621 Y41.1748 
G01 X13.9493 Y41.2524 
G01 X14.1178 Y41.3650 
G01 X14.2610 Y41.5082 
G01 X14.3736 Y41.6767 
G01 X14.4512 Y41.8639 
G01 X14.4907 Y42.0627 
G00 Z2.5400 
G00 X6.8707 Y25.5527 
G01 Z-0.1000 F254.00 
G01 X6.8707 Y25.7553 F200.00 
G01 X6.8312 Y25.9541 
G01 X6.7536 Y26.1413 
G01 X6.6410 Y26.3098 
G01 X6.4978 Y26.4530 
G01 X6.3293 Y26.5656 
G01 X6.1421 Y26.6432 
G01 X5.9433 Y26.6827 
G01 X5.7407 Y26.6827 
G01 X5.5419 Y26.6432 
G01 X5.3547 Y26.5656 
G01 X5.1862 Y26.4530 
G01 X5.0430 Y26.3098 
G01 X4.9304 Y26.1413 
G01 X4.8528 Y25.9541 
G01 X4.8133 Y25.7553 
G01 X4.8133 Y25.5527 
G01 X4.8528 Y25.3539 
G01 X4.9304 Y25.1667 
G01 X5.0430 Y24.9982 
G01 X5.1862 Y24.8550 
G01 X5.3547 Y24.7424 
G01 X5.5419 Y24.6648 
G01 X5.7407 Y24.6253 
G01 X5.9433 Y24.6253 
G01 X6.1421 Y24.6648 
G01 X6.3293 Y24.7424 
G01 X6.4978 Y24.8550 
G01 X6.6410 Y24.9982 
G01 X6.7536 Y25.1667 
G01 X6.8312 Y25.3539 
G01 X6.8707 Y25.5527 
G00 Z2.5400 
G00 X14.4907 Y25.5527 
G01 Z-0.1000 F254.00 
G01 X14.4907 Y25.7553 F200.00 
G01 X14.4512 Y25.9541 
G01 X14.3736 Y26.1413 
G01 X14.2610 Y26.3098 
G01 X14.1178 Y26.4530 
G01 X13.9493 Y26.5656 
G01 X13.7621 Y26.6432 
G01 X13.5633 Y26.6827 
G01 X13.3607 Y26.6827 
G01 X13.1619 Y26.6432 
G01 X12.9747 Y26.5656 
G01 X12.8062 Y26.4530 
G01 X12.6630 Y26.3098 
G01 X12.5504 Y26.1413 
G01 X12.4728 Y25.9541 
G01 X12.4333 Y25.7553 
G01 X12.4333 Y25.5527 
G01 X12.4728 Y25.3539 
G01 X12.5504 Y25.1667 
G01 X12.6630 Y24.9982 
G01 X12.8062 Y24.8550 
G01 X12.9747 Y24.7424 
G01 X13.1619 Y24.6648 
G01 X13.3607 Y24.6253 
G01 X13.5633 Y24.6253 
G01 X13.7621 Y24.6648 
G01 X13.9493 Y24.7424 
G01 X14.1178 Y24.8550 
G01 X14.2610 Y24.9982 
G01 X14.3736 Y25.1667 
G01 X14.4512 Y25.3539 
G01 X14.4907 Y25.5527 
G00 Z2.5400 
G00 X6.8707 Y6.5027 
G01 Z-0.1000 F254.00 
G01 X6.8707 Y6.7053 F200.00 
G01 X6.8312 Y6.9041 
G01 X6.7536 Y7.0913 
G01 X6.6410 Y7.2598 
G01 X6.4978 Y7.4030 
G01 X6.3293 Y7.5156 
G01 X6.1421 Y7.5932 
G01 X5.9433 Y7.6327 
G01 X5.7407 Y7.6327 
G01 X5.5419 Y7.5932 
G01 X5.3547 Y7.5156 
G01 X5.1862 Y7.4030 
G01 X5.0430 Y7.2598 
G01 X4.9304 Y7.0913 
G01 X4.8528 Y6.9041 
G01 X4.8133 Y6.7053 
G01 X4.8133 Y6.5027 
G01 X4.8528 Y6.3039 
G01 X4.9304 Y6.1167 
G01 X5.0430 Y5.9482 
G01 X5.1862 Y5.8050 
G01 X5.3547 Y5.6924 
G01 X5.5419 Y5.6148 
G01 X5.7407 Y5.5753 
G01 X5.9433 Y5.5753 
G01 X6.1421 Y5.6148 
G01 X6.3293 Y5.6924 
G01 X6.4978 Y5.8050 
G01 X6.6410 Y5.9482 
G01 X6.7536 Y6.1167 
G01 X6.8312 Y6.3039 
G01 X6.8707 Y6.5027 
G00 Z2.5400 
G00 X14.4907 Y6.5027 
G01 Z-0.1000 F254.00 
G01 X14.4907 Y6.7053 F200.00 
G01 X14.4512 Y6.9041 
G01 X14.3736 Y7.0913 
G01 X14.2610 Y7.2598 
G01 X14.1178 Y7.4030 
G01 X13.9493 Y7.5156 
G01 X13.7621 Y7.5932 
G01 X13.5633 Y7.6327 
G01 X13.3607 Y7.6327 
G01 X13.1619 Y7.5932 
G01 X12.9747 Y7.5156 
G01 X12.8062 Y7.4030 
G01 X12.6630 Y7.2598 
G01 X12.5504 Y7.0913 
G01 X12.4728 Y6.9041 
G01 X12.4333 Y6.7053 
G01 X12.4333 Y6.5027 
G01 X12.4728 Y6.3039 
G01 X12.5504 Y6.1167 
G01 X12.6630 Y5.9482 
G01 X12.8062 Y5.8050 
G01 X12.9747 Y5.6924 
G01 X13.1619 Y5.6148 
G01 X13.3607 Y5.5753 
G01 X13.5633 Y5.5753 
G01 X13.7621 Y5.6148 
G01 X13.9493 Y5.6924 
G01 X14.1178 Y5.8050 
G01 X14.2610 Y5.9482 
G01 X14.3736 Y6.1167 
G01 X14.4512 Y6.3039 
G01 X14.4907 Y6.5027 
G00 Z2.5400 
G00 X19.5707 Y20.4727 
G01 Z-0.1000 F254.00 
G01 X19.5707 Y20.6753 F200.00 
G01 X19.5312 Y20.8741 
G01 X19.4536 Y21.0613 
G01 X19.3410 Y21.2298 
G01 X19.1978 Y21.3730 
G01 X19.0293 Y21.4856 
G01 X18.8421 Y21.5632 
G01 X18.6433 Y21.6027 
G01 X18.4407 Y21.6027 
G01 X18.2419 Y21.5632 
G01 X18.0547 Y21.4856 
G01 X17.8862 Y21.3730 
G01 X17.7430 Y21.2298 
G01 X17.6304 Y21.0613 
G01 X17.5528 Y20.8741 
G01 X17.5133 Y20.6753 
G01 X17.5133 Y20.4727 
G01 X17.5528 Y20.2739 
G01 X17.6304 Y20.0867 
G01 X17.7430 Y19.9182 
G01 X17.8862 Y19.7750 
G01 X18.0547 Y19.6624 
G01 X18.2419 Y19.5848 
G01 X18.4407 Y19.5453 
G01 X18.6433 Y19.5453 
G01 X18.8421 Y19.5848 
G01 X19.0293 Y19.6624 
G01 X19.1978 Y19.7750 
G01 X19.3410 Y19.9182 
G01 X19.4536 Y20.0867 
G01 X19.5312 Y20.2739 
G01 X19.5707 Y20.4727 
G00 Z2.5400 
G00 X11.9507 Y20.4727 
G01 Z-0.1000 F254.00 
G01 X11.9507 Y20.6753 F200.00 
G01 X11.9112 Y20.8741 
G01 X11.8336 Y21.0613 
G01 X11.7210 Y21.2298 
G01 X11.5778 Y21.3730 
G01 X11.4093 Y21.4856 
G01 X11.2221 Y21.5632 
G01 X11.0233 Y21.6027 
G01 X10.8207 Y21.6027 
G01 X10.6219 Y21.5632 
G01 X10.4347 Y21.4856 
G01 X10.2662 Y21.3730 
G01 X10.1230 Y21.2298 
G01 X10.0104 Y21.0613 
G01 X9.9328 Y20.8741 
G01 X9.8933 Y20.6753 
G01 X9.8933 Y20.4727 
G01 X9.9328 Y20.2739 
G01 X10.0104 Y20.0867 
G01 X10.1230 Y19.9182 
G01 X10.2662 Y19.7750 
G01 X10.4347 Y19.6624 
G01 X10.6219 Y19.5848 
G01 X10.8207 Y19.5453 
G01 X11.0233 Y19.5453 
G01 X11.2221 Y19.5848 
G01 X11.4093 Y19.6624 
G01 X11.5778 Y19.7750 
G01 X11.7210 Y19.9182 
G01 X11.8336 Y20.0867 
G01 X11.9112 Y20.2739 
G01 X11.9507 Y20.4727 
G00 Z2.5400 
G00 X33.2157 Y17.2527 
G01 Z-0.1000 F254.00 
G01 X33.2157 Y17.4553 F200.00 
G01 X33.1762 Y17.6541 
G01 X33.0986 Y17.8413 
G01 X32.9860 Y18.0098 
G01 X32.8428 Y18.1530 
G01 X32.6743 Y18.2656 
G01 X32.4871 Y18.3432 
G01 X32.2883 Y18.3827 
G01 X32.0857 Y18.3827 
G01 X31.8869 Y18.3432 
G01 X31.6997 Y18.2656 
G01 X31.5312 Y18.1530 
G01 X31.3880 Y18.0098 
G01 X31.2754 Y17.8413 
G01 X31.1978 Y17.6541 
G01 X31.1583 Y17.4553 
G01 X31.1583 Y17.2527 
G01 X31.1978 Y17.0539 
G01 X31.2754 Y16.8667 
G01 X31.3880 Y16.6982 
G01 X31.5312 Y16.5550 
G01 X31.6997 Y16.4424 
G01 X31.8869 Y16.3648 
G01 X32.0857 Y16.3253 
G01 X32.2883 Y16.3253 
G01 X32.4871 Y16.3648 
G01 X32.6743 Y16.4424 
G01 X32.8428 Y16.5550 
G01 X32.9860 Y16.6982 
G01 X33.0986 Y16.8667 
G01 X33.1762 Y17.0539 
G01 X33.2157 Y17.2527 
G00 Z2.5400 
G00 X40.8357 Y17.2527 
G01 Z-0.1000 F254.00 
G01 X40.8357 Y17.4553 F200.00 
G01 X40.7962 Y17.6541 
G01 X40.7186 Y17.8413 
G01 X40.6060 Y18.0098 
G01 X40.4628 Y18.1530 
G01 X40.2943 Y18.2656 
G01 X40.1071 Y18.3432 
G01 X39.9083 Y18.3827 
G01 X39.7057 Y18.3827 
G01 X39.5069 Y18.3432 
G01 X39.3197 Y18.2656 
G01 X39.1512 Y18.1530 
G01 X39.0080 Y18.0098 
G01 X38.8954 Y17.8413 
G01 X38.8178 Y17.6541 
G01 X38.7783 Y17.4553 
G01 X38.7783 Y17.2527 
G01 X38.8178 Y17.0539 
G01 X38.8954 Y16.8667 
G01 X39.0080 Y16.6982 
G01 X39.1512 Y16.5550 
G01 X39.3197 Y16.4424 
G01 X39.5069 Y16.3648 
G01 X39.7057 Y16.3253 
G01 X39.9083 Y16.3253 
G01 X40.1071 Y16.3648 
G01 X40.2943 Y16.4424 
G01 X40.4628 Y16.5550 
G01 X40.6060 Y16.6982 
G01 X40.7186 Y16.8667 
G01 X40.7962 Y17.0539 
G01 X40.8357 Y17.2527 
G00 Z2.5400 
G00 X19.5707 Y54.7627 
G01 Z-0.1000 F254.00 
G01 X19.5707 Y54.9653 F200.00 
G01 X19.5312 Y55.1641 
G01 X19.4536 Y55.3513 
G01 X19.3410 Y55.5198 
G01 X19.1978 Y55.6630 
G01 X19.0293 Y55.7756 
G01 X18.8421 Y55.8532 
G01 X18.6433 Y55.8927 
G01 X18.4407 Y55.8927 
G01 X18.2419 Y55.8532 
G01 X18.0547 Y55.7756 
G01 X17.8862 Y55.6630 
G01 X17.7430 Y55.5198 
G01 X17.6304 Y55.3513 
G01 X17.5528 Y55.1641 
G01 X17.5133 Y54.9653 
G01 X17.5133 Y54.7627 
G01 X17.5528 Y54.5639 
G01 X17.6304 Y54.3767 
G01 X17.7430 Y54.2082 
G01 X17.8862 Y54.0650 
G01 X18.0547 Y53.9524 
G01 X18.2419 Y53.8748 
G01 X18.4407 Y53.8353 
G01 X18.6433 Y53.8353 
G01 X18.8421 Y53.8748 
G01 X19.0293 Y53.9524 
G01 X19.1978 Y54.0650 
G01 X19.3410 Y54.2082 
G01 X19.4536 Y54.3767 
G01 X19.5312 Y54.5639 
G01 X19.5707 Y54.7627 
G00 Z2.5400 
G00 X11.9507 Y54.7627 
G01 Z-0.1000 F254.00 
G01 X11.9507 Y54.9653 F200.00 
G01 X11.9112 Y55.1641 
G01 X11.8336 Y55.3513 
G01 X11.7210 Y55.5198 
G01 X11.5778 Y55.6630 
G01 X11.4093 Y55.7756 
G01 X11.2221 Y55.8532 
G01 X11.0233 Y55.8927 
G01 X10.8207 Y55.8927 
G01 X10.6219 Y55.8532 
G01 X10.4347 Y55.7756 
G01 X10.2662 Y55.6630 
G01 X10.1230 Y55.5198 
G01 X10.0104 Y55.3513 
G01 X9.9328 Y55.1641 
G01 X9.8933 Y54.9653 
G01 X9.8933 Y54.7627 
G01 X9.9328 Y54.5639 
G01 X10.0104 Y54.3767 
G01 X10.1230 Y54.2082 
G01 X10.2662 Y54.0650 
G01 X10.4347 Y53.9524 
G01 X10.6219 Y53.8748 
G01 X10.8207 Y53.8353 
G01 X11.0233 Y53.8353 
G01 X11.2221 Y53.8748 
G01 X11.4093 Y53.9524 
G01 X11.5778 Y54.0650 
G01 X11.7210 Y54.2082 
G01 X11.8336 Y54.3767 
G01 X11.9112 Y54.5639 
G01 X11.9507 Y54.7627 
G00 Z2.5400 
G00 X31.0007 Y20.4727 
G01 Z-0.1000 F254.00 
G01 X31.0007 Y20.6753 F200.00 
G01 X30.9612 Y20.8741 
G01 X30.8836 Y21.0613 
G01 X30.7710 Y21.2298 
G01 X30.6278 Y21.3730 
G01 X30.4593 Y21.4856 
G01 X30.2721 Y21.5632 
G01 X30.0733 Y21.6027 
G01 X29.8707 Y21.6027 
G01 X29.6719 Y21.5632 
G01 X29.4847 Y21.4856 
G01 X29.3162 Y21.3730 
G01 X29.1730 Y21.2298 
G01 X29.0604 Y21.0613 
G01 X28.9828 Y20.8741 
G01 X28.9433 Y20.6753 
G01 X28.9433 Y20.4727 
G01 X28.9828 Y20.2739 
G01 X29.0604 Y20.0867 
G01 X29.1730 Y19.9182 
G01 X29.3162 Y19.7750 
G01 X29.4847 Y19.6624 
G01 X29.6719 Y19.5848 
G01 X29.8707 Y19.5453 
G01 X30.0733 Y19.5453 
G01 X30.2721 Y19.5848 
G01 X30.4593 Y19.6624 
G01 X30.6278 Y19.7750 
G01 X30.7710 Y19.9182 
G01 X30.8836 Y20.0867 
G01 X30.9612 Y20.2739 
G01 X31.0007 Y20.4727 
G00 Z2.5400 
G00 X31.0007 Y12.8527 
G01 Z-0.1000 F254.00 
G01 X31.0007 Y13.0553 F200.00 
G01 X30.9612 Y13.2541 
G01 X30.8836 Y13.4413 
G01 X30.7710 Y13.6098 
G01 X30.6278 Y13.7530 
G01 X30.4593 Y13.8656 
G01 X30.2721 Y13.9432 
G01 X30.0733 Y13.9827 
G01 X29.8707 Y13.9827 
G01 X29.6719 Y13.9432 
G01 X29.4847 Y13.8656 
G01 X29.3162 Y13.7530 
G01 X29.1730 Y13.6098 
G01 X29.0604 Y13.4413 
G01 X28.9828 Y13.2541 
G01 X28.9433 Y13.0553 
G01 X28.9433 Y12.8527 
G01 X28.9828 Y12.6539 
G01 X29.0604 Y12.4667 
G01 X29.1730 Y12.2982 
G01 X29.3162 Y12.1550 
G01 X29.4847 Y12.0424 
G01 X29.6719 Y11.9648 
G01 X29.8707 Y11.9253 
G01 X30.0733 Y11.9253 
G01 X30.2721 Y11.9648 
G01 X30.4593 Y12.0424 
G01 X30.6278 Y12.1550 
G01 X30.7710 Y12.2982 
G01 X30.8836 Y12.4667 
G01 X30.9612 Y12.6539 
G01 X31.0007 Y12.8527 
G00 Z2.5400 
G00 X43.1107 Y14.0627 
G01 Z-0.1000 F254.00 
G01 X43.1107 Y14.2653 F200.00 
G01 X43.0712 Y14.4641 
G01 X42.9936 Y14.6513 
G01 X42.8810 Y14.8198 
G01 X42.7378 Y14.9630 
G01 X42.5693 Y15.0756 
G01 X42.3821 Y15.1532 
G01 X42.1833 Y15.1927 
G01 X41.9807 Y15.1927 
G01 X41.7819 Y15.1532 
G01 X41.5947 Y15.0756 
G01 X41.4262 Y14.9630 
G01 X41.2830 Y14.8198 
G01 X41.1704 Y14.6513 
G01 X41.0928 Y14.4641 
G01 X41.0533 Y14.2653 
G01 X41.0533 Y14.0627 
G01 X41.0928 Y13.8639 
G01 X41.1704 Y13.6767 
G01 X41.2830 Y13.5082 
G01 X41.4262 Y13.3650 
G01 X41.5947 Y13.2524 
G01 X41.7819 Y13.1748 
G01 X41.9807 Y13.1353 
G01 X42.1833 Y13.1353 
G01 X42.3821 Y13.1748 
G01 X42.5693 Y13.2524 
G01 X42.7378 Y13.3650 
G01 X42.8810 Y13.5082 
G01 X42.9936 Y13.6767 
G01 X43.0712 Y13.8639 
G01 X43.1107 Y14.0627 
G00 Z2.5400 
G00 X35.4907 Y14.0627 
G01 Z-0.1000 F254.00 
G01 X35.4907 Y14.2653 F200.00 
G01 X35.4512 Y14.4641 
G01 X35.3736 Y14.6513 
G01 X35.2610 Y14.8198 
G01 X35.1178 Y14.9630 
G01 X34.9493 Y15.0756 
G01 X34.7621 Y15.1532 
G01 X34.5633 Y15.1927 
G01 X34.3607 Y15.1927 
G01 X34.1619 Y15.1532 
G01 X33.9747 Y15.0756 
G01 X33.8062 Y14.9630 
G01 X33.6630 Y14.8198 
G01 X33.5504 Y14.6513 
G01 X33.4728 Y14.4641 
G01 X33.4333 Y14.2653 
G01 X33.4333 Y14.0627 
G01 X33.4728 Y13.8639 
G01 X33.5504 Y13.6767 
G01 X33.6630 Y13.5082 
G01 X33.8062 Y13.3650 
G01 X33.9747 Y13.2524 
G01 X34.1619 Y13.1748 
G01 X34.3607 Y13.1353 
G01 X34.5633 Y13.1353 
G01 X34.7621 Y13.1748 
G01 X34.9493 Y13.2524 
G01 X35.1178 Y13.3650 
G01 X35.2610 Y13.5082 
G01 X35.3736 Y13.6767 
G01 X35.4512 Y13.8639 
G01 X35.4907 Y14.0627 
G00 Z2.5400 
G00 X34.8407 Y54.1427 
G01 Z-0.1000 F254.00 
G01 X34.8407 Y54.3453 F200.00 
G01 X34.8012 Y54.5441 
G01 X34.7236 Y54.7313 
G01 X34.6110 Y54.8998 
G01 X34.4678 Y55.0430 
G01 X34.2993 Y55.1556 
G01 X34.1121 Y55.2332 
G01 X33.9133 Y55.2727 
G01 X33.7107 Y55.2727 
G01 X33.5119 Y55.2332 
G01 X33.3247 Y55.1556 
G01 X33.1562 Y55.0430 
G01 X33.0130 Y54.8998 
G01 X32.9004 Y54.7313 
G01 X32.8228 Y54.5441 
G01 X32.7833 Y54.3453 
G01 X32.7833 Y54.1427 
G01 X32.8228 Y53.9439 
G01 X32.9004 Y53.7567 
G01 X33.0130 Y53.5882 
G01 X33.1562 Y53.4450 
G01 X33.3247 Y53.3324 
G01 X33.5119 Y53.2548 
G01 X33.7107 Y53.2153 
G01 X33.9133 Y53.2153 
G01 X34.1121 Y53.2548 
G01 X34.2993 Y53.3324 
G01 X34.4678 Y53.4450 
G01 X34.6110 Y53.5882 
G01 X34.7236 Y53.7567 
G01 X34.8012 Y53.9439 
G01 X34.8407 Y54.1427 
G00 Z2.5400 
G00 X42.4607 Y54.1427 
G01 Z-0.1000 F254.00 
G01 X42.4607 Y54.3453 F200.00 
G01 X42.4212 Y54.5441 
G01 X42.3436 Y54.7313 
G01 X42.2310 Y54.8998 
G01 X42.0878 Y55.0430 
G01 X41.9193 Y55.1556 
G01 X41.7321 Y55.2332 
G01 X41.5333 Y55.2727 
G01 X41.3307 Y55.2727 
G01 X41.1319 Y55.2332 
G01 X40.9447 Y55.1556 
G01 X40.7762 Y55.0430 
G01 X40.6330 Y54.8998 
G01 X40.5204 Y54.7313 
G01 X40.4428 Y54.5441 
G01 X40.4033 Y54.3453 
G01 X40.4033 Y54.1427 
G01 X40.4428 Y53.9439 
G01 X40.5204 Y53.7567 
G01 X40.6330 Y53.5882 
G01 X40.7762 Y53.4450 
G01 X40.9447 Y53.3324 
G01 X41.1319 Y53.2548 
G01 X41.3307 Y53.2153 
G01 X41.5333 Y53.2153 
G01 X41.7321 Y53.2548 
G01 X41.9193 Y53.3324 
G01 X42.0878 Y53.4450 
G01 X42.2310 Y53.5882 
G01 X42.3436 Y53.7567 
G01 X42.4212 Y53.9439 
G01 X42.4607 Y54.1427 
G00 Z2.5400 
G00 X19.5707 Y38.2527 
G01 Z-0.1000 F254.00 
G01 X19.5707 Y38.4553 F200.00 
G01 X19.5312 Y38.6541 
G01 X19.4536 Y38.8413 
G01 X19.3410 Y39.0098 
G01 X19.1978 Y39.1530 
G01 X19.0293 Y39.2656 
G01 X18.8421 Y39.3432 
G01 X18.6433 Y39.3827 
G01 X18.4407 Y39.3827 
G01 X18.2419 Y39.3432 
G01 X18.0547 Y39.2656 
G01 X17.8862 Y39.1530 
G01 X17.7430 Y39.0098 
G01 X17.6304 Y38.8413 
G01 X17.5528 Y38.6541 
G01 X17.5133 Y38.4553 
G01 X17.5133 Y38.2527 
G01 X17.5528 Y38.0539 
G01 X17.6304 Y37.8667 
G01 X17.7430 Y37.6982 
G01 X17.8862 Y37.5550 
G01 X18.0547 Y37.4424 
G01 X18.2419 Y37.3648 
G01 X18.4407 Y37.3253 
G01 X18.6433 Y37.3253 
G01 X18.8421 Y37.3648 
G01 X19.0293 Y37.4424 
G01 X19.1978 Y37.5550 
G01 X19.3410 Y37.6982 
G01 X19.4536 Y37.8667 
G01 X19.5312 Y38.0539 
G01 X19.5707 Y38.2527 
G00 Z2.5400 
G00 X11.9507 Y38.2527 
G01 Z-0.1000 F254.00 
G01 X11.9507 Y38.4553 F200.00 
G01 X11.9112 Y38.6541 
G01 X11.8336 Y38.8413 
G01 X11.7210 Y39.0098 
G01 X11.5778 Y39.1530 
G01 X11.4093 Y39.2656 
G01 X11.2221 Y39.3432 
G01 X11.0233 Y39.3827 
G01 X10.8207 Y39.3827 
G01 X10.6219 Y39.3432 
G01 X10.4347 Y39.2656 
G01 X10.2662 Y39.1530 
G01 X10.1230 Y39.0098 
G01 X10.0104 Y38.8413 
G01 X9.9328 Y38.6541 
G01 X9.8933 Y38.4553 
G01 X9.8933 Y38.2527 
G01 X9.9328 Y38.0539 
G01 X10.0104 Y37.8667 
G01 X10.1230 Y37.6982 
G01 X10.2662 Y37.5550 
G01 X10.4347 Y37.4424 
G01 X10.6219 Y37.3648 
G01 X10.8207 Y37.3253 
G01 X11.0233 Y37.3253 
G01 X11.2221 Y37.3648 
G01 X11.4093 Y37.4424 
G01 X11.5778 Y37.5550 
G01 X11.7210 Y37.6982 
G01 X11.8336 Y37.8667 
G01 X11.9112 Y38.0539 
G01 X11.9507 Y38.2527 
G00 Z2.5400 
G00 X78.0207 Y39.5227 
G01 Z-0.1000 F254.00 
G01 X78.0207 Y39.7253 F200.00 
G01 X77.9812 Y39.9241 
G01 X77.9036 Y40.1113 
G01 X77.7910 Y40.2798 
G01 X77.6478 Y40.4230 
G01 X77.4793 Y40.5356 
G01 X77.2921 Y40.6132 
G01 X77.0933 Y40.6527 
G01 X76.8907 Y40.6527 
G01 X76.6919 Y40.6132 
G01 X76.5047 Y40.5356 
G01 X76.3362 Y40.4230 
G01 X76.1930 Y40.2798 
G01 X76.0804 Y40.1113 
G01 X76.0028 Y39.9241 
G01 X75.9633 Y39.7253 
G01 X75.9633 Y39.5227 
G01 X76.0028 Y39.3239 
G01 X76.0804 Y39.1367 
G01 X76.1930 Y38.9682 
G01 X76.3362 Y38.8250 
G01 X76.5047 Y38.7124 
G01 X76.6919 Y38.6348 
G01 X76.8907 Y38.5953 
G01 X77.0933 Y38.5953 
G01 X77.2921 Y38.6348 
G01 X77.4793 Y38.7124 
G01 X77.6478 Y38.8250 
G01 X77.7910 Y38.9682 
G01 X77.9036 Y39.1367 
G01 X77.9812 Y39.3239 
G01 X78.0207 Y39.5227 
G00 Z2.5400 
G00 X78.0207 Y47.1427 
G01 Z-0.1000 F254.00 
G01 X78.0207 Y47.3453 F200.00 
G01 X77.9812 Y47.5441 
G01 X77.9036 Y47.7313 
G01 X77.7910 Y47.8998 
G01 X77.6478 Y48.0430 
G01 X77.4793 Y48.1556 
G01 X77.2921 Y48.2332 
G01 X77.0933 Y48.2727 
G01 X76.8907 Y48.2727 
G01 X76.6919 Y48.2332 
G01 X76.5047 Y48.1556 
G01 X76.3362 Y48.0430 
G01 X76.1930 Y47.8998 
G01 X76.0804 Y47.7313 
G01 X76.0028 Y47.5441 
G01 X75.9633 Y47.3453 
G01 X75.9633 Y47.1427 
G01 X76.0028 Y46.9439 
G01 X76.0804 Y46.7567 
G01 X76.1930 Y46.5882 
G01 X76.3362 Y46.4450 
G01 X76.5047 Y46.3324 
G01 X76.6919 Y46.2548 
G01 X76.8907 Y46.2153 
G01 X77.0933 Y46.2153 
G01 X77.2921 Y46.2548 
G01 X77.4793 Y46.3324 
G01 X77.6478 Y46.4450 
G01 X77.7910 Y46.5882 
G01 X77.9036 Y46.7567 
G01 X77.9812 Y46.9439 
G01 X78.0207 Y47.1427 
G00 Z2.5400 
G00 X38.3713 Y59.6336 
G01 Z-0.1000 F254.00 
G01 X38.3713 Y60.2544 F200.00 
G01 X37.9324 Y60.6933 
G01 X37.3116 Y60.6933 
G01 X36.8727 Y60.2544 
G01 X36.8727 Y59.6336 
G01 X37.3116 Y59.1947 
G01 X37.9324 Y59.1947 
G01 X38.3713 Y59.6336 
G00 Z2.5400 
G00 X36.4663 Y60.9036 
G01 Z-0.1000 F254.00 
G01 X36.4663 Y61.5244 F200.00 
G01 X36.0274 Y61.9633 
G01 X35.4066 Y61.9633 
G01 X34.9677 Y61.5244 
G01 X34.9677 Y60.9036 
G01 X35.4066 Y60.4647 
G01 X36.0274 Y60.4647 
G01 X36.4663 Y60.9036 
G00 Z2.5400 
G00 X38.3713 Y62.1736 
G01 Z-0.1000 F254.00 
G01 X38.3713 Y62.7944 F200.00 
G01 X37.9324 Y63.2333 
G01 X37.3116 Y63.2333 
G01 X36.8727 Y62.7944 
G01 X36.8727 Y62.1736 
G01 X37.3116 Y61.7347 
G01 X37.9324 Y61.7347 
G01 X38.3713 Y62.1736 
G00 Z2.5400 
G00 X39.3463 Y5.8486 
G01 Z-0.1000 F254.00 
G01 X39.3463 Y6.4694 F200.00 
G01 X38.9074 Y6.9083 
G01 X38.2866 Y6.9083 
G01 X37.8477 Y6.4694 
G01 X37.8477 Y5.8486 
G01 X38.2866 Y5.4097 
G01 X38.9074 Y5.4097 
G01 X39.3463 Y5.8486 
G00 Z2.5400 
G00 X37.4413 Y7.1186 
G01 Z-0.1000 F254.00 
G01 X37.4413 Y7.7394 F200.00 
G01 X37.0024 Y8.1783 
G01 X36.3816 Y8.1783 
G01 X35.9427 Y7.7394 
G01 X35.9427 Y7.1186 
G01 X36.3816 Y6.6797 
G01 X37.0024 Y6.6797 
G01 X37.4413 Y7.1186 
G00 Z2.5400 
G00 X39.3463 Y8.3886 
G01 Z-0.1000 F254.00 
G01 X39.3463 Y9.0094 F200.00 
G01 X38.9074 Y9.4483 
G01 X38.2866 Y9.4483 
G01 X37.8477 Y9.0094 
G01 X37.8477 Y8.3886 
G01 X38.2866 Y7.9497 
G01 X38.9074 Y7.9497 
G01 X39.3463 Y8.3886 
G00 Z2.5400 
G00 X37.0713 Y44.3936 
G01 Z-0.1000 F254.00 
G01 X37.0713 Y45.0144 F200.00 
G01 X36.6324 Y45.4533 
G01 X36.0116 Y45.4533 
G01 X35.5727 Y45.0144 
G01 X35.5727 Y44.3936 
G01 X36.0116 Y43.9547 
G01 X36.6324 Y43.9547 
G01 X37.0713 Y44.3936 
G00 Z2.5400 
G00 X35.1663 Y45.6636 
G01 Z-0.1000 F254.00 
G01 X35.1663 Y46.2844 F200.00 
G01 X34.7274 Y46.7233 
G01 X34.1066 Y46.7233 
G01 X33.6677 Y46.2844 
G01 X33.6677 Y45.6636 
G01 X34.1066 Y45.2247 
G01 X34.7274 Y45.2247 
G01 X35.1663 Y45.6636 
G00 Z2.5400 
G00 X37.0713 Y46.9336 
G01 Z-0.1000 F254.00 
G01 X37.0713 Y47.5544 F200.00 
G01 X36.6324 Y47.9933 
G01 X36.0116 Y47.9933 
G01 X35.5727 Y47.5544 
G01 X35.5727 Y46.9336 
G01 X36.0116 Y46.4947 
G01 X36.6324 Y46.4947 
G01 X37.0713 Y46.9336 
G00 Z2.5400 
G00 X37.0713 Y27.8836 
G01 Z-0.1000 F254.00 
G01 X37.0713 Y28.5044 F200.00 
G01 X36.6324 Y28.9433 
G01 X36.0116 Y28.9433 
G01 X35.5727 Y28.5044 
G01 X35.5727 Y27.8836 
G01 X36.0116 Y27.4447 
G01 X36.6324 Y27.4447 
G01 X37.0713 Y27.8836 
G00 Z2.5400 
G00 X35.1663 Y29.1536 
G01 Z-0.1000 F254.00 
G01 X35.1663 Y29.7744 F200.00 
G01 X34.7274 Y30.2133 
G01 X34.1066 Y30.2133 
G01 X33.6677 Y29.7744 
G01 X33.6677 Y29.1536 
G01 X34.1066 Y28.7147 
G01 X34.7274 Y28.7147 
G01 X35.1663 Y29.1536 
G00 Z2.5400 
G00 X37.0713 Y30.4236 
G01 Z-0.1000 F254.00 
G01 X37.0713 Y31.0444 F200.00 
G01 X36.6324 Y31.4833 
G01 X36.0116 Y31.4833 
G01 X35.5727 Y31.0444 
G01 X35.5727 Y30.4236 
G01 X36.0116 Y29.9847 
G01 X36.6324 Y29.9847 
G01 X37.0713 Y30.4236 
G00 Z2.5400 
G00 X90.6907 Y49.6827 
G01 Z-0.1000 F254.00 
G01 X90.6907 Y49.8853 F200.00 
G01 X90.6512 Y50.0841 
G01 X90.5736 Y50.2713 
G01 X90.4610 Y50.4398 
G01 X90.3178 Y50.5830 
G01 X90.1493 Y50.6956 
G01 X89.9621 Y50.7732 
G01 X89.7633 Y50.8127 
G01 X89.5607 Y50.8127 
G01 X89.3619 Y50.7732 
G01 X89.1747 Y50.6956 
G01 X89.0062 Y50.5830 
G01 X88.8630 Y50.4398 
G01 X88.7504 Y50.2713 
G01 X88.6728 Y50.0841 
G01 X88.6333 Y49.8853 
G01 X88.6333 Y49.6827 
G01 X88.6728 Y49.4839 
G01 X88.7504 Y49.2967 
G01 X88.8630 Y49.1282 
G01 X89.0062 Y48.9850 
G01 X89.1747 Y48.8724 
G01 X89.3619 Y48.7948 
G01 X89.5607 Y48.7553 
G01 X89.7633 Y48.7553 
G01 X89.9621 Y48.7948 
G01 X90.1493 Y48.8724 
G01 X90.3178 Y48.9850 
G01 X90.4610 Y49.1282 
G01 X90.5736 Y49.2967 
G01 X90.6512 Y49.4839 
G01 X90.6907 Y49.6827 
G00 Z2.5400 
G00 X90.6195 Y48.2727 
G01 Z-0.1000 F254.00 
G01 X88.7045 Y48.2727 F200.00 
G01 X88.6718 Y48.2592 
G01 X88.6468 Y48.2342 
G01 X88.6333 Y48.2015 
G01 X88.6333 Y46.2865 
G01 X88.6468 Y46.2538 
G01 X88.6718 Y46.2288 
G01 X88.7045 Y46.2153 
G01 X90.6195 Y46.2153 
G01 X90.6522 Y46.2288 
G01 X90.6772 Y46.2538 
G01 X90.6907 Y46.2865 
G01 X90.6907 Y48.2015 
G01 X90.6772 Y48.2342 
G01 X90.6522 Y48.2592 
G01 X90.6195 Y48.2727 
G00 Z2.5400 
G00 X90.6907 Y56.0327 
G01 Z-0.1000 F254.00 
G01 X90.6907 Y56.2353 F200.00 
G01 X90.6512 Y56.4341 
G01 X90.5736 Y56.6213 
G01 X90.4610 Y56.7898 
G01 X90.3178 Y56.9330 
G01 X90.1493 Y57.0456 
G01 X89.9621 Y57.1232 
G01 X89.7633 Y57.1627 
G01 X89.5607 Y57.1627 
G01 X89.3619 Y57.1232 
G01 X89.1747 Y57.0456 
G01 X89.0062 Y56.9330 
G01 X88.8630 Y56.7898 
G01 X88.7504 Y56.6213 
G01 X88.6728 Y56.4341 
G01 X88.6333 Y56.2353 
G01 X88.6333 Y56.0327 
G01 X88.6728 Y55.8339 
G01 X88.7504 Y55.6467 
G01 X88.8630 Y55.4782 
G01 X89.0062 Y55.3350 
G01 X89.1747 Y55.2224 
G01 X89.3619 Y55.1448 
G01 X89.5607 Y55.1053 
G01 X89.7633 Y55.1053 
G01 X89.9621 Y55.1448 
G01 X90.1493 Y55.2224 
G01 X90.3178 Y55.3350 
G01 X90.4610 Y55.4782 
G01 X90.5736 Y55.6467 
G01 X90.6512 Y55.8339 
G01 X90.6907 Y56.0327 
G00 Z2.5400 
G00 X90.6195 Y54.6227 
G01 Z-0.1000 F254.00 
G01 X88.7045 Y54.6227 F200.00 
G01 X88.6718 Y54.6092 
G01 X88.6468 Y54.5842 
G01 X88.6333 Y54.5515 
G01 X88.6333 Y52.6365 
G01 X88.6468 Y52.6038 
G01 X88.6718 Y52.5788 
G01 X88.7045 Y52.5653 
G01 X90.6195 Y52.5653 
G01 X90.6522 Y52.5788 
G01 X90.6772 Y52.6038 
G01 X90.6907 Y52.6365 
G01 X90.6907 Y54.5515 
G01 X90.6772 Y54.5842 
G01 X90.6522 Y54.6092 
G01 X90.6195 Y54.6227 
G00 Z2.5400 
G00 X31.9913 Y57.9802 
G01 Z-0.1000 F254.00 
G01 X31.9913 Y58.1278 F200.00 
G01 X31.9625 Y58.2726 
G01 X31.9060 Y58.4089 
G01 X31.8240 Y58.5317 
G01 X31.7197 Y58.6360 
G01 X31.5969 Y58.7180 
G01 X31.4606 Y58.7745 
G01 X31.3158 Y58.8033 
G01 X31.1682 Y58.8033 
G01 X31.0234 Y58.7745 
G01 X30.8871 Y58.7180 
G01 X30.7643 Y58.6360 
G01 X30.6600 Y58.5317 
G01 X30.5780 Y58.4089 
G01 X30.5215 Y58.2726 
G01 X30.4927 Y58.1278 
G01 X30.4927 Y57.9802 
G01 X30.5215 Y57.8354 
G01 X30.5780 Y57.6991 
G01 X30.6600 Y57.5763 
G01 X30.7643 Y57.4720 
G01 X30.8871 Y57.3900 
G01 X31.0234 Y57.3335 
G01 X31.1682 Y57.3047 
G01 X31.3158 Y57.3047 
G01 X31.4606 Y57.3335 
G01 X31.5969 Y57.3900 
G01 X31.7197 Y57.4720 
G01 X31.8240 Y57.5763 
G01 X31.9060 Y57.6991 
G01 X31.9625 Y57.8354 
G01 X31.9913 Y57.9802 
G00 Z2.5400 
G00 X31.9913 Y60.5202 
G01 Z-0.1000 F254.00 
G01 X31.9913 Y60.6678 F200.00 
G01 X31.9625 Y60.8126 
G01 X31.9060 Y60.9489 
G01 X31.8240 Y61.0717 
G01 X31.7197 Y61.1760 
G01 X31.5969 Y61.2580 
G01 X31.4606 Y61.3145 
G01 X31.3158 Y61.3433 
G01 X31.1682 Y61.3433 
G01 X31.0234 Y61.3145 
G01 X30.8871 Y61.2580 
G01 X30.7643 Y61.1760 
G01 X30.6600 Y61.0717 
G01 X30.5780 Y60.9489 
G01 X30.5215 Y60.8126 
G01 X30.4927 Y60.6678 
G01 X30.4927 Y60.5202 
G01 X30.5215 Y60.3754 
G01 X30.5780 Y60.2391 
G01 X30.6600 Y60.1163 
G01 X30.7643 Y60.0120 
G01 X30.8871 Y59.9300 
G01 X31.0234 Y59.8735 
G01 X31.1682 Y59.8447 
G01 X31.3158 Y59.8447 
G01 X31.4606 Y59.8735 
G01 X31.5969 Y59.9300 
G01 X31.7197 Y60.0120 
G01 X31.8240 Y60.1163 
G01 X31.9060 Y60.2391 
G01 X31.9625 Y60.3754 
G01 X31.9913 Y60.5202 
G00 Z2.5400 
G00 X31.9913 Y7.8002 
G01 Z-0.1000 F254.00 
G01 X31.9913 Y7.9478 F200.00 
G01 X31.9625 Y8.0926 
G01 X31.9060 Y8.2289 
G01 X31.8240 Y8.3517 
G01 X31.7197 Y8.4560 
G01 X31.5969 Y8.5380 
G01 X31.4606 Y8.5945 
G01 X31.3158 Y8.6233 
G01 X31.1682 Y8.6233 
G01 X31.0234 Y8.5945 
G01 X30.8871 Y8.5380 
G01 X30.7643 Y8.4560 
G01 X30.6600 Y8.3517 
G01 X30.5780 Y8.2289 
G01 X30.5215 Y8.0926 
G01 X30.4927 Y7.9478 
G01 X30.4927 Y7.8002 
G01 X30.5215 Y7.6554 
G01 X30.5780 Y7.5191 
G01 X30.6600 Y7.3963 
G01 X30.7643 Y7.2920 
G01 X30.8871 Y7.2100 
G01 X31.0234 Y7.1535 
G01 X31.1682 Y7.1247 
G01 X31.3158 Y7.1247 
G01 X31.4606 Y7.1535 
G01 X31.5969 Y7.2100 
G01 X31.7197 Y7.2920 
G01 X31.8240 Y7.3963 
G01 X31.9060 Y7.5191 
G01 X31.9625 Y7.6554 
G01 X31.9913 Y7.8002 
G00 Z2.5400 
G00 X31.9913 Y10.3402 
G01 Z-0.1000 F254.00 
G01 X31.9913 Y10.4878 F200.00 
G01 X31.9625 Y10.6326 
G01 X31.9060 Y10.7689 
G01 X31.8240 Y10.8917 
G01 X31.7197 Y10.9960 
G01 X31.5969 Y11.0780 
G01 X31.4606 Y11.1345 
G01 X31.3158 Y11.1633 
G01 X31.1682 Y11.1633 
G01 X31.0234 Y11.1345 
G01 X30.8871 Y11.0780 
G01 X30.7643 Y10.9960 
G01 X30.6600 Y10.8917 
G01 X30.5780 Y10.7689 
G01 X30.5215 Y10.6326 
G01 X30.4927 Y10.4878 
G01 X30.4927 Y10.3402 
G01 X30.5215 Y10.1954 
G01 X30.5780 Y10.0591 
G01 X30.6600 Y9.9363 
G01 X30.7643 Y9.8320 
G01 X30.8871 Y9.7500 
G01 X31.0234 Y9.6935 
G01 X31.1682 Y9.6647 
G01 X31.3158 Y9.6647 
G01 X31.4606 Y9.6935 
G01 X31.5969 Y9.7500 
G01 X31.7197 Y9.8320 
G01 X31.8240 Y9.9363 
G01 X31.9060 Y10.0591 
G01 X31.9625 Y10.1954 
G01 X31.9913 Y10.3402 
G00 Z2.5400 
G00 X31.9913 Y25.5802 
G01 Z-0.1000 F254.00 
G01 X31.9913 Y25.7278 F200.00 
G01 X31.9625 Y25.8726 
G01 X31.9060 Y26.0089 
G01 X31.8240 Y26.1317 
G01 X31.7197 Y26.2360 
G01 X31.5969 Y26.3180 
G01 X31.4606 Y26.3745 
G01 X31.3158 Y26.4033 
G01 X31.1682 Y26.4033 
G01 X31.0234 Y26.3745 
G01 X30.8871 Y26.3180 
G01 X30.7643 Y26.2360 
G01 X30.6600 Y26.1317 
G01 X30.5780 Y26.0089 
G01 X30.5215 Y25.8726 
G01 X30.4927 Y25.7278 
G01 X30.4927 Y25.5802 
G01 X30.5215 Y25.4354 
G01 X30.5780 Y25.2991 
G01 X30.6600 Y25.1763 
G01 X30.7643 Y25.0720 
G01 X30.8871 Y24.9900 
G01 X31.0234 Y24.9335 
G01 X31.1682 Y24.9047 
G01 X31.3158 Y24.9047 
G01 X31.4606 Y24.9335 
G01 X31.5969 Y24.9900 
G01 X31.7197 Y25.0720 
G01 X31.8240 Y25.1763 
G01 X31.9060 Y25.2991 
G01 X31.9625 Y25.4354 
G01 X31.9913 Y25.5802 
G00 Z2.5400 
G00 X31.9913 Y28.1202 
G01 Z-0.1000 F254.00 
G01 X31.9913 Y28.2678 F200.00 
G01 X31.9625 Y28.4126 
G01 X31.9060 Y28.5489 
G01 X31.8240 Y28.6716 
G01 X31.7197 Y28.7760 
G01 X31.5969 Y28.8580 
G01 X31.4606 Y28.9145 
G01 X31.3158 Y28.9433 
G01 X31.1682 Y28.9433 
G01 X31.0234 Y28.9145 
G01 X30.8871 Y28.8580 
G01 X30.7643 Y28.7760 
G01 X30.6600 Y28.6716 
G01 X30.5780 Y28.5489 
G01 X30.5215 Y28.4126 
G01 X30.4927 Y28.2678 
G01 X30.4927 Y28.1202 
G01 X30.5215 Y27.9754 
G01 X30.5780 Y27.8391 
G01 X30.6600 Y27.7163 
G01 X30.7643 Y27.6120 
G01 X30.8871 Y27.5300 
G01 X31.0234 Y27.4735 
G01 X31.1682 Y27.4447 
G01 X31.3158 Y27.4447 
G01 X31.4606 Y27.4735 
G01 X31.5969 Y27.5300 
G01 X31.7197 Y27.6120 
G01 X31.8240 Y27.7163 
G01 X31.9060 Y27.8391 
G01 X31.9625 Y27.9754 
G01 X31.9913 Y28.1202 
G00 Z2.5400 
G00 X31.9913 Y42.0902 
G01 Z-0.1000 F254.00 
G01 X31.9913 Y42.2378 F200.00 
G01 X31.9625 Y42.3826 
G01 X31.9060 Y42.5189 
G01 X31.8240 Y42.6416 
G01 X31.7197 Y42.7460 
G01 X31.5969 Y42.8280 
G01 X31.4606 Y42.8845 
G01 X31.3158 Y42.9133 
G01 X31.1682 Y42.9133 
G01 X31.0234 Y42.8845 
G01 X30.8871 Y42.8280 
G01 X30.7643 Y42.7460 
G01 X30.6600 Y42.6416 
G01 X30.5780 Y42.5189 
G01 X30.5215 Y42.3826 
G01 X30.4927 Y42.2378 
G01 X30.4927 Y42.0902 
G01 X30.5215 Y41.9454 
G01 X30.5780 Y41.8091 
G01 X30.6600 Y41.6863 
G01 X30.7643 Y41.5820 
G01 X30.8871 Y41.5000 
G01 X31.0234 Y41.4435 
G01 X31.1682 Y41.4147 
G01 X31.3158 Y41.4147 
G01 X31.4606 Y41.4435 
G01 X31.5969 Y41.5000 
G01 X31.7197 Y41.5820 
G01 X31.8240 Y41.6863 
G01 X31.9060 Y41.8091 
G01 X31.9625 Y41.9454 
G01 X31.9913 Y42.0902 
G00 Z2.5400 
G00 X31.9913 Y44.6302 
G01 Z-0.1000 F254.00 
G01 X31.9913 Y44.7778 F200.00 
G01 X31.9625 Y44.9226 
G01 X31.9060 Y45.0589 
G01 X31.8240 Y45.1817 
G01 X31.7197 Y45.2860 
G01 X31.5969 Y45.3680 
G01 X31.4606 Y45.4245 
G01 X31.3158 Y45.4533 
G01 X31.1682 Y45.4533 
G01 X31.0234 Y45.4245 
G01 X30.8871 Y45.3680 
G01 X30.7643 Y45.2860 
G01 X30.6600 Y45.1817 
G01 X30.5780 Y45.0589 
G01 X30.5215 Y44.9226 
G01 X30.4927 Y44.7778 
G01 X30.4927 Y44.6302 
G01 X30.5215 Y44.4854 
G01 X30.5780 Y44.3491 
G01 X30.6600 Y44.2263 
G01 X30.7643 Y44.1220 
G01 X30.8871 Y44.0400 
G01 X31.0234 Y43.9835 
G01 X31.1682 Y43.9547 
G01 X31.3158 Y43.9547 
G01 X31.4606 Y43.9835 
G01 X31.5969 Y44.0400 
G01 X31.7197 Y44.1220 
G01 X31.8240 Y44.2263 
G01 X31.9060 Y44.3491 
G01 X31.9625 Y44.4854 
G01 X31.9913 Y44.6302 
G00 Z2.5400 
G00 X71.1327 Y70.8382 
G01 Z-0.1000 F254.00 
G01 X71.1327 Y69.3698 F200.00 
G01 X71.1615 Y69.2250 
G01 X71.2180 Y69.0887 
G01 X71.3000 Y68.9659 
G01 X71.4043 Y68.8616 
G01 X71.5271 Y68.7796 
G01 X71.6634 Y68.7231 
G01 X71.8082 Y68.6943 
G01 X71.9558 Y68.6943 
G01 X72.1006 Y68.7231 
G01 X72.2369 Y68.7796 
G01 X72.3597 Y68.8616 
G01 X72.4640 Y68.9659 
G01 X72.5460 Y69.0887 
G01 X72.6025 Y69.2250 
G01 X72.6313 Y69.3698 
G01 X72.6313 Y70.8382 
G01 X72.6025 Y70.9830 
G01 X72.5460 Y71.1193 
G01 X72.4640 Y71.2421 
G01 X72.3597 Y71.3464 
G01 X72.2369 Y71.4284 
G01 X72.1006 Y71.4849 
G01 X71.9558 Y71.5137 
G01 X71.8082 Y71.5137 
G01 X71.6634 Y71.4849 
G01 X71.5271 Y71.4284 
G01 X71.4043 Y71.3464 
G01 X71.3000 Y71.2421 
G01 X71.2180 Y71.1193 
G01 X71.1615 Y70.9830 
G01 X71.1327 Y70.8382 
G00 Z2.5400 
G00 X73.6727 Y70.8382 
G01 Z-0.1000 F254.00 
G01 X73.6727 Y69.3698 F200.00 
G01 X73.7015 Y69.2250 
G01 X73.7580 Y69.0887 
G01 X73.8400 Y68.9659 
G01 X73.9443 Y68.8616 
G01 X74.0671 Y68.7796 
G01 X74.2034 Y68.7231 
G01 X74.3482 Y68.6943 
G01 X74.4958 Y68.6943 
G01 X74.6406 Y68.7231 
G01 X74.7769 Y68.7796 
G01 X74.8997 Y68.8616 
G01 X75.0040 Y68.9659 
G01 X75.0860 Y69.0887 
G01 X75.1425 Y69.2250 
G01 X75.1713 Y69.3698 
G01 X75.1713 Y70.8382 
G01 X75.1425 Y70.9830 
G01 X75.0860 Y71.1193 
G01 X75.0040 Y71.2421 
G01 X74.8997 Y71.3464 
G01 X74.7769 Y71.4284 
G01 X74.6406 Y71.4849 
G01 X74.4958 Y71.5137 
G01 X74.3482 Y71.5137 
