(.../romang/EAGLE/ulps/pcb-gcode.ulp)
(Copyright 2005 - 2012 by John Johnson)
(See readme.txt for licensing terms.)
(This file generated from the board:)
(.../hw/ev_simulator/ev_emulator.brd)
(Current profile is .../EAGLE/ulps/profiles/generic.pp  )
(This file generated 03.01.19 09:28)
(Settings from pcb-machine.h)
(  Tool Size)
(0.1778 )
(Z Axis Settings)
(  High     Up        Down     Drill)
(12.7000 	2.5400 	-0.1000 	-2.0000 )
(spindle on time = 3.0000)
(milling depth = -2.0000)
(text depth = -0.1270)
(tool change at 12.7000 15.2400 25.4000 )
(feed rate xy = F200.00 )
(feed rate z  = F254.00 )
(Settings from pcb-defaults.h)
(isolate min = 0.0000)
(isolate max = 0.2000)
(isolate step = 0.2000)
(Generated top outlines, top drill, bottom outlines, bottom drill, )
(Unit of measure: mm)
( Tool|       Size       |  Min Sub |  Max Sub |   Count )
( T01  0.550mm 0.0217in 0.0000in 0.0000in )
( T02  0.600mm 0.0236in 0.0000in 0.0000in )
( T03  0.800mm 0.0315in 0.0000in 0.0000in )
( T04  0.813mm 0.0320in 0.0000in 0.0000in )
( T05  0.900mm 0.0354in 0.0000in 0.0000in )
( T06  1.000mm 0.0394in 0.0000in 0.0000in )
( T07  1.016mm 0.0400in 0.0000in 0.0000in )
( T08  2.000mm 0.0787in 0.0000in 0.0000in )
(Metric Mode)
G21
(Absolute Coordinates)
G90
M03 
G04 P3.000000
G00 Z2.540000
G00 X-93.0000 Y74.0000 
G01 Z-2.0000 F254.00 
G01 Z2.540000
(R2.5400  P1.000000)
(G00 Z2.540000)
G00 X-93.0000 Y3.0000 
G01 Z-2.000000
G01 Z2.540000
(G00 Z2.540000)
G00 X-3.0000 Y74.0000 
G01 Z-2.000000
G01 Z2.540000
(G00 Z2.540000)
G00 X-3.0000 Y3.0000 
G01 Z-2.000000
G01 Z2.540000
G04 P3.000000
G00 Z2.540000
G00 X-8.3820 Y35.6940 
G01 Z-2.0000 F254.00 
G01 Z2.540000
(R2.5400  P1.000000)
(G00 Z2.540000)
G00 X-8.3820 Y44.5840 
G01 Z-2.000000
G01 Z2.540000
(G00 Z2.540000)
G00 X-8.3820 Y52.2040 
G01 Z-2.000000
G01 Z2.540000
(G00 Z2.540000)
G00 X-8.3820 Y59.8240 
G01 Z-2.000000
G01 Z2.540000
(G00 Z2.540000)
G00 X-8.3820 Y67.4440 
G01 Z-2.000000
G01 Z2.540000
(G00 Z2.540000)
G00 X-8.3820 Y10.2940 
G01 Z-2.000000
G01 Z2.540000
(G00 Z2.540000)
G00 X-8.3820 Y17.9140 
G01 Z-2.000000
G01 Z2.540000
(G00 Z2.540000)
G00 X-8.3820 Y28.0740 
G01 Z-2.000000
G01 Z2.540000
(G00 Z2.540000)
G00 X-10.9220 Y35.6940 
G01 Z-2.000000
G01 Z2.540000
(G00 Z2.540000)
G00 X-10.9220 Y44.5840 
G01 Z-2.000000
G01 Z2.540000
(G00 Z2.540000)
G00 X-10.9220 Y52.2040 
G01 Z-2.000000
G01 Z2.540000
(G00 Z2.540000)
G00 X-10.9220 Y59.8240 
G01 Z-2.000000
G01 Z2.540000
(G00 Z2.540000)
G00 X-10.9220 Y67.4440 
G01 Z-2.000000
G01 Z2.540000
(G00 Z2.540000)
G00 X-10.9220 Y10.2940 
G01 Z-2.000000
G01 Z2.540000
(G00 Z2.540000)
G00 X-10.9220 Y17.9140 
G01 Z-2.000000
G01 Z2.540000
(G00 Z2.540000)
G00 X-10.9220 Y28.0740 
G01 Z-2.000000
G01 Z2.540000
(G00 Z2.540000)
G00 X-13.4620 Y35.6940 
G01 Z-2.000000
G01 Z2.540000
(G00 Z2.540000)
G00 X-13.4620 Y44.5840 
G01 Z-2.000000
G01 Z2.540000
(G00 Z2.540000)
G00 X-13.4620 Y52.2040 
G01 Z-2.000000
G01 Z2.540000
(G00 Z2.540000)
G00 X-13.4620 Y59.8240 
G01 Z-2.000000
G01 Z2.540000
(G00 Z2.540000)
G00 X-13.4620 Y67.4440 
G01 Z-2.000000
G01 Z2.540000
(G00 Z2.540000)
G00 X-13.4620 Y10.2940 
G01 Z-2.000000
G01 Z2.540000
(G00 Z2.540000)
G00 X-13.4620 Y17.9140 
G01 Z-2.000000
G01 Z2.540000
(G00 Z2.540000)
G00 X-13.4620 Y28.0740 
G01 Z-2.000000
G01 Z2.540000
(G00 Z2.540000)
G00 X-16.0020 Y35.6940 
G01 Z-2.000000
G01 Z2.540000
(G00 Z2.540000)
G00 X-16.0020 Y44.5840 
G01 Z-2.000000
G01 Z2.540000
(G00 Z2.540000)
G00 X-16.0020 Y52.2040 
G01 Z-2.000000
G01 Z2.540000
(G00 Z2.540000)
G00 X-16.0020 Y59.8240 
G01 Z-2.000000
G01 Z2.540000
(G00 Z2.540000)
G00 X-16.0020 Y67.4440 
G01 Z-2.000000
G01 Z2.540000
(G00 Z2.540000)
G00 X-16.0020 Y10.2940 
G01 Z-2.000000
G01 Z2.540000
(G00 Z2.540000)
G00 X-16.0020 Y17.9140 
G01 Z-2.000000
G01 Z2.540000
(G00 Z2.540000)
G00 X-16.0020 Y28.0740 
G01 Z-2.000000
G01 Z2.540000
(G00 Z2.540000)
G00 X-18.5420 Y35.6940 
G01 Z-2.000000
G01 Z2.540000
(G00 Z2.540000)
G00 X-18.5420 Y44.5840 
G01 Z-2.000000
G01 Z2.540000
(G00 Z2.540000)
G00 X-18.5420 Y52.2040 
G01 Z-2.000000
G01 Z2.540000
(G00 Z2.540000)
G00 X-18.5420 Y59.8240 
G01 Z-2.000000
G01 Z2.540000
(G00 Z2.540000)
G00 X-18.5420 Y67.4440 
G01 Z-2.000000
G01 Z2.540000
(G00 Z2.540000)
G00 X-18.5420 Y10.2940 
G01 Z-2.000000
G01 Z2.540000
(G00 Z2.540000)
G00 X-18.5420 Y17.9140 
G01 Z-2.000000
G01 Z2.540000
(G00 Z2.540000)
G00 X-18.5420 Y28.0740 
G01 Z-2.000000
G01 Z2.540000
M05
G00 Z25.4000 
G00 X0.000 Y0.000
G04 P30.000000
M03
G04 P3.000000
G00 Z2.540000
G00 X-50.2920 Y32.0040 
G01 Z-2.0000 F254.00 
G01 Z2.540000
(R2.5400  P1.000000)
(G00 Z2.540000)
G00 X-50.2920 Y34.5440 
G01 Z-2.000000
G01 Z2.540000
(G00 Z2.540000)
G00 X-50.2920 Y37.0840 
G01 Z-2.000000
G01 Z2.540000
(G00 Z2.540000)
G00 X-50.2920 Y39.6240 
G01 Z-2.000000
G01 Z2.540000
(G00 Z2.540000)
G00 X-50.2920 Y42.1640 
G01 Z-2.000000
G01 Z2.540000
(G00 Z2.540000)
G00 X-50.2920 Y44.7040 
G01 Z-2.000000
G01 Z2.540000
(G00 Z2.540000)
G00 X-50.2920 Y47.2440 
G01 Z-2.000000
G01 Z2.540000
(G00 Z2.540000)
G00 X-50.2920 Y49.7840 
G01 Z-2.000000
G01 Z2.540000
(G00 Z2.540000)
G00 X-50.2920 Y52.3240 
G01 Z-2.000000
G01 Z2.540000
(G00 Z2.540000)
G00 X-50.2920 Y54.8640 
G01 Z-2.000000
G01 Z2.540000
(G00 Z2.540000)
G00 X-50.2920 Y57.4040 
G01 Z-2.000000
G01 Z2.540000
(G00 Z2.540000)
G00 X-50.2920 Y59.9440 
G01 Z-2.000000
G01 Z2.540000
(G00 Z2.540000)
G00 X-50.2920 Y62.4840 
G01 Z-2.000000
G01 Z2.540000
(G00 Z2.540000)
G00 X-50.2920 Y65.0240 
G01 Z-2.000000
G01 Z2.540000
(G00 Z2.540000)
G00 X-50.2920 Y67.5640 
G01 Z-2.000000
G01 Z2.540000
(G00 Z2.540000)
G00 X-50.2920 Y19.3040 
G01 Z-2.000000
G01 Z2.540000
(G00 Z2.540000)
G00 X-50.2920 Y21.8440 
G01 Z-2.000000
G01 Z2.540000
(G00 Z2.540000)
G00 X-50.2920 Y24.3840 
G01 Z-2.000000
G01 Z2.540000
(G00 Z2.540000)
G00 X-50.2920 Y26.9240 
G01 Z-2.000000
G01 Z2.540000
(G00 Z2.540000)
G00 X-50.2920 Y29.4640 
G01 Z-2.000000
G01 Z2.540000
(G00 Z2.540000)
G00 X-65.5320 Y32.0040 
G01 Z-2.000000
G01 Z2.540000
(G00 Z2.540000)
G00 X-65.5320 Y34.5440 
G01 Z-2.000000
G01 Z2.540000
(G00 Z2.540000)
G00 X-65.5320 Y37.0840 
G01 Z-2.000000
G01 Z2.540000
(G00 Z2.540000)
G00 X-65.5320 Y39.6240 
G01 Z-2.000000
G01 Z2.540000
(G00 Z2.540000)
G00 X-65.5320 Y42.1640 
G01 Z-2.000000
G01 Z2.540000
(G00 Z2.540000)
G00 X-65.5320 Y44.7040 
G01 Z-2.000000
G01 Z2.540000
(G00 Z2.540000)
G00 X-65.5320 Y47.2440 
G01 Z-2.000000
G01 Z2.540000
(G00 Z2.540000)
G00 X-65.5320 Y49.7840 
G01 Z-2.000000
G01 Z2.540000
(G00 Z2.540000)
G00 X-65.5320 Y52.3240 
G01 Z-2.000000
G01 Z2.540000
(G00 Z2.540000)
G00 X-65.5320 Y54.8640 
G01 Z-2.000000
G01 Z2.540000
(G00 Z2.540000)
G00 X-65.5320 Y57.4040 
G01 Z-2.000000
G01 Z2.540000
(G00 Z2.540000)
G00 X-65.5320 Y59.9440 
G01 Z-2.000000
G01 Z2.540000
(G00 Z2.540000)
G00 X-65.5320 Y62.4840 
G01 Z-2.000000
G01 Z2.540000
(G00 Z2.540000)
G00 X-65.5320 Y65.0240 
G01 Z-2.000000
G01 Z2.540000
(G00 Z2.540000)
G00 X-65.5320 Y67.5640 
G01 Z-2.000000
G01 Z2.540000
(G00 Z2.540000)
G00 X-65.5320 Y19.3040 
G01 Z-2.000000
G01 Z2.540000
(G00 Z2.540000)
G00 X-65.5320 Y21.8440 
G01 Z-2.000000
G01 Z2.540000
(G00 Z2.540000)
G00 X-65.5320 Y24.3840 
G01 Z-2.000000
G01 Z2.540000
(G00 Z2.540000)
G00 X-65.5320 Y26.9240 
G01 Z-2.000000
G01 Z2.540000
(G00 Z2.540000)
G00 X-65.5320 Y29.4640 
G01 Z-2.000000
G01 Z2.540000
G04 P3.000000
G00 Z2.540000
G00 X-34.4170 Y45.9740 
G01 Z-2.0000 F254.00 
G01 Z2.540000
(R2.5400  P1.000000)
(G00 Z2.540000)
G00 X-34.4170 Y29.4640 
G01 Z-2.000000
G01 Z2.540000
(G00 Z2.540000)
G00 X-35.7170 Y61.2140 
G01 Z-2.000000
G01 Z2.540000
(G00 Z2.540000)
G00 X-36.3220 Y44.7040 
G01 Z-2.000000
G01 Z2.540000
(G00 Z2.540000)
G00 X-36.3220 Y47.2440 
G01 Z-2.000000
G01 Z2.540000
(G00 Z2.540000)
G00 X-36.3220 Y28.1940 
G01 Z-2.000000
G01 Z2.540000
(G00 Z2.540000)
G00 X-36.3220 Y30.7340 
G01 Z-2.000000
G01 Z2.540000
(G00 Z2.540000)
G00 X-36.6920 Y7.4290 
G01 Z-2.000000
G01 Z2.540000
(G00 Z2.540000)
G00 X-37.6220 Y59.9440 
G01 Z-2.000000
G01 Z2.540000
(G00 Z2.540000)
G00 X-37.6220 Y62.4840 
G01 Z-2.000000
G01 Z2.540000
(G00 Z2.540000)
G00 X-38.5970 Y6.1590 
G01 Z-2.000000
G01 Z2.540000
(G00 Z2.540000)
G00 X-38.5970 Y8.6990 
G01 Z-2.000000
G01 Z2.540000
(G00 Z2.540000)
G00 X-71.8820 Y62.4840 
G01 Z-2.000000
G01 Z2.540000
(G00 Z2.540000)
G00 X-71.8820 Y70.1040 
G01 Z-2.000000
G01 Z2.540000
(G00 Z2.540000)
G00 X-74.4220 Y62.4840 
G01 Z-2.000000
G01 Z2.540000
(G00 Z2.540000)
G00 X-74.4220 Y70.1040 
G01 Z-2.000000
G01 Z2.540000
(G00 Z2.540000)
G00 X-76.9620 Y62.4840 
G01 Z-2.000000
G01 Z2.540000
(G00 Z2.540000)
G00 X-76.9620 Y70.1040 
G01 Z-2.000000
G01 Z2.540000
(G00 Z2.540000)
G00 X-79.5020 Y62.4840 
G01 Z-2.000000
G01 Z2.540000
(G00 Z2.540000)
G00 X-79.5020 Y70.1040 
G01 Z-2.000000
G01 Z2.540000
(G00 Z2.540000)
G00 X-82.0420 Y62.4840 
G01 Z-2.000000
G01 Z2.540000
(G00 Z2.540000)
G00 X-82.0420 Y70.1040 
G01 Z-2.000000
G01 Z2.540000
(G00 Z2.540000)
G00 X-8.3820 Y57.4040 
G01 Z-2.000000
G01 Z2.540000
(G00 Z2.540000)
G00 X-84.5820 Y62.4840 
G01 Z-2.000000
G01 Z2.540000
(G00 Z2.540000)
G00 X-84.5820 Y70.1040 
G01 Z-2.000000
G01 Z2.540000
(G00 Z2.540000)
G00 X-87.1220 Y62.4840 
G01 Z-2.000000
G01 Z2.540000
(G00 Z2.540000)
G00 X-87.1220 Y70.1040 
G01 Z-2.000000
G01 Z2.540000
(G00 Z2.540000)
G00 X-18.5420 Y57.4040 
G01 Z-2.000000
G01 Z2.540000
(G00 Z2.540000)
G00 X-23.6220 Y33.2740 
G01 Z-2.000000
G01 Z2.540000
(G00 Z2.540000)
G00 X-23.6220 Y47.2440 
G01 Z-2.000000
G01 Z2.540000
(G00 Z2.540000)
G00 X-23.6220 Y49.7840 
G01 Z-2.000000
G01 Z2.540000
(G00 Z2.540000)
G00 X-23.6220 Y62.4840 
G01 Z-2.000000
G01 Z2.540000
(G00 Z2.540000)
G00 X-23.6220 Y65.0240 
G01 Z-2.000000
G01 Z2.540000
(G00 Z2.540000)
G00 X-23.6220 Y12.9540 
G01 Z-2.000000
G01 Z2.540000
(G00 Z2.540000)
G00 X-23.6220 Y15.4940 
G01 Z-2.000000
G01 Z2.540000
(G00 Z2.540000)
G00 X-23.6220 Y30.7340 
G01 Z-2.000000
G01 Z2.540000
(G00 Z2.540000)
G00 X-27.4320 Y37.0840 
G01 Z-2.000000
G01 Z2.540000
(G00 Z2.540000)
G00 X-27.4320 Y43.4340 
G01 Z-2.000000
G01 Z2.540000
(G00 Z2.540000)
G00 X-27.4320 Y53.5940 
G01 Z-2.000000
G01 Z2.540000
(G00 Z2.540000)
G00 X-27.4320 Y58.6740 
G01 Z-2.000000
G01 Z2.540000
(G00 Z2.540000)
G00 X-27.4320 Y68.8340 
G01 Z-2.000000
G01 Z2.540000
(G00 Z2.540000)
G00 X-27.4320 Y9.1440 
G01 Z-2.000000
G01 Z2.540000
(G00 Z2.540000)
G00 X-27.4320 Y19.3040 
G01 Z-2.000000
G01 Z2.540000
(G00 Z2.540000)
G00 X-27.4320 Y26.9240 
G01 Z-2.000000
G01 Z2.540000
(G00 Z2.540000)
G00 X-31.2420 Y42.1640 
G01 Z-2.000000
G01 Z2.540000
(G00 Z2.540000)
G00 X-31.2420 Y44.7040 
G01 Z-2.000000
G01 Z2.540000
(G00 Z2.540000)
G00 X-31.2420 Y58.0540 
G01 Z-2.000000
G01 Z2.540000
(G00 Z2.540000)
G00 X-31.2420 Y60.5940 
G01 Z-2.000000
G01 Z2.540000
(G00 Z2.540000)
G00 X-31.2420 Y7.8740 
G01 Z-2.000000
G01 Z2.540000
(G00 Z2.540000)
G00 X-31.2420 Y10.4140 
G01 Z-2.000000
G01 Z2.540000
(G00 Z2.540000)
G00 X-31.2420 Y25.6540 
G01 Z-2.000000
G01 Z2.540000
(G00 Z2.540000)
G00 X-31.2420 Y28.1940 
G01 Z-2.000000
G01 Z2.540000
G04 P3.000000
G00 Z2.540000
G00 X-31.2720 Y63.7840 
G01 Z-2.0000 F254.00 
G01 Z2.540000
(R2.5400  P1.000000)
(G00 Z2.540000)
G00 X-31.2720 Y71.4040 
G01 Z-2.000000
G01 Z2.540000
(G00 Z2.540000)
G00 X-32.1870 Y17.3540 
G01 Z-2.000000
G01 Z2.540000
(G00 Z2.540000)
G00 X-32.5120 Y51.0540 
G01 Z-2.000000
G01 Z2.540000
(G00 Z2.540000)
G00 X-32.8370 Y35.5190 
G01 Z-2.000000
G01 Z2.540000
(G00 Z2.540000)
G00 X-33.1620 Y39.0340 
G01 Z-2.000000
G01 Z2.540000
(G00 Z2.540000)
G00 X-33.8120 Y54.2440 
G01 Z-2.000000
G01 Z2.540000
(G00 Z2.540000)
G00 X-34.4620 Y66.2940 
G01 Z-2.000000
G01 Z2.540000
(G00 Z2.540000)
G00 X-34.4620 Y70.1340 
G01 Z-2.000000
G01 Z2.540000
(G00 Z2.540000)
G00 X-34.4620 Y14.1640 
G01 Z-2.000000
G01 Z2.540000
(G00 Z2.540000)
G00 X-39.8070 Y17.3540 
G01 Z-2.000000
G01 Z2.540000
(G00 Z2.540000)
G00 X-40.1320 Y51.0540 
G01 Z-2.000000
G01 Z2.540000
(G00 Z2.540000)
G00 X-40.4570 Y35.5190 
G01 Z-2.000000
G01 Z2.540000
(G00 Z2.540000)
G00 X-40.7820 Y39.0340 
G01 Z-2.000000
G01 Z2.540000
(G00 Z2.540000)
G00 X-41.4320 Y54.2440 
G01 Z-2.000000
G01 Z2.540000
(G00 Z2.540000)
G00 X-42.0820 Y66.2940 
G01 Z-2.000000
G01 Z2.540000
(G00 Z2.540000)
G00 X-42.0820 Y70.1340 
G01 Z-2.000000
G01 Z2.540000
(G00 Z2.540000)
G00 X-42.0820 Y14.1640 
G01 Z-2.000000
G01 Z2.540000
(G00 Z2.540000)
G00 X-5.8420 Y42.1640 
G01 Z-2.000000
G01 Z2.540000
(G00 Z2.540000)
G00 X-5.8420 Y6.6040 
G01 Z-2.000000
G01 Z2.540000
(G00 Z2.540000)
G00 X-5.8420 Y25.6540 
G01 Z-2.000000
G01 Z2.540000
(G00 Z2.540000)
G00 X-70.6120 Y45.9740 
G01 Z-2.000000
G01 Z2.540000
(G00 Z2.540000)
G00 X-70.6120 Y53.5940 
G01 Z-2.000000
G01 Z2.540000
(G00 Z2.540000)
G00 X-73.1520 Y51.0540 
G01 Z-2.000000
G01 Z2.540000
(G00 Z2.540000)
G00 X-73.1520 Y58.6740 
G01 Z-2.000000
G01 Z2.540000
(G00 Z2.540000)
G00 X-75.6920 Y51.0540 
G01 Z-2.000000
G01 Z2.540000
(G00 Z2.540000)
G00 X-75.6920 Y58.6740 
G01 Z-2.000000
G01 Z2.540000
(G00 Z2.540000)
G00 X-75.9870 Y16.2890 
G01 Z-2.000000
G01 Z2.540000
(G00 Z2.540000)
G00 X-75.9870 Y23.9090 
G01 Z-2.000000
G01 Z2.540000
(G00 Z2.540000)
G00 X-76.9920 Y39.6240 
G01 Z-2.000000
G01 Z2.540000
(G00 Z2.540000)
G00 X-76.9920 Y47.2440 
G01 Z-2.000000
G01 Z2.540000
(G00 Z2.540000)
G00 X-78.2320 Y51.0540 
G01 Z-2.000000
G01 Z2.540000
(G00 Z2.540000)
G00 X-78.2320 Y58.6740 
G01 Z-2.000000
G01 Z2.540000
(G00 Z2.540000)
G00 X-80.1220 Y32.0040 
G01 Z-2.000000
G01 Z2.540000
(G00 Z2.540000)
G00 X-80.1220 Y24.3840 
G01 Z-2.000000
G01 Z2.540000
(G00 Z2.540000)
G00 X-80.7720 Y38.3540 
G01 Z-2.000000
G01 Z2.540000
(G00 Z2.540000)
G00 X-80.7720 Y45.9740 
G01 Z-2.000000
G01 Z2.540000
(G00 Z2.540000)
G00 X-80.7720 Y51.0540 
G01 Z-2.000000
G01 Z2.540000
(G00 Z2.540000)
G00 X-80.7720 Y58.6740 
G01 Z-2.000000
G01 Z2.540000
(G00 Z2.540000)
G00 X-83.3120 Y51.0540 
G01 Z-2.000000
G01 Z2.540000
(G00 Z2.540000)
G00 X-83.3120 Y58.6740 
G01 Z-2.000000
G01 Z2.540000
(G00 Z2.540000)
G00 X-10.9220 Y38.3540 
G01 Z-2.000000
G01 Z2.540000
(G00 Z2.540000)
G00 X-10.9220 Y54.8640 
G01 Z-2.000000
G01 Z2.540000
(G00 Z2.540000)
G00 X-10.9220 Y20.5740 
G01 Z-2.000000
G01 Z2.540000
(G00 Z2.540000)
G00 X-12.1920 Y71.0790 
G01 Z-2.000000
G01 Z2.540000
(G00 Z2.540000)
G00 X-13.4620 Y42.1640 
G01 Z-2.000000
G01 Z2.540000
(G00 Z2.540000)
G00 X-13.4620 Y6.6040 
G01 Z-2.000000
G01 Z2.540000
(G00 Z2.540000)
G00 X-13.4620 Y25.6540 
G01 Z-2.000000
G01 Z2.540000
(G00 Z2.540000)
G00 X-18.5420 Y38.3540 
G01 Z-2.000000
G01 Z2.540000
(G00 Z2.540000)
G00 X-18.5420 Y54.8640 
G01 Z-2.000000
G01 Z2.540000
(G00 Z2.540000)
G00 X-18.5420 Y20.5740 
G01 Z-2.000000
G01 Z2.540000
(G00 Z2.540000)
G00 X-19.8120 Y71.0790 
G01 Z-2.000000
G01 Z2.540000
(G00 Z2.540000)
G00 X-29.9720 Y38.3540 
G01 Z-2.000000
G01 Z2.540000
(G00 Z2.540000)
G00 X-29.9720 Y47.2440 
G01 Z-2.000000
G01 Z2.540000
(G00 Z2.540000)
G00 X-29.9720 Y54.8640 
G01 Z-2.000000
G01 Z2.540000
(G00 Z2.540000)
G00 X-29.9720 Y12.9540 
G01 Z-2.000000
G01 Z2.540000
(G00 Z2.540000)
G00 X-29.9720 Y20.5740 
G01 Z-2.000000
G01 Z2.540000
(G00 Z2.540000)
G00 X-29.9720 Y30.7340 
G01 Z-2.000000
G01 Z2.540000
M05
G00 Z25.4000 
G00 X0.000 Y0.000
G04 P30.000000
M03
G04 P3.000000
G00 Z2.540000
G00 X-36.4490 Y23.1140 
G01 Z-2.0000 F254.00 
G01 Z2.540000
(R2.5400  P1.000000)
(G00 Z2.540000)
G00 X-42.9520 Y23.1540 
G01 Z-2.000000
G01 Z2.540000
(G00 Z2.540000)
G00 X-54.3670 Y10.5040 
G01 Z-2.000000
G01 Z2.540000
(G00 Z2.540000)
G00 X-56.9070 Y10.5040 
G01 Z-2.000000
G01 Z2.540000
(G00 Z2.540000)
G00 X-59.4470 Y10.5040 
G01 Z-2.000000
G01 Z2.540000
(G00 Z2.540000)
G00 X-61.9870 Y10.5040 
G01 Z-2.000000
G01 Z2.540000
(G00 Z2.540000)
G00 X-9.8020 Y64.4290 
G01 Z-2.000000
G01 Z2.540000
(G00 Z2.540000)
G00 X-17.2770 Y64.4290 
G01 Z-2.000000
G01 Z2.540000
G04 P3.000000
G00 Z2.540000
G00 X-82.8358 Y15.9534 
G01 Z-2.0000 F254.00 
G01 Z2.540000
(R2.5400  P1.000000)
(G00 Z2.540000)
G00 X-82.8358 Y20.4746 
G01 Z-2.000000
G01 Z2.540000
(G00 Z2.540000)
G00 X-82.8358 Y25.1384 
G01 Z-2.000000
G01 Z2.540000
(G00 Z2.540000)
G00 X-82.8358 Y29.6596 
G01 Z-2.000000
G01 Z2.540000
(G00 Z2.540000)
G00 X-89.3382 Y15.9534 
G01 Z-2.000000
G01 Z2.540000
(G00 Z2.540000)
G00 X-89.3382 Y20.4746 
G01 Z-2.000000
G01 Z2.540000
(G00 Z2.540000)
G00 X-89.3382 Y25.1384 
G01 Z-2.000000
G01 Z2.540000
(G00 Z2.540000)
G00 X-89.3382 Y29.6596 
G01 Z-2.000000
G01 Z2.540000
(G00 Z2.540000)
G00 X-89.6620 Y47.2440 
G01 Z-2.000000
G01 Z2.540000
(G00 Z2.540000)
G00 X-89.6620 Y49.7840 
G01 Z-2.000000
G01 Z2.540000
(G00 Z2.540000)
G00 X-89.6620 Y53.5940 
G01 Z-2.000000
G01 Z2.540000
(G00 Z2.540000)
G00 X-89.6620 Y56.1340 
G01 Z-2.000000
G01 Z2.540000
G04 P3.000000
G00 Z2.540000
G00 X-47.7630 Y34.7610 
G01 Z-2.0000 F254.00 
G01 Z2.540000
(R2.5400  P1.000000)
(G00 Z2.540000)
G00 X-47.7630 Y11.6470 
G01 Z-2.000000
G01 Z2.540000
(G00 Z2.540000)
G00 X-68.5910 Y34.7610 
G01 Z-2.000000
G01 Z2.540000
(G00 Z2.540000)
G00 X-68.5910 Y11.6470 
G01 Z-2.000000
G01 Z2.540000
T01 
G00 Z12.7000 
M05
M02
