(.../romang/EAGLE/ulps/pcb-gcode.ulp)
(Copyright 2005 - 2012 by John Johnson)
(See readme.txt for licensing terms.)
(This file generated from the board:)
(.../hw/ev_simulator/ev_emulator.brd)
(Current profile is .../EAGLE/ulps/profiles/generic.pp  )
(This file generated 03.01.19 09:28)
(Settings from pcb-machine.h)
(  Tool Size)
(0.1778 )
(Z Axis Settings)
(  High     Up        Down     Drill)
(12.7000 	2.5400 	-0.1000 	-2.0000 )
(spindle on time = 3.0000)
(milling depth = -2.0000)
(text depth = -0.1270)
(tool change at 12.7000 15.2400 25.4000 )
(feed rate xy = F200.00 )
(feed rate z  = F254.00 )
(Settings from pcb-defaults.h)
(isolate min = 0.0000)
(isolate max = 0.2000)
(isolate step = 0.2000)
(Generated top outlines, top drill, bottom outlines, bottom drill, )
(Unit of measure: mm)
( Tool|       Size       |  Min Sub |  Max Sub |   Count )
( T01  0.550mm 0.0217in 0.0000in 0.0000in )
( T02  0.600mm 0.0236in 0.0000in 0.0000in )
( T03  0.800mm 0.0315in 0.0000in 0.0000in )
( T04  0.813mm 0.0320in 0.0000in 0.0000in )
( T05  0.900mm 0.0354in 0.0000in 0.0000in )
( T06  1.000mm 0.0394in 0.0000in 0.0000in )
( T07  1.016mm 0.0400in 0.0000in 0.0000in )
( T08  2.000mm 0.0787in 0.0000in 0.0000in )
(Metric Mode)
G21
(Absolute Coordinates)
G90
M05
G00 Z25.4000 
G00 X12.7000 Y15.2400 
M06 T01  ; 0.5500 
G01 Z0.0000 F254.00 
M06 T01  ; 0.5500 
G00 Z2.5400 
M03
G04 P3.000000
G00 Z2.540000
G00 X93.0000 Y74.0000 
G01 Z-2.0000 F254.00 
G01 Z2.540000
(R2.5400  P1.000000)
(G00 Z2.540000)
G00 X93.0000 Y3.0000 
G01 Z-2.000000
G01 Z2.540000
(G00 Z2.540000)
G00 X3.0000 Y74.0000 
G01 Z-2.000000
G01 Z2.540000
(G00 Z2.540000)
G00 X3.0000 Y3.0000 
G01 Z-2.000000
G01 Z2.540000
M05
G00 Z25.4000 
M06 T02  ; 0.6000 
G01 Z0.0000 F254.00 
M06 T02  ; 0.6000 
G00 Z2.5400 
M03
G04 P3.000000
G00 Z2.540000
G00 X8.3820 Y35.6940 
G01 Z-2.0000 F254.00 
G01 Z2.540000
(R2.5400  P1.000000)
(G00 Z2.540000)
G00 X8.3820 Y44.5840 
G01 Z-2.000000
G01 Z2.540000
(G00 Z2.540000)
G00 X8.3820 Y52.2040 
G01 Z-2.000000
G01 Z2.540000
(G00 Z2.540000)
G00 X8.3820 Y59.8240 
G01 Z-2.000000
G01 Z2.540000
(G00 Z2.540000)
G00 X8.3820 Y67.4440 
G01 Z-2.000000
G01 Z2.540000
(G00 Z2.540000)
G00 X8.3820 Y10.2940 
G01 Z-2.000000
G01 Z2.540000
(G00 Z2.540000)
G00 X8.3820 Y17.9140 
G01 Z-2.000000
G01 Z2.540000
(G00 Z2.540000)
G00 X8.3820 Y28.0740 
G01 Z-2.000000
G01 Z2.540000
(G00 Z2.540000)
G00 X10.9220 Y35.6940 
G01 Z-2.000000
G01 Z2.540000
(G00 Z2.540000)
G00 X10.9220 Y44.5840 
G01 Z-2.000000
G01 Z2.540000
(G00 Z2.540000)
G00 X10.9220 Y52.2040 
G01 Z-2.000000
G01 Z2.540000
(G00 Z2.540000)
G00 X10.9220 Y59.8240 
G01 Z-2.000000
G01 Z2.540000
(G00 Z2.540000)
G00 X10.9220 Y67.4440 
G01 Z-2.000000
G01 Z2.540000
(G00 Z2.540000)
G00 X10.9220 Y10.2940 
G01 Z-2.000000
G01 Z2.540000
(G00 Z2.540000)
G00 X10.9220 Y17.9140 
G01 Z-2.000000
G01 Z2.540000
(G00 Z2.540000)
G00 X10.9220 Y28.0740 
G01 Z-2.000000
G01 Z2.540000
(G00 Z2.540000)
G00 X13.4620 Y35.6940 
G01 Z-2.000000
G01 Z2.540000
(G00 Z2.540000)
G00 X13.4620 Y44.5840 
G01 Z-2.000000
G01 Z2.540000
(G00 Z2.540000)
G00 X13.4620 Y52.2040 
G01 Z-2.000000
G01 Z2.540000
(G00 Z2.540000)
G00 X13.4620 Y59.8240 
G01 Z-2.000000
G01 Z2.540000
(G00 Z2.540000)
G00 X13.4620 Y67.4440 
G01 Z-2.000000
G01 Z2.540000
(G00 Z2.540000)
G00 X13.4620 Y10.2940 
G01 Z-2.000000
G01 Z2.540000
(G00 Z2.540000)
G00 X13.4620 Y17.9140 
G01 Z-2.000000
G01 Z2.540000
(G00 Z2.540000)
G00 X13.4620 Y28.0740 
G01 Z-2.000000
G01 Z2.540000
(G00 Z2.540000)
G00 X16.0020 Y35.6940 
G01 Z-2.000000
G01 Z2.540000
(G00 Z2.540000)
G00 X16.0020 Y44.5840 
G01 Z-2.000000
G01 Z2.540000
(G00 Z2.540000)
G00 X16.0020 Y52.2040 
G01 Z-2.000000
G01 Z2.540000
(G00 Z2.540000)
G00 X16.0020 Y59.8240 
G01 Z-2.000000
G01 Z2.540000
(G00 Z2.540000)
G00 X16.0020 Y67.4440 
G01 Z-2.000000
G01 Z2.540000
(G00 Z2.540000)
G00 X16.0020 Y10.2940 
G01 Z-2.000000
G01 Z2.540000
(G00 Z2.540000)
G00 X16.0020 Y17.9140 
G01 Z-2.000000
G01 Z2.540000
(G00 Z2.540000)
G00 X16.0020 Y28.0740 
G01 Z-2.000000
G01 Z2.540000
(G00 Z2.540000)
G00 X18.5420 Y35.6940 
G01 Z-2.000000
G01 Z2.540000
(G00 Z2.540000)
G00 X18.5420 Y44.5840 
G01 Z-2.000000
G01 Z2.540000
(G00 Z2.540000)
G00 X18.5420 Y52.2040 
G01 Z-2.000000
G01 Z2.540000
(G00 Z2.540000)
G00 X18.5420 Y59.8240 
G01 Z-2.000000
G01 Z2.540000
(G00 Z2.540000)
G00 X18.5420 Y67.4440 
G01 Z-2.000000
G01 Z2.540000
(G00 Z2.540000)
G00 X18.5420 Y10.2940 
G01 Z-2.000000
G01 Z2.540000
(G00 Z2.540000)
G00 X18.5420 Y17.9140 
G01 Z-2.000000
G01 Z2.540000
(G00 Z2.540000)
G00 X18.5420 Y28.0740 
G01 Z-2.000000
G01 Z2.540000
M05
G00 Z25.4000 
M06 T03  ; 0.8000 
G01 Z0.0000 F254.00 
M06 T03  ; 0.8000 
G00 Z2.5400 
M03
G04 P3.000000
G00 Z2.540000
G00 X50.2920 Y32.0040 
G01 Z-2.0000 F254.00 
G01 Z2.540000
(R2.5400  P1.000000)
(G00 Z2.540000)
G00 X50.2920 Y34.5440 
G01 Z-2.000000
G01 Z2.540000
(G00 Z2.540000)
G00 X50.2920 Y37.0840 
G01 Z-2.000000
G01 Z2.540000
(G00 Z2.540000)
G00 X50.2920 Y39.6240 
G01 Z-2.000000
G01 Z2.540000
(G00 Z2.540000)
G00 X50.2920 Y42.1640 
G01 Z-2.000000
G01 Z2.540000
(G00 Z2.540000)
G00 X50.2920 Y44.7040 
G01 Z-2.000000
G01 Z2.540000
(G00 Z2.540000)
G00 X50.2920 Y47.2440 
G01 Z-2.000000
G01 Z2.540000
(G00 Z2.540000)
G00 X50.2920 Y49.7840 
G01 Z-2.000000
G01 Z2.540000
(G00 Z2.540000)
G00 X50.2920 Y52.3240 
G01 Z-2.000000
G01 Z2.540000
(G00 Z2.540000)
G00 X50.2920 Y54.8640 
G01 Z-2.000000
G01 Z2.540000
(G00 Z2.540000)
G00 X50.2920 Y57.4040 
G01 Z-2.000000
G01 Z2.540000
(G00 Z2.540000)
G00 X50.2920 Y59.9440 
G01 Z-2.000000
G01 Z2.540000
(G00 Z2.540000)
G00 X50.2920 Y62.4840 
G01 Z-2.000000
G01 Z2.540000
(G00 Z2.540000)
G00 X50.2920 Y65.0240 
G01 Z-2.000000
G01 Z2.540000
(G00 Z2.540000)
G00 X50.2920 Y67.5640 
G01 Z-2.000000
G01 Z2.540000
(G00 Z2.540000)
G00 X50.2920 Y19.3040 
G01 Z-2.000000
G01 Z2.540000
(G00 Z2.540000)
G00 X50.2920 Y21.8440 
G01 Z-2.000000
G01 Z2.540000
(G00 Z2.540000)
G00 X50.2920 Y24.3840 
G01 Z-2.000000
G01 Z2.540000
(G00 Z2.540000)
G00 X50.2920 Y26.9240 
G01 Z-2.000000
G01 Z2.540000
(G00 Z2.540000)
G00 X50.2920 Y29.4640 
G01 Z-2.000000
G01 Z2.540000
(G00 Z2.540000)
G00 X65.5320 Y32.0040 
G01 Z-2.000000
G01 Z2.540000
(G00 Z2.540000)
G00 X65.5320 Y34.5440 
G01 Z-2.000000
G01 Z2.540000
(G00 Z2.540000)
G00 X65.5320 Y37.0840 
G01 Z-2.000000
G01 Z2.540000
(G00 Z2.540000)
G00 X65.5320 Y39.6240 
G01 Z-2.000000
G01 Z2.540000
(G00 Z2.540000)
G00 X65.5320 Y42.1640 
G01 Z-2.000000
G01 Z2.540000
(G00 Z2.540000)
G00 X65.5320 Y44.7040 
G01 Z-2.000000
G01 Z2.540000
(G00 Z2.540000)
G00 X65.5320 Y47.2440 
G01 Z-2.000000
G01 Z2.540000
(G00 Z2.540000)
G00 X65.5320 Y49.7840 
G01 Z-2.000000
G01 Z2.540000
(G00 Z2.540000)
G00 X65.5320 Y52.3240 
G01 Z-2.000000
G01 Z2.540000
(G00 Z2.540000)
G00 X65.5320 Y54.8640 
G01 Z-2.000000
G01 Z2.540000
(G00 Z2.540000)
G00 X65.5320 Y57.4040 
G01 Z-2.000000
G01 Z2.540000
(G00 Z2.540000)
G00 X65.5320 Y59.9440 
G01 Z-2.000000
G01 Z2.540000
(G00 Z2.540000)
G00 X65.5320 Y62.4840 
G01 Z-2.000000
G01 Z2.540000
(G00 Z2.540000)
G00 X65.5320 Y65.0240 
G01 Z-2.000000
G01 Z2.540000
(G00 Z2.540000)
G00 X65.5320 Y67.5640 
G01 Z-2.000000
G01 Z2.540000
(G00 Z2.540000)
G00 X65.5320 Y19.3040 
G01 Z-2.000000
G01 Z2.540000
(G00 Z2.540000)
G00 X65.5320 Y21.8440 
G01 Z-2.000000
G01 Z2.540000
(G00 Z2.540000)
G00 X65.5320 Y24.3840 
G01 Z-2.000000
G01 Z2.540000
(G00 Z2.540000)
G00 X65.5320 Y26.9240 
G01 Z-2.000000
G01 Z2.540000
(G00 Z2.540000)
G00 X65.5320 Y29.4640 
G01 Z-2.000000
G01 Z2.540000
M05
G00 Z25.4000 
M06 T04  ; 0.8128 
G01 Z0.0000 F254.00 
M06 T04  ; 0.8128 
G00 Z2.5400 
M03
G04 P3.000000
G00 Z2.540000
G00 X34.4170 Y45.9740 
G01 Z-2.0000 F254.00 
G01 Z2.540000
(R2.5400  P1.000000)
(G00 Z2.540000)
G00 X34.4170 Y29.4640 
G01 Z-2.000000
G01 Z2.540000
(G00 Z2.540000)
G00 X35.7170 Y61.2140 
G01 Z-2.000000
G01 Z2.540000
(G00 Z2.540000)
G00 X36.3220 Y44.7040 
G01 Z-2.000000
G01 Z2.540000
(G00 Z2.540000)
G00 X36.3220 Y47.2440 
G01 Z-2.000000
G01 Z2.540000
(G00 Z2.540000)
G00 X36.3220 Y28.1940 
G01 Z-2.000000
G01 Z2.540000
(G00 Z2.540000)
G00 X36.3220 Y30.7340 
G01 Z-2.000000
G01 Z2.540000
(G00 Z2.540000)
G00 X36.6920 Y7.4290 
G01 Z-2.000000
G01 Z2.540000
(G00 Z2.540000)
G00 X37.6220 Y59.9440 
G01 Z-2.000000
G01 Z2.540000
(G00 Z2.540000)
G00 X37.6220 Y62.4840 
G01 Z-2.000000
G01 Z2.540000
(G00 Z2.540000)
G00 X38.5970 Y6.1590 
G01 Z-2.000000
G01 Z2.540000
(G00 Z2.540000)
G00 X38.5970 Y8.6990 
G01 Z-2.000000
G01 Z2.540000
(G00 Z2.540000)
G00 X71.8820 Y62.4840 
G01 Z-2.000000
G01 Z2.540000
(G00 Z2.540000)
G00 X71.8820 Y70.1040 
G01 Z-2.000000
G01 Z2.540000
(G00 Z2.540000)
G00 X74.4220 Y62.4840 
G01 Z-2.000000
G01 Z2.540000
(G00 Z2.540000)
G00 X74.4220 Y70.1040 
G01 Z-2.000000
G01 Z2.540000
(G00 Z2.540000)
G00 X76.9620 Y62.4840 
G01 Z-2.000000
G01 Z2.540000
(G00 Z2.540000)
G00 X76.9620 Y70.1040 
G01 Z-2.000000
G01 Z2.540000
(G00 Z2.540000)
G00 X79.5020 Y62.4840 
G01 Z-2.000000
G01 Z2.540000
(G00 Z2.540000)
G00 X79.5020 Y70.1040 
G01 Z-2.000000
G01 Z2.540000
(G00 Z2.540000)
G00 X82.0420 Y62.4840 
G01 Z-2.000000
G01 Z2.540000
(G00 Z2.540000)
G00 X82.0420 Y70.1040 
G01 Z-2.000000
G01 Z2.540000
(G00 Z2.540000)
G00 X8.3820 Y57.4040 
G01 Z-2.000000
G01 Z2.540000
(G00 Z2.540000)
G00 X84.5820 Y62.4840 
G01 Z-2.000000
G01 Z2.540000
(G00 Z2.540000)
G00 X84.5820 Y70.1040 
G01 Z-2.000000
G01 Z2.540000
(G00 Z2.540000)
G00 X87.1220 Y62.4840 
G01 Z-2.000000
G01 Z2.540000
(G00 Z2.540000)
G00 X87.1220 Y70.1040 
G01 Z-2.000000
G01 Z2.540000
(G00 Z2.540000)
G00 X18.5420 Y57.4040 
G01 Z-2.000000
G01 Z2.540000
(G00 Z2.540000)
G00 X23.6220 Y33.2740 
G01 Z-2.000000
G01 Z2.540000
(G00 Z2.540000)
G00 X23.6220 Y47.2440 
G01 Z-2.000000
G01 Z2.540000
(G00 Z2.540000)
G00 X23.6220 Y49.7840 
G01 Z-2.000000
G01 Z2.540000
(G00 Z2.540000)
G00 X23.6220 Y62.4840 
G01 Z-2.000000
G01 Z2.540000
(G00 Z2.540000)
G00 X23.6220 Y65.0240 
G01 Z-2.000000
G01 Z2.540000
(G00 Z2.540000)
G00 X23.6220 Y12.9540 
G01 Z-2.000000
G01 Z2.540000
(G00 Z2.540000)
G00 X23.6220 Y15.4940 
G01 Z-2.000000
G01 Z2.540000
(G00 Z2.540000)
G00 X23.6220 Y30.7340 
G01 Z-2.000000
G01 Z2.540000
(G00 Z2.540000)
G00 X27.4320 Y37.0840 
G01 Z-2.000000
G01 Z2.540000
(G00 Z2.540000)
G00 X27.4320 Y43.4340 
G01 Z-2.000000
G01 Z2.540000
(G00 Z2.540000)
G00 X27.4320 Y53.5940 
G01 Z-2.000000
G01 Z2.540000
(G00 Z2.540000)
G00 X27.4320 Y58.6740 
G01 Z-2.000000
G01 Z2.540000
(G00 Z2.540000)
G00 X27.4320 Y68.8340 
G01 Z-2.000000
G01 Z2.540000
(G00 Z2.540000)
G00 X27.4320 Y9.1440 
G01 Z-2.000000
G01 Z2.540000
(G00 Z2.540000)
G00 X27.4320 Y19.3040 
G01 Z-2.000000
G01 Z2.540000
(G00 Z2.540000)
G00 X27.4320 Y26.9240 
G01 Z-2.000000
G01 Z2.540000
(G00 Z2.540000)
G00 X31.2420 Y42.1640 
G01 Z-2.000000
G01 Z2.540000
(G00 Z2.540000)
G00 X31.2420 Y44.7040 
G01 Z-2.000000
G01 Z2.540000
(G00 Z2.540000)
G00 X31.2420 Y58.0540 
G01 Z-2.000000
G01 Z2.540000
(G00 Z2.540000)
G00 X31.2420 Y60.5940 
G01 Z-2.000000
G01 Z2.540000
(G00 Z2.540000)
G00 X31.2420 Y7.8740 
G01 Z-2.000000
G01 Z2.540000
(G00 Z2.540000)
G00 X31.2420 Y10.4140 
G01 Z-2.000000
G01 Z2.540000
(G00 Z2.540000)
G00 X31.2420 Y25.6540 
G01 Z-2.000000
G01 Z2.540000
(G00 Z2.540000)
G00 X31.2420 Y28.1940 
G01 Z-2.000000
G01 Z2.540000
M05
G00 Z25.4000 
M06 T05  ; 0.9000 
G01 Z0.0000 F254.00 
M06 T05  ; 0.9000 
G00 Z2.5400 
M03
G04 P3.000000
G00 Z2.540000
G00 X31.2720 Y63.7840 
G01 Z-2.0000 F254.00 
G01 Z2.540000
(R2.5400  P1.000000)
(G00 Z2.540000)
G00 X31.2720 Y71.4040 
G01 Z-2.000000
G01 Z2.540000
(G00 Z2.540000)
G00 X32.1870 Y17.3540 
G01 Z-2.000000
G01 Z2.540000
(G00 Z2.540000)
G00 X32.5120 Y51.0540 
G01 Z-2.000000
G01 Z2.540000
(G00 Z2.540000)
G00 X32.8370 Y35.5190 
G01 Z-2.000000
G01 Z2.540000
(G00 Z2.540000)
G00 X33.1620 Y39.0340 
G01 Z-2.000000
G01 Z2.540000
(G00 Z2.540000)
G00 X33.8120 Y54.2440 
G01 Z-2.000000
G01 Z2.540000
(G00 Z2.540000)
G00 X34.4620 Y66.2940 
G01 Z-2.000000
G01 Z2.540000
(G00 Z2.540000)
G00 X34.4620 Y70.1340 
G01 Z-2.000000
G01 Z2.540000
(G00 Z2.540000)
G00 X34.4620 Y14.1640 
G01 Z-2.000000
G01 Z2.540000
(G00 Z2.540000)
G00 X39.8070 Y17.3540 
G01 Z-2.000000
G01 Z2.540000
(G00 Z2.540000)
G00 X40.1320 Y51.0540 
G01 Z-2.000000
G01 Z2.540000
(G00 Z2.540000)
G00 X40.4570 Y35.5190 
G01 Z-2.000000
G01 Z2.540000
(G00 Z2.540000)
G00 X40.7820 Y39.0340 
G01 Z-2.000000
G01 Z2.540000
(G00 Z2.540000)
G00 X41.4320 Y54.2440 
G01 Z-2.000000
G01 Z2.540000
(G00 Z2.540000)
G00 X42.0820 Y66.2940 
G01 Z-2.000000
G01 Z2.540000
(G00 Z2.540000)
G00 X42.0820 Y70.1340 
G01 Z-2.000000
G01 Z2.540000
(G00 Z2.540000)
G00 X42.0820 Y14.1640 
G01 Z-2.000000
G01 Z2.540000
(G00 Z2.540000)
G00 X5.8420 Y42.1640 
G01 Z-2.000000
G01 Z2.540000
(G00 Z2.540000)
G00 X5.8420 Y6.6040 
G01 Z-2.000000
G01 Z2.540000
(G00 Z2.540000)
G00 X5.8420 Y25.6540 
G01 Z-2.000000
G01 Z2.540000
(G00 Z2.540000)
G00 X70.6120 Y45.9740 
G01 Z-2.000000
G01 Z2.540000
(G00 Z2.540000)
G00 X70.6120 Y53.5940 
G01 Z-2.000000
G01 Z2.540000
(G00 Z2.540000)
G00 X73.1520 Y51.0540 
G01 Z-2.000000
G01 Z2.540000
(G00 Z2.540000)
G00 X73.1520 Y58.6740 
G01 Z-2.000000
G01 Z2.540000
(G00 Z2.540000)
G00 X75.6920 Y51.0540 
G01 Z-2.000000
G01 Z2.540000
(G00 Z2.540000)
G00 X75.6920 Y58.6740 
G01 Z-2.000000
G01 Z2.540000
(G00 Z2.540000)
G00 X75.9870 Y16.2890 
G01 Z-2.000000
G01 Z2.540000
(G00 Z2.540000)
G00 X75.9870 Y23.9090 
G01 Z-2.000000
G01 Z2.540000
(G00 Z2.540000)
G00 X76.9920 Y39.6240 
G01 Z-2.000000
G01 Z2.540000
(G00 Z2.540000)
G00 X76.9920 Y47.2440 
G01 Z-2.000000
G01 Z2.540000
(G00 Z2.540000)
G00 X78.2320 Y51.0540 
G01 Z-2.000000
G01 Z2.540000
(G00 Z2.540000)
G00 X78.2320 Y58.6740 
G01 Z-2.000000
G01 Z2.540000
(G00 Z2.540000)
G00 X80.1220 Y32.0040 
G01 Z-2.000000
G01 Z2.540000
(G00 Z2.540000)
G00 X80.1220 Y24.3840 
G01 Z-2.000000
G01 Z2.540000
(G00 Z2.540000)
G00 X80.7720 Y38.3540 
G01 Z-2.000000
G01 Z2.540000
(G00 Z2.540000)
G00 X80.7720 Y45.9740 
G01 Z-2.000000
G01 Z2.540000
(G00 Z2.540000)
G00 X80.7720 Y51.0540 
G01 Z-2.000000
G01 Z2.540000
(G00 Z2.540000)
G00 X80.7720 Y58.6740 
G01 Z-2.000000
G01 Z2.540000
(G00 Z2.540000)
G00 X83.3120 Y51.0540 
G01 Z-2.000000
G01 Z2.540000
(G00 Z2.540000)
G00 X83.3120 Y58.6740 
G01 Z-2.000000
G01 Z2.540000
(G00 Z2.540000)
G00 X10.9220 Y38.3540 
G01 Z-2.000000
G01 Z2.540000
(G00 Z2.540000)
G00 X10.9220 Y54.8640 
G01 Z-2.000000
G01 Z2.540000
(G00 Z2.540000)
G00 X10.9220 Y20.5740 
G01 Z-2.000000
G01 Z2.540000
(G00 Z2.540000)
G00 X12.1920 Y71.0790 
G01 Z-2.000000
G01 Z2.540000
(G00 Z2.540000)
G00 X13.4620 Y42.1640 
G01 Z-2.000000
G01 Z2.540000
(G00 Z2.540000)
G00 X13.4620 Y6.6040 
G01 Z-2.000000
G01 Z2.540000
(G00 Z2.540000)
G00 X13.4620 Y25.6540 
G01 Z-2.000000
G01 Z2.540000
(G00 Z2.540000)
G00 X18.5420 Y38.3540 
G01 Z-2.000000
G01 Z2.540000
(G00 Z2.540000)
G00 X18.5420 Y54.8640 
G01 Z-2.000000
G01 Z2.540000
(G00 Z2.540000)
G00 X18.5420 Y20.5740 
G01 Z-2.000000
G01 Z2.540000
(G00 Z2.540000)
G00 X19.8120 Y71.0790 
G01 Z-2.000000
G01 Z2.540000
(G00 Z2.540000)
G00 X29.9720 Y38.3540 
G01 Z-2.000000
G01 Z2.540000
(G00 Z2.540000)
G00 X29.9720 Y47.2440 
G01 Z-2.000000
G01 Z2.540000
(G00 Z2.540000)
G00 X29.9720 Y54.8640 
G01 Z-2.000000
G01 Z2.540000
(G00 Z2.540000)
G00 X29.9720 Y12.9540 
G01 Z-2.000000
G01 Z2.540000
(G00 Z2.540000)
G00 X29.9720 Y20.5740 
G01 Z-2.000000
G01 Z2.540000
(G00 Z2.540000)
G00 X29.9720 Y30.7340 
G01 Z-2.000000
G01 Z2.540000
M05
G00 Z25.4000 
M06 T06  ; 1.0000 
G01 Z0.0000 F254.00 
M06 T06  ; 1.0000 
G00 Z2.5400 
M03
G04 P3.000000
G00 Z2.540000
G00 X36.4490 Y23.1140 
G01 Z-2.0000 F254.00 
G01 Z2.540000
(R2.5400  P1.000000)
(G00 Z2.540000)
G00 X42.9520 Y23.1540 
G01 Z-2.000000
G01 Z2.540000
(G00 Z2.540000)
G00 X54.3670 Y10.5040 
G01 Z-2.000000
G01 Z2.540000
(G00 Z2.540000)
G00 X56.9070 Y10.5040 
G01 Z-2.000000
G01 Z2.540000
(G00 Z2.540000)
G00 X59.4470 Y10.5040 
G01 Z-2.000000
G01 Z2.540000
(G00 Z2.540000)
G00 X61.9870 Y10.5040 
G01 Z-2.000000
G01 Z2.540000
(G00 Z2.540000)
G00 X9.8020 Y64.4290 
G01 Z-2.000000
G01 Z2.540000
(G00 Z2.540000)
G00 X17.2770 Y64.4290 
G01 Z-2.000000
G01 Z2.540000
M05
G00 Z25.4000 
M06 T07  ; 1.0160 
G01 Z0.0000 F254.00 
M06 T07  ; 1.0160 
G00 Z2.5400 
M03
G04 P3.000000
G00 Z2.540000
G00 X82.8358 Y15.9534 
G01 Z-2.0000 F254.00 
G01 Z2.540000
(R2.5400  P1.000000)
(G00 Z2.540000)
G00 X82.8358 Y20.4746 
G01 Z-2.000000
G01 Z2.540000
(G00 Z2.540000)
G00 X82.8358 Y25.1384 
G01 Z-2.000000
G01 Z2.540000
(G00 Z2.540000)
G00 X82.8358 Y29.6596 
G01 Z-2.000000
G01 Z2.540000
(G00 Z2.540000)
G00 X89.3382 Y15.9534 
G01 Z-2.000000
G01 Z2.540000
(G00 Z2.540000)
G00 X89.3382 Y20.4746 
G01 Z-2.000000
G01 Z2.540000
(G00 Z2.540000)
G00 X89.3382 Y25.1384 
G01 Z-2.000000
G01 Z2.540000
(G00 Z2.540000)
G00 X89.3382 Y29.6596 
G01 Z-2.000000
G01 Z2.540000
(G00 Z2.540000)
G00 X89.6620 Y47.2440 
G01 Z-2.000000
G01 Z2.540000
(G00 Z2.540000)
G00 X89.6620 Y49.7840 
G01 Z-2.000000
G01 Z2.540000
(G00 Z2.540000)
G00 X89.6620 Y53.5940 
G01 Z-2.000000
G01 Z2.540000
(G00 Z2.540000)
G00 X89.6620 Y56.1340 
G01 Z-2.000000
G01 Z2.540000
M05
G00 Z25.4000 
M06 T08  ; 2.0000 
G01 Z0.0000 F254.00 
M06 T08  ; 2.0000 
G00 Z2.5400 
M03
G04 P3.000000
G00 Z2.540000
G00 X47.7630 Y34.7610 
G01 Z-2.0000 F254.00 
G01 Z2.540000
(R2.5400  P1.000000)
(G00 Z2.540000)
G00 X47.7630 Y11.6470 
G01 Z-2.000000
G01 Z2.540000
(G00 Z2.540000)
G00 X68.5910 Y34.7610 
G01 Z-2.000000
G01 Z2.540000
(G00 Z2.540000)
G00 X68.5910 Y11.6470 
G01 Z-2.000000
G01 Z2.540000
T01 
G00 Z12.7000 
M05
M02
